; generated by PrusaSlicer 2.7.4+win64 on 2024-06-11 at 09:44:09 UTC

; 

; external perimeters extrusion width = 0.42mm
; perimeters extrusion width = 0.45mm
; infill extrusion width = 0.45mm
; solid infill extrusion width = 0.50mm
; top infill extrusion width = 0.42mm
; support material extrusion width = 0.42mm
; first layer extrusion width = 0.56mm

M201 X2500 Y2500 Z800 E2500 ; sets maximum accelerations, mm/sec^2
M203 X250 Y250 Z8 E80 ; sets maximum feedrates, mm / sec
M204 S2500 T2500 ; sets acceleration (S) and retract acceleration (R), mm/sec^2
M205 X10.00 Y10.00 Z2.00 E10.00 ; sets the jerk limits, mm/sec
M205 S0 T0 ; sets the minimum extruding and travel feed rate, mm/sec
;TYPE:Custom
G90 ; use absolute coordinates
M83 ; extruder relative mode
M104 S215 ; set extruder temp
M140 S60 ; set bed temp
M190 S60 ; wait for bed temp
M109 S215 ; wait for extruder temp
G28                                        ; move X/Y/Z to min endstops
G1 Z0.28                                   ; lift nozzle a bit 
G92 E0 
G1 Y3 F1800                                    ; zero the extruded length 
G1 X60  E25 F500                       ; Extrude 25mm of filament in a 5cm line. 
G92 E0                                     ; zero the extruded length again 
G1 E-2 F500                                ; Retract a little 
G1 X70 F4000                              ; Quickly wipe away from the filament line
M117
G21 ; set units to millimeters
G90 ; use absolute coordinates
M82 ; use absolute distances for extrusion
G92 E0
M107
;LAYER_CHANGE
;Z:0.28
;HEIGHT:0.28
G1 E-2 F4800
G92 E0
G1 Z.28 F7200
G92 E0
G1 X198.184 Y39.091
G1 E2 F4800
G92 E0
;TYPE:External perimeter
;WIDTH:0.56
G1 F3000
G1 X198.189 Y177.323 E8.0444
G1 X199.134 Y177.681 E8.10321
G1 X199.546 Y177.86 E8.12935
G1 X200.363 Y178.267 E8.18247
G1 X200.754 Y178.487 E8.20858
G1 X201.524 Y178.973 E8.26157
G1 X202.26 Y179.509 E8.31456
G1 X202.609 Y179.792 E8.34071
G1 X203.287 Y180.4 E8.39371
G1 X203.921 Y181.05 E8.44655
G1 X204.51 Y181.741 E8.49939
G1 X205.051 Y182.47 E8.55222
G1 X205.543 Y183.236 E8.6052
G1 X205.766 Y183.626 E8.63134
G1 X206.18 Y184.439 E8.68443
G1 X206.363 Y184.849 E8.71056
G1 X206.693 Y185.7 E8.76368
G1 X206.834 Y186.127 E8.78985
G1 X207.076 Y187.007 E8.84296
G1 X207.174 Y187.446 E8.86914
G1 X207.326 Y188.345 E8.9222
G1 X207.379 Y188.792 E8.9484
G1 X207.431 Y189.525 E8.99116
G1 X207.44 Y190.609 E9.05425
G1 X207.379 Y191.516 E9.10715
G1 X207.326 Y191.962 E9.13329
G1 X207.174 Y192.862 E9.18641
G1 X207.076 Y193.301 E9.21259
G1 X206.834 Y194.181 E9.2657
G1 X206.693 Y194.607 E9.29181
G1 X206.363 Y195.458 E9.34493
G1 X206.18 Y195.869 E9.37111
G1 X205.766 Y196.682 E9.4242
G1 X205.543 Y197.072 E9.45034
G1 X205.051 Y197.838 E9.50332
G1 X204.508 Y198.569 E9.55631
G1 X204.221 Y198.917 E9.58256
G1 X203.923 Y199.256 E9.60883
G1 X203.287 Y199.908 E9.66184
G1 X202.609 Y200.516 E9.71484
G1 X202.26 Y200.798 E9.74095
G1 X201.522 Y201.336 E9.7941
G1 X201.146 Y201.582 E9.82025
G1 X200.359 Y202.043 E9.87333
G1 X199.958 Y202.251 E9.89962
G1 X199.55 Y202.446 E9.92594
G1 X198.708 Y202.797 E9.97903
G1 X198.285 Y202.948 E10.00517
G1 X197.411 Y203.213 E10.05832
G1 X196.975 Y203.321 E10.08446
G1 X196.079 Y203.496 E10.13759
G1 X195.635 Y203.56 E10.1637
G1 X194.728 Y203.644 E10.21671
G1 X193.818 Y203.667 E10.26968
G1 X193.369 Y203.656 E10.29582
G1 X192.461 Y203.587 E10.34881
G1 X191.56 Y203.458 E10.40178
G1 X190.677 Y203.269 E10.45433
G1 X189.801 Y203.02 E10.50733
G1 X188.947 Y202.714 E10.56012
G1 X188.115 Y202.35 E10.61297
G1 X187.309 Y201.932 E10.66581
G1 X186.533 Y201.461 E10.71864
G1 X185.788 Y200.937 E10.77165
G1 X185.433 Y200.659 E10.79789
G1 X185.086 Y200.368 E10.82424
G1 X184.418 Y199.749 E10.87724
G1 X183.912 Y199.216 E10.92001
G1 X183.501 Y198.743 E10.95648
G1 X183.069 Y198.189 E10.99736
G1 X38.65 Y198.189 E19.40181
G1 X38.415 Y199.041 E19.45324
G1 X38.274 Y199.467 E19.47935
G1 X37.945 Y200.318 E19.53245
G1 X37.761 Y200.729 E19.55866
G1 X37.348 Y201.542 E19.61173
G1 X37.124 Y201.932 E19.6379
G1 X36.632 Y202.698 E19.69088
G1 X36.091 Y203.427 E19.74371
G1 X35.502 Y204.118 E19.79655
G1 X34.868 Y204.768 E19.84939
G1 X34.19 Y205.376 E19.90239
G1 X33.841 Y205.658 E19.9285
G1 X33.104 Y206.196 E19.9816
G1 X32.728 Y206.442 E20.00775
G1 X31.942 Y206.902 E20.06075
G1 X31.129 Y207.307 E20.11361
G1 X30.289 Y207.657 E20.16657
G1 X29.866 Y207.808 E20.19271
G1 X28.992 Y208.073 E20.24586
G1 X28.556 Y208.181 E20.272
G1 X27.661 Y208.356 E20.32507
G1 X27.216 Y208.42 E20.35123
G1 X26.31 Y208.504 E20.40418
G1 X25.399 Y208.527 E20.45721
G1 X24.95 Y208.516 E20.48335
G1 X24.043 Y208.447 E20.53629
G1 X23.144 Y208.318 E20.58914
G1 X22.256 Y208.129 E20.64197
G1 X21.383 Y207.88 E20.6948
G1 X20.528 Y207.574 E20.74765
G1 X19.696 Y207.21 E20.8005
G1 X18.89 Y206.792 E20.85334
G1 X18.114 Y206.321 E20.90617
G1 X17.372 Y205.798 E20.959
G1 X16.666 Y205.227 E21.01184
G1 X16 Y204.609 E21.06471
G1 X15.495 Y204.078 E21.10735
G1 X14.799 Y203.247 E21.17043
G1 X14.27 Y202.508 E21.22332
G1 X14.027 Y202.13 E21.24947
G1 X13.574 Y201.341 E21.30242
G1 X13.175 Y200.522 E21.35544
G1 X12.999 Y200.109 E21.38157
G1 X12.683 Y199.252 E21.43473
G1 X12.55 Y198.824 E21.46081
G1 X12.322 Y197.94 E21.51394
G1 X12.232 Y197.499 E21.54013
G1 X12.095 Y196.597 E21.59322
G1 X12.049 Y196.15 E21.61937
G1 X12.003 Y195.239 E21.67245
G1 X12.003 Y194.787 E21.69875
G1 X12.019 Y194.336 E21.72501
G1 X12.095 Y193.426 E21.77815
G1 X12.155 Y192.981 E21.80428
G1 X12.323 Y192.084 E21.85739
G1 X12.428 Y191.647 E21.88354
G1 X12.685 Y190.771 E21.93667
G1 X12.833 Y190.346 E21.96286
G1 X13.108 Y189.664 E22.00565
G1 X13.575 Y188.687 E22.06867
G1 X14.027 Y187.898 E22.12159
G1 X14.27 Y187.52 E22.14774
G1 X14.8 Y186.78 E22.20071
G1 X15.377 Y186.079 E22.25355
G1 X16 Y185.418 E22.30641
G1 X16.666 Y184.801 E22.35924
G1 X17.372 Y184.23 E22.41208
G1 X18.114 Y183.707 E22.46491
G1 X18.892 Y183.235 E22.51787
G1 X19.287 Y183.021 E22.54401
G1 X20.111 Y182.628 E22.59714
G1 X20.524 Y182.456 E22.62318
G1 X21.811 Y182.009 E22.70247
G1 X21.811 Y38.181 E31.07253
G1 X20.421 Y37.805 E31.15633
G1 X19.566 Y37.498 E31.2092
G1 X18.738 Y37.137 E31.26177
G1 X17.93 Y36.717 E31.31476
G1 X17.154 Y36.246 E31.36759
G1 X16.412 Y35.723 E31.42042
G1 X15.706 Y35.152 E31.47326
G1 X15.04 Y34.535 E31.52609
G1 X14.535 Y34.004 E31.56873
G1 X13.84 Y33.173 E31.63177
G1 X13.31 Y32.433 E31.68474
G1 X13.067 Y32.055 E31.71089
G1 X12.614 Y31.266 E31.76384
G1 X12.215 Y30.448 E31.8168
G1 X12.039 Y30.034 E31.84298
G1 X11.724 Y29.178 E31.89606
G1 X11.59 Y28.749 E31.92222
G1 X11.362 Y27.865 E31.97535
G1 X11.272 Y27.425 E32.00149
G1 X11.135 Y26.523 E32.05458
G1 X11.09 Y26.075 E32.08078
G1 X11.044 Y25.166 E32.13375
G1 X11.059 Y24.259 E32.18654
G1 X11.135 Y23.351 E32.23957
G1 X11.196 Y22.906 E32.26571
G1 X11.363 Y22.009 E32.31881
G1 X11.468 Y21.572 E32.34496
G1 X11.725 Y20.696 E32.39809
G1 X11.874 Y20.272 E32.42424
G1 X12.148 Y19.59 E32.46701
G1 X12.615 Y18.612 E32.53008
G1 X13.067 Y17.823 E32.583
G1 X13.31 Y17.445 E32.60915
G1 X13.84 Y16.705 E32.66212
G1 X14.417 Y16.004 E32.71496
G1 X15.04 Y15.344 E32.76778
G1 X15.706 Y14.726 E32.82065
G1 X16.412 Y14.155 E32.87349
G1 X17.154 Y13.633 E32.92629
G1 X17.932 Y13.16 E32.97928
G1 X18.328 Y12.946 E33.00547
G1 X19.151 Y12.553 E33.05854
G1 X19.566 Y12.38 E33.08471
G1 X20.425 Y12.072 E33.13782
G1 X20.856 Y11.942 E33.16402
G1 X21.571 Y11.761 E33.20694
G1 X22.183 Y11.635 E33.2433
G1 X23.083 Y11.506 E33.29621
G1 X23.989 Y11.437 E33.34909
G1 X24.721 Y11.428 E33.39169
G1 X25.804 Y11.483 E33.4548
G1 X26.706 Y11.598 E33.50772
G1 X27.148 Y11.676 E33.53384
G1 X28.035 Y11.881 E33.58682
G1 X28.904 Y12.144 E33.63966
G1 X29.756 Y12.466 E33.69266
G1 X30.167 Y12.646 E33.71877
G1 X30.984 Y13.053 E33.77189
G1 X31.376 Y13.273 E33.79805
G1 X32.146 Y13.759 E33.85104
G1 X32.881 Y14.295 E33.90398
G1 X33.231 Y14.578 E33.93017
G1 X33.91 Y15.187 E33.98325
G1 X34.231 Y15.505 E34.00955
G1 X34.541 Y15.833 E34.03581
G1 X35.131 Y16.526 E34.08878
G1 X35.672 Y17.255 E34.14161
G1 X36.164 Y18.021 E34.19459
G1 X36.388 Y18.411 E34.22076
G1 X36.802 Y19.225 E34.27391
G1 X36.985 Y19.635 E34.30004
G1 X37.315 Y20.486 E34.35316
G1 X37.456 Y20.913 E34.37933
G1 X37.703 Y21.811 E34.43353
G1 X183.173 Y21.813 E42.89915
G1 X183.424 Y21.067 E42.94495
G1 X183.698 Y20.386 E42.98767
G1 X184.165 Y19.408 E43.05074
G1 X184.617 Y18.62 E43.10361
G1 X184.86 Y18.242 E43.12976
G1 X185.392 Y17.5 E43.18289
G1 X185.966 Y16.802 E43.23548
G1 X186.59 Y16.14 E43.28842
G1 X187.256 Y15.523 E43.34125
G1 X187.962 Y14.951 E43.39413
G1 X188.704 Y14.429 E43.44693
G1 X189.482 Y13.956 E43.49992
G1 X189.878 Y13.743 E43.52609
G1 X190.701 Y13.35 E43.57916
G1 X191.116 Y13.177 E43.60533
G1 X191.975 Y12.869 E43.65844
G1 X192.406 Y12.738 E43.68465
G1 X193.121 Y12.557 E43.72757
G1 X193.733 Y12.432 E43.76392
G1 X194.633 Y12.302 E43.81684
G1 X195.539 Y12.234 E43.86971
G1 X196.271 Y12.225 E43.91231
G1 X197.354 Y12.28 E43.97542
G1 X198.256 Y12.394 E44.02833
G1 X198.698 Y12.473 E44.05446
G1 X199.587 Y12.678 E44.10755
G1 X200.022 Y12.802 E44.13387
G1 X200.452 Y12.94 E44.16015
G1 X201.306 Y13.262 E44.21326
G1 X201.717 Y13.442 E44.23937
G1 X202.534 Y13.849 E44.29249
G1 X202.926 Y14.069 E44.31865
G1 X203.696 Y14.555 E44.37164
G1 X204.431 Y15.091 E44.42458
G1 X204.781 Y15.374 E44.45077
G1 X205.459 Y15.981 E44.50373
G1 X206.092 Y16.632 E44.55657
G1 X206.681 Y17.323 E44.60941
G1 X207.222 Y18.052 E44.66224
G1 X207.714 Y18.818 E44.71522
G1 X207.938 Y19.207 E44.74134
G1 X208.352 Y20.021 E44.79449
G1 X208.535 Y20.431 E44.82062
G1 X208.865 Y21.282 E44.87374
G1 X209.006 Y21.709 E44.89991
G1 X209.248 Y22.589 E44.95302
G1 X209.345 Y23.027 E44.97913
G1 X209.498 Y23.927 E45.03226
G1 X209.551 Y24.374 E45.05846
G1 X209.603 Y25.107 E45.10122
G1 X209.612 Y26.191 E45.16431
G1 X209.551 Y27.098 E45.21721
G1 X209.498 Y27.544 E45.24335
G1 X209.345 Y28.444 E45.29648
G1 X209.248 Y28.883 E45.32264
G1 X209.006 Y29.762 E45.3757
G1 X208.865 Y30.189 E45.40187
G1 X208.535 Y31.04 E45.45499
G1 X208.352 Y31.45 E45.48112
G1 X207.938 Y32.264 E45.53427
G1 X207.714 Y32.654 E45.56044
G1 X207.222 Y33.42 E45.61342
G1 X206.681 Y34.149 E45.66625
G1 X206.092 Y34.84 E45.71909
G1 X205.459 Y35.49 E45.77189
G1 X204.781 Y36.097 E45.82485
G1 X204.431 Y36.38 E45.85104
G1 X203.694 Y36.918 E45.90414
G1 X203.318 Y37.164 E45.93029
G1 X202.532 Y37.623 E45.98326
G1 X201.719 Y38.028 E46.03612
G1 X200.879 Y38.378 E46.08908
G1 X200.456 Y38.53 E46.11524
G1 X199.583 Y38.794 E46.16832
G1 X199.147 Y38.903 E46.19447
G1 X198.243 Y39.08 E46.24808
G1 X198.243 Y39.08 F7200
G1 X197.684 Y38.721
;TYPE:Perimeter
G1 F3000
G1 X197.689 Y177.669 E54.33415
G1 X198.946 Y178.144 E54.41235
G1 X199.334 Y178.313 E54.43698
G1 X200.129 Y178.709 E54.48867
G1 X200.498 Y178.917 E54.51332
G1 X201.243 Y179.387 E54.56458
G1 X201.955 Y179.906 E54.61585
G1 X202.285 Y180.173 E54.64055
G1 X202.941 Y180.761 E54.69182
G1 X203.551 Y181.387 E54.74269
G1 X204.118 Y182.052 E54.79355
G1 X204.639 Y182.754 E54.84442
G1 X205.116 Y183.496 E54.89575
G1 X205.327 Y183.863 E54.92039
G1 X205.729 Y184.655 E54.97208
G1 X205.902 Y185.042 E54.99675
G1 X206.222 Y185.869 E55.04835
G1 X206.355 Y186.272 E55.07305
G1 X206.591 Y187.128 E55.12472
G1 X206.683 Y187.542 E55.1494
G1 X206.831 Y188.417 E55.20104
G1 X206.881 Y188.839 E55.22577
G1 X206.932 Y189.545 E55.26696
G1 X206.94 Y190.594 E55.32801
G1 X206.881 Y191.47 E55.3791
G1 X206.831 Y191.891 E55.40377
G1 X206.683 Y192.766 E55.45541
G1 X206.591 Y193.18 E55.48009
G1 X206.355 Y194.036 E55.53176
G1 X206.222 Y194.439 E55.55646
G1 X205.902 Y195.266 E55.60806
G1 X205.729 Y195.653 E55.63273
G1 X205.327 Y196.444 E55.68437
G1 X205.116 Y196.812 E55.70906
G1 X204.639 Y197.553 E55.76034
G1 X204.114 Y198.261 E55.81163
G1 X203.556 Y198.916 E55.8617
G1 X202.941 Y199.547 E55.91298
G1 X202.285 Y200.135 E55.96425
G1 X201.955 Y200.402 E55.98895
G1 X201.238 Y200.925 E56.0406
G1 X200.883 Y201.157 E56.06528
G1 X200.117 Y201.605 E56.11692
G1 X199.735 Y201.803 E56.14196
G1 X199.346 Y201.989 E56.16705
G1 X198.527 Y202.33 E56.21868
G1 X198.128 Y202.473 E56.24335
G1 X197.278 Y202.731 E56.29504
G1 X196.867 Y202.833 E56.31968
G1 X195.996 Y203.003 E56.37132
G1 X195.576 Y203.064 E56.39602
G1 X194.699 Y203.145 E56.44727
G1 X193.818 Y203.167 E56.49856
G1 X193.394 Y203.156 E56.52324
G1 X192.516 Y203.09 E56.57448
G1 X191.644 Y202.965 E56.62574
G1 X190.802 Y202.785 E56.67585
G1 X189.954 Y202.544 E56.72715
G1 X189.131 Y202.249 E56.77803
G1 X188.33 Y201.899 E56.8289
G1 X187.554 Y201.496 E56.87979
G1 X186.807 Y201.042 E56.93066
G1 X186.086 Y200.535 E56.98195
G1 X185.417 Y199.993 E57.03206
G1 X184.77 Y199.393 E57.08341
G1 X184.282 Y198.88 E57.12461
G1 X183.888 Y198.426 E57.15959
G1 X183.313 Y197.689 E57.21399
G1 X38.269 Y197.689 E65.65482
G1 X37.937 Y198.896 E65.72767
G1 X37.804 Y199.299 E65.75237
G1 X37.483 Y200.126 E65.804
G1 X37.31 Y200.513 E65.82867
G1 X36.908 Y201.304 E65.88031
G1 X36.697 Y201.672 E65.905
G1 X36.221 Y202.413 E65.95625
G1 X35.7 Y203.116 E66.00717
G1 X35.133 Y203.781 E66.05803
G1 X34.522 Y204.407 E66.10894
G1 X33.866 Y204.995 E66.16021
G1 X33.536 Y205.262 E66.18491
G1 X32.819 Y205.785 E66.23656
G1 X32.464 Y206.017 E66.26124
G1 X31.704 Y206.462 E66.31249
G1 X30.921 Y206.852 E66.3634
G1 X30.108 Y207.19 E66.41464
G1 X29.709 Y207.334 E66.43933
G1 X28.86 Y207.591 E66.49095
G1 X28.448 Y207.693 E66.51565
G1 X27.577 Y207.863 E66.56729
G1 X27.157 Y207.924 E66.59199
G1 X26.28 Y208.005 E66.64324
G1 X25.399 Y208.027 E66.69453
G1 X24.975 Y208.017 E66.71921
G1 X24.097 Y207.95 E66.77045
G1 X23.232 Y207.826 E66.8213
G1 X22.377 Y207.643 E66.87218
G1 X21.536 Y207.404 E66.92306
G1 X20.713 Y207.109 E66.97394
G1 X19.911 Y206.759 E67.02486
G1 X19.135 Y206.356 E67.07575
G1 X18.388 Y205.902 E67.12662
G1 X17.673 Y205.399 E67.17749
G1 X16.993 Y204.849 E67.22839
G1 X16.351 Y204.253 E67.27937
G1 X15.868 Y203.745 E67.32016
G1 X15.195 Y202.941 E67.38118
G1 X14.684 Y202.227 E67.43228
G1 X14.454 Y201.87 E67.45699
G1 X14.016 Y201.106 E67.50824
G1 X13.63 Y200.315 E67.55946
G1 X13.464 Y199.924 E67.58418
G1 X13.157 Y199.092 E67.63579
G1 X13.031 Y198.687 E67.66047
G1 X12.809 Y197.827 E67.71216
G1 X12.724 Y197.412 E67.73681
G1 X12.591 Y196.534 E67.78849
G1 X12.548 Y196.112 E67.81318
G1 X12.503 Y195.226 E67.86481
G1 X12.518 Y194.365 E67.91492
G1 X12.592 Y193.481 E67.96654
G1 X12.649 Y193.06 E67.99126
G1 X12.812 Y192.188 E68.04288
G1 X12.911 Y191.776 E68.06754
G1 X13.161 Y190.924 E68.11921
G1 X13.301 Y190.522 E68.14398
G1 X13.565 Y189.866 E68.18513
G1 X14.018 Y188.919 E68.24622
G1 X14.454 Y188.158 E68.29726
G1 X14.684 Y187.801 E68.32197
G1 X15.197 Y187.085 E68.37323
G1 X15.752 Y186.41 E68.42408
G1 X16.352 Y185.773 E68.47501
G1 X16.993 Y185.179 E68.52587
G1 X17.673 Y184.629 E68.57677
G1 X18.388 Y184.126 E68.62764
G1 X19.141 Y183.668 E68.67893
G1 X19.514 Y183.467 E68.70359
G1 X20.315 Y183.085 E68.75523
G1 X20.703 Y182.923 E68.7797
G1 X22.311 Y182.365 E68.87875
G1 X22.311 Y37.799 E77.29176
G1 X20.571 Y37.328 E77.39666
G1 X19.747 Y37.032 E77.44761
G1 X18.957 Y36.687 E77.49778
G1 X18.176 Y36.282 E77.54898
G1 X17.428 Y35.828 E77.5999
G1 X16.713 Y35.324 E77.65081
G1 X16.034 Y34.774 E77.70166
G1 X15.391 Y34.179 E77.75264
G1 X14.908 Y33.671 E77.79343
G1 X14.235 Y32.866 E77.85449
G1 X13.724 Y32.153 E77.90554
G1 X13.495 Y31.796 E77.93022
G1 X13.056 Y31.032 E77.9815
G1 X12.67 Y30.24 E78.03277
G1 X12.504 Y29.85 E78.05744
G1 X12.197 Y29.017 E78.1091
G1 X12.071 Y28.612 E78.13378
G1 X11.85 Y27.753 E78.1854
G1 X11.765 Y27.337 E78.21011
G1 X11.631 Y26.46 E78.26174
G1 X11.588 Y26.038 E78.28643
G1 X11.544 Y25.158 E78.33771
G1 X11.559 Y24.284 E78.38858
G1 X11.633 Y23.406 E78.43986
G1 X11.689 Y22.986 E78.46452
G1 X11.852 Y22.113 E78.5162
G1 X11.951 Y21.701 E78.54086
G1 X12.201 Y20.849 E78.59253
G1 X12.342 Y20.447 E78.61732
G1 X12.606 Y19.791 E78.65847
G1 X13.058 Y18.844 E78.71954
G1 X13.495 Y18.083 E78.77061
G1 X13.724 Y17.726 E78.79529
G1 X14.237 Y17.01 E78.84655
G1 X14.793 Y16.335 E78.89744
G1 X15.392 Y15.699 E78.94828
G1 X16.034 Y15.104 E78.99922
G1 X16.713 Y14.554 E79.05007
G1 X17.428 Y14.051 E79.10094
G1 X18.181 Y13.594 E79.1522
G1 X18.554 Y13.392 E79.17689
G1 X19.355 Y13.01 E79.22853
