; generated by PrusaSlicer 2.7.4+win64 on 2024-06-11 at 15:22:47 UTC

; 

; external perimeters extrusion width = 0.42mm
; perimeters extrusion width = 0.45mm
; infill extrusion width = 0.45mm
; solid infill extrusion width = 0.50mm
; top infill extrusion width = 0.42mm
; support material extrusion width = 0.42mm
; first layer extrusion width = 0.56mm

M201 X2500 Y2500 Z800 E2500 ; sets maximum accelerations, mm/sec^2
M203 X250 Y250 Z8 E80 ; sets maximum feedrates, mm / sec
M204 S2500 T2500 ; sets acceleration (S) and retract acceleration (R), mm/sec^2
M205 X10.00 Y10.00 Z2.00 E10.00 ; sets the jerk limits, mm/sec
M205 S0 T0 ; sets the minimum extruding and travel feed rate, mm/sec
;TYPE:Custom
G90 ; use absolute coordinates
M83 ; extruder relative mode
M104 S215 ; set extruder temp
M140 S60 ; set bed temp
M190 S60 ; wait for bed temp
M109 S215 ; wait for extruder temp
G28                                        ; move X/Y/Z to min endstops
G1 Z0.28                                   ; lift nozzle a bit 
G92 E0 
G1 Y3 F1800                                    ; zero the extruded length 
G1 X60  E25 F500                       ; Extrude 25mm of filament in a 5cm line. 
G92 E0                                     ; zero the extruded length again 
G1 E-2 F500                                ; Retract a little 
G1 X70 F4000                              ; Quickly wipe away from the filament line
M117
G21 ; set units to millimeters
G90 ; use absolute coordinates
M82 ; use absolute distances for extrusion
G92 E0
M107
;LAYER_CHANGE
;Z:0.28
;HEIGHT:0.28
G1 E-2 F4800
G92 E0
G1 Z.28 F7200
G92 E0
G1 X125.671 Y132.746
G1 E2 F4800
G92 E0
;TYPE:Support material
;WIDTH:0.56
G1 F3000
G1 X126.271 Y132.85 E.03544
G1 X126.733 Y133.031 E.06432
G1 X127.155 Y133.292 E.0932
G1 X127.596 Y133.705 E.12836
G1 X127.885 Y134.113 E.15746
G1 X128.129 Y134.662 E.19242
G1 X128.256 Y135.646 E.25016
G1 X128.158 Y136.242 E.28531
G1 X127.932 Y136.803 E.32051
G1 X127.317 Y137.577 E.37804
G1 X126.818 Y137.925 E.41344
G1 X126.362 Y138.121 E.44232
G1 X125.879 Y138.233 E.47117
G1 X125.275 Y138.25 E.50633
G1 X124.316 Y137.993 E.56411
G1 X123.802 Y137.675 E.59928
G1 X123.44 Y137.336 E.62814
G1 X122.922 Y136.485 E.68612
G1 X122.77 Y135.899 E.72135
G1 X122.748 Y135.3 E.75623
G1 X122.828 Y134.81 E.78512
G1 X123.043 Y134.245 E.8203
G1 X123.372 Y133.743 E.85523
G1 X123.724 Y133.388 E.88432
G1 X124.223 Y133.054 E.91926
G1 X124.685 Y132.864 E.94833
G1 X125.596 Y132.744 E1.0018
G1 X125.596 Y132.744 F7200
G1 X127.775 Y136.609
G1 F3000
G1 X127.764 Y135.046 E1.09276
G1 X127.61 Y134.564 E1.12221
G1 X127.219 Y133.962 E1.16398
G1 X127.219 Y137.036 E1.34287
G1 X126.664 Y137.491 E1.38463
G1 X126.664 Y133.51 E1.6163
G1 X126.108 Y133.275 E1.65143
G1 X126.108 Y137.724 E1.91034
G1 X125.553 Y137.808 E1.94301
G1 X125.553 Y133.193 E2.21158
G1 X124.997 Y133.248 E2.24409
G1 X124.997 Y137.752 E2.5062
G1 X124.514 Y137.588 E2.53588
G1 X124.442 Y137.549 E2.54065
G1 X124.442 Y133.448 E2.77931
G1 X123.886 Y133.853 E2.81934
G1 X123.886 Y137.152 E3.01133
G1 X123.618 Y136.837 E3.0354
G1 X123.331 Y136.286 E3.07155
G1 X123.331 Y134.197 E3.19312
G1 E1.79312 F4800
;WIPE_START
G1 F5760
G1 X123.331 Y134.955 E1.19312
;WIPE_END
G92 E0
G1 X94.671 Y132.746 F7200
G1 E2 F4800
G1 F3000
G1 X95.271 Y132.85 E2.03544
G1 X95.733 Y133.031 E2.06432
G1 X96.155 Y133.292 E2.0932
G1 X96.599 Y133.708 E2.12861
G1 X96.885 Y134.113 E2.15746
G1 X97.129 Y134.662 E2.19242
G1 X97.237 Y135.146 E2.22128
G1 X97.248 Y135.755 E2.25673
G1 X96.982 Y136.706 E2.3142
G1 X96.657 Y137.221 E2.34964
G1 X96.314 Y137.579 E2.37849
G1 X95.818 Y137.925 E2.41368
G1 X95.358 Y138.123 E2.44282
G1 X94.875 Y138.234 E2.47166
G1 X94.275 Y138.25 E2.50659
G1 X93.681 Y138.135 E2.5418
G1 X93.223 Y137.946 E2.57063
G1 X92.721 Y137.609 E2.60582
G1 X92.369 Y137.253 E2.63495
G1 X91.888 Y136.39 E2.69245
G1 X91.756 Y135.796 E2.72786
G1 X91.748 Y135.3 E2.75673
G1 X91.856 Y134.709 E2.79169
G1 X92.043 Y134.245 E2.8208
G1 X92.307 Y133.825 E2.84967
G1 X92.724 Y133.388 E2.88482
G1 X93.586 Y132.896 E2.94258
G1 X94.596 Y132.744 E3.00202
G1 X94.596 Y132.744 F7200
G1 X96.669 Y136.806
G1 F3000
G1 X96.669 Y134.718 E3.12353
G1 X96.496 Y134.34 E3.14772
G1 X96.114 Y133.852 E3.18379
G1 X96.114 Y137.146 E3.37548
G1 X95.558 Y137.551 E3.41551
G1 X95.531 Y133.434 E3.6551
G1 X95.003 Y133.25 E3.68764
G1 X95.003 Y137.751 E3.94958
G1 X94.447 Y137.805 E3.98209
G1 X94.447 Y133.193 E4.25049
G1 X93.892 Y133.276 E4.28315
G1 X93.892 Y137.724 E4.542
G1 X93.336 Y137.49 E4.57711
G1 X93.336 Y133.506 E4.80896
G1 X92.781 Y133.963 E4.8508
G1 X92.781 Y137.036 E5.02963
G1 X92.483 Y136.624 E5.05922
G1 X92.246 Y135.999 E5.09812
G1 X92.225 Y134.388 E5.19188
G1 E3.79188 F4800
;WIPE_START
G1 F5760
G1 X92.235 Y135.146 E3.19188
;WIPE_END
G92 E0
G1 X94.671 Y101.746 F7200
G1 E2 F4800
G1 F3000
G1 X95.271 Y101.85 E2.03544
G1 X95.733 Y102.031 E2.06432
G1 X96.155 Y102.292 E2.0932
G1 X96.596 Y102.705 E2.12836
G1 X96.883 Y103.109 E2.1572
G1 X97.13 Y103.666 E2.19266
G1 X97.237 Y104.15 E2.22151
G1 X97.248 Y104.755 E2.25672
G1 X97.158 Y105.242 E2.28554
G1 X96.932 Y105.803 E2.32074
G1 X96.66 Y106.218 E2.34962
G1 X96.234 Y106.647 E2.3848
G1 X95.362 Y107.121 E2.44256
G1 X94.875 Y107.234 E2.47165
G1 X94.275 Y107.25 E2.50658
G1 X93.782 Y107.164 E2.5357
G1 X93.219 Y106.944 E2.57088
G1 X92.44 Y106.336 E2.62839
G1 X92.142 Y105.934 E2.65751
G1 X91.887 Y105.386 E2.69268
G1 X91.77 Y104.904 E2.72154
G1 X91.748 Y104.295 E2.757
G1 X91.829 Y103.806 E2.78585
G1 X92.043 Y103.245 E2.82079
G1 X92.307 Y102.825 E2.84966
G1 X92.724 Y102.388 E2.88481
G1 X93.586 Y101.896 E2.94257
G1 X94.596 Y101.744 E3.00201
G1 X94.596 Y101.744 F7200
G1 X96.669 Y105.809
G1 F3000
G1 X96.669 Y103.718 E3.1237
G1 X96.412 Y103.205 E3.15709
G1 X96.114 Y102.852 E3.18397
G1 X96.114 Y106.149 E3.37584
G1 X95.558 Y106.548 E3.41567
G1 X95.532 Y102.435 E3.65503
G1 X95.003 Y102.25 E3.68764
G1 X95.003 Y106.751 E3.94958
G1 X94.447 Y106.805 E3.98209
G1 X94.447 Y102.193 E4.25049
G1 X93.892 Y102.276 E4.28315
G1 X93.892 Y106.727 E4.54218
G1 X93.336 Y106.493 E4.57729
G1 X93.336 Y102.508 E4.8092
G1 X92.781 Y102.963 E4.85096
G1 X92.781 Y106.041 E5.03008
G1 X92.407 Y105.475 E5.06956
G1 X92.245 Y104.995 E5.09904
G1 X92.225 Y103.388 E5.19257
G1 E3.79257 F4800
;WIPE_START
G1 F5760
G1 X92.234 Y104.146 E3.19257
;WIPE_END
G92 E0
G1 X125.671 Y101.746 F7200
G1 E2 F4800
G1 F3000
G1 X126.271 Y101.85 E2.03544
G1 X126.733 Y102.031 E2.06432
G1 X127.155 Y102.292 E2.0932
G1 X127.596 Y102.705 E2.12836
G1 X127.937 Y103.204 E2.16353
G1 X128.129 Y103.662 E2.19243
G1 X128.256 Y104.646 E2.25017
G1 X128.158 Y105.242 E2.28532
G1 X127.932 Y105.803 E2.32052
G1 X127.66 Y106.218 E2.3494
G1 X127.234 Y106.647 E2.38458
G1 X126.362 Y107.121 E2.44234
G1 X125.771 Y107.246 E2.47749
G1 X125.275 Y107.25 E2.50636
G1 X124.782 Y107.164 E2.53548
G1 X124.223 Y106.946 E2.5704
G1 X123.805 Y106.678 E2.5993
G1 X123.372 Y106.257 E2.63445
G1 X123.04 Y105.751 E2.66967
G1 X122.855 Y105.286 E2.69879
G1 X122.748 Y104.3 E2.75651
G1 X122.856 Y103.709 E2.79147
G1 X123.043 Y103.245 E2.82058
G1 X123.372 Y102.743 E2.85551
G1 X123.724 Y102.388 E2.8846
G1 X124.586 Y101.896 E2.94236
G1 X125.596 Y101.744 E3.0018
G1 X125.596 Y101.744 F7200
G1 X127.775 Y105.609
G1 F3000
G1 X127.764 Y104.046 E3.09276
G1 X127.541 Y103.42 E3.13143
G1 X127.219 Y102.962 E3.16401
G1 X127.219 Y106.036 E3.3429
G1 X126.664 Y106.491 E3.38466
G1 X126.664 Y102.51 E3.61633
G1 X126.108 Y102.275 E3.65146
G1 X126.108 Y106.724 E3.91037
G1 X125.553 Y106.808 E3.94304
G1 X125.553 Y102.193 E4.21161
G1 X124.997 Y102.248 E4.24412
G1 X124.997 Y106.75 E4.50611
G1 X124.442 Y106.551 E4.54042
G1 X124.442 Y102.452 E4.77896
G1 X123.886 Y102.853 E4.81885
G1 X123.886 Y106.151 E5.01078
G1 X123.57 Y105.767 E5.03972
G1 X123.331 Y105.281 E5.07124
G1 X123.331 Y103.197 E5.19252
G1 E3.79252 F4800
;WIPE_START
G1 F5760
G1 X123.331 Y103.955 E3.19252
;WIPE_END
G92 E0
G1 X85.28 Y75.28 F7200
G1 E2 F4800
;TYPE:External perimeter
G1 F3000
G1 X134.72 Y75.28 E4.87716
G1 X134.72 Y129.995 E8.0613
G1 X134.682 Y131.05 E8.12274
G1 X134.57 Y132.097 E8.18402
G1 X134.486 Y132.611 E8.21433
G1 X134.263 Y133.64 E8.2756
G1 X133.967 Y134.648 E8.33674
G1 X133.598 Y135.635 E8.39806
G1 X133.391 Y136.113 E8.42837
G1 X132.919 Y137.054 E8.48963
G1 X132.382 Y137.96 E8.55092
G1 X132.093 Y138.393 E8.58122
G1 X131.461 Y139.236 E8.64253
G1 X130.773 Y140.03 E8.70367
G1 X130.029 Y140.775 E8.76494
G1 X129.641 Y141.123 E8.79527
G1 X128.821 Y141.784 E8.85656
G1 X127.958 Y142.383 E8.91769
G1 X127.052 Y142.921 E8.97901
G1 X126.591 Y143.162 E9.00928
G1 X125.633 Y143.599 E9.07056
G1 X124.646 Y143.967 E9.13186
G1 X124.149 Y144.123 E9.16217
G1 X123.126 Y144.384 E9.22361
G1 X122.616 Y144.486 E9.25388
G1 X121.573 Y144.635 E9.31519
G1 X120.538 Y144.71 E9.37558
G1 X119.997 Y144.72 E9.40707
G1 X100.005 Y144.72 E10.5705
G1 X98.95 Y144.682 E10.63194
G1 X97.905 Y144.57 E10.6931
G1 X96.871 Y144.383 E10.75425
G1 X95.851 Y144.123 E10.81551
G1 X95.354 Y143.967 E10.84582
G1 X94.365 Y143.598 E10.90725
G1 X93.887 Y143.391 E10.93756
G1 X92.959 Y142.926 E10.99797
G1 X92.042 Y142.383 E11.05999
G1 X91.177 Y141.782 E11.12129
G1 X90.766 Y141.463 E11.15157
G1 X89.97 Y140.773 E11.21287
G1 X89.227 Y140.03 E11.27402
G1 X88.539 Y139.236 E11.33516
G1 X87.916 Y138.405 E11.3956
G1 X87.618 Y137.96 E11.42677
G1 X87.079 Y137.052 E11.48822
G1 X86.838 Y136.591 E11.51849
G1 X86.407 Y135.647 E11.57888
G1 X86.033 Y134.648 E11.64096
G1 X85.737 Y133.638 E11.70221
G1 X85.617 Y133.131 E11.73253
G1 X85.43 Y132.095 E11.79379
G1 X85.318 Y131.05 E11.85495
G1 X85.28 Y129.995 E11.91639
G1 X85.28 Y75.34 E15.09703
G1 X85.78 Y75.78 F7200
;TYPE:Perimeter
G1 F3000
G1 X134.22 Y75.78 E17.91599
G1 X134.22 Y129.986 E21.0705
G1 X134.183 Y131.014 E21.13036
G1 X134.074 Y132.031 E21.18988
G1 X133.995 Y132.518 E21.21859
G1 X133.778 Y133.517 E21.27808
G1 X133.492 Y134.491 E21.33715
G1 X133.135 Y135.448 E21.39659
G1 X132.938 Y135.901 E21.42534
G1 X132.48 Y136.815 E21.48483
G1 X131.959 Y137.694 E21.54429
G1 X131.684 Y138.104 E21.57302
G1 X131.072 Y138.922 E21.63247
G1 X130.407 Y139.689 E21.69155
G1 X129.685 Y140.412 E21.75101
G1 X129.317 Y140.742 E21.77978
G1 X128.522 Y141.383 E21.83921
G1 X127.688 Y141.962 E21.89829
G1 X126.809 Y142.484 E21.95778
G1 X126.371 Y142.713 E21.98654
G1 X125.442 Y143.137 E22.04597
G1 X124.484 Y143.494 E22.10547
G1 X124.013 Y143.642 E22.1342
G1 X123.016 Y143.896 E22.19407
G1 X122.532 Y143.993 E22.2228
G1 X121.52 Y144.138 E22.28229
G1 X120.515 Y144.21 E22.34093
G1 X119.993 Y144.22 E22.37131
G1 X100.014 Y144.22 E23.53399
G1 X98.986 Y144.183 E23.59385
G1 X97.976 Y144.075 E23.65296
G1 X96.977 Y143.895 E23.71203
G1 X95.987 Y143.642 E23.77149
G1 X95.516 Y143.494 E23.80022
G1 X94.552 Y143.135 E23.86008
G1 X94.099 Y142.938 E23.88883
G1 X93.198 Y142.487 E23.94747
G1 X92.312 Y141.962 E24.0074
G1 X91.473 Y141.379 E24.06686
G1 X91.083 Y141.077 E24.09557
G1 X90.311 Y140.407 E24.15506
G1 X89.593 Y139.689 E24.21415
G1 X88.928 Y138.922 E24.27323
G1 X88.324 Y138.116 E24.33184
G1 X88.041 Y137.693 E24.36146
G1 X87.516 Y136.809 E24.42129
G1 X87.287 Y136.371 E24.45005
G1 X86.869 Y135.455 E24.50864
G1 X86.508 Y134.49 E24.5686
G1 X86.22 Y133.51 E24.62804
G1 X86.107 Y133.029 E24.65679
G1 X85.925 Y132.024 E24.71623
G1 X85.817 Y131.014 E24.77534
G1 X85.78 Y129.986 E24.8352
G1 X85.78 Y75.84 E27.98622
G1 X86.28 Y76.28 F7200
G1 F3000
G1 X133.72 Y76.28 E30.74699
G1 X133.72 Y129.977 E33.87188
G1 X133.684 Y130.979 E33.93023
G1 X133.579 Y131.964 E33.98788
G1 X133.504 Y132.425 E34.01506
G1 X133.293 Y133.393 E34.07272
G1 X133.017 Y134.333 E34.12973
G1 X132.671 Y135.261 E34.18737
G1 X132.485 Y135.689 E34.21453
G1 X132.041 Y136.575 E34.2722
G1 X131.536 Y137.427 E34.32984
G1 X131.276 Y137.815 E34.35702
G1 X130.682 Y138.608 E34.41468
G1 X130.041 Y139.349 E34.4717
G1 X129.341 Y140.049 E34.52931
G1 X128.993 Y140.361 E34.55651
G1 X128.222 Y140.983 E34.61416
G1 X127.417 Y141.541 E34.67116
G1 X126.565 Y142.047 E34.72883
G1 X126.151 Y142.263 E34.756
G1 X125.25 Y142.675 E34.81366
G1 X124.322 Y143.021 E34.8713
G1 X123.876 Y143.161 E34.8985
G1 X122.905 Y143.409 E34.95682
G1 X122.447 Y143.5 E34.98399
G1 X121.466 Y143.641 E35.04167
G1 X120.492 Y143.711 E35.0985
G1 X119.988 Y143.72 E35.12783
G1 X100.023 Y143.72 E36.28969
G1 X99.021 Y143.684 E36.34804
G1 X98.047 Y143.58 E36.40504
G1 X97.084 Y143.406 E36.46199
G1 X96.124 Y143.161 E36.51965
G1 X95.678 Y143.021 E36.54685
G1 X94.739 Y142.671 E36.60517
G1 X94.311 Y142.485 E36.63233
G1 X93.438 Y142.048 E36.68914
G1 X92.582 Y141.541 E36.74704
G1 X91.769 Y140.976 E36.80466
G1 X91.4 Y140.69 E36.83183
G1 X90.651 Y140.041 E36.8895
G1 X89.959 Y139.349 E36.94645
G1 X89.317 Y138.608 E37.00351
G1 X88.732 Y137.827 E37.0603
G1 X88.464 Y137.427 E37.08832
G1 X87.953 Y136.565 E37.14664
G1 X87.736 Y136.151 E37.17384
G1 X87.331 Y135.263 E37.23064
G1 X86.983 Y134.332 E37.28848
G1 X86.704 Y133.382 E37.3461
G1 X86.596 Y132.927 E37.37331
G1 X86.42 Y131.952 E37.43097
G1 X86.316 Y130.979 E37.48792
G1 X86.28 Y129.977 E37.54627
G1 X86.28 Y76.34 E40.66767
G1 E39.26767 F4800
;WIPE_START
G1 F5760
G1 X86.28 Y76.28 E39.22017
G1 X86.978 Y76.28 E38.66767
;WIPE_END
G92 E0
G1 X97.96 Y134.8 F7200
G1 E2 F4800
;TYPE:External perimeter
G1 F3000
G1 X98.002 Y135.055 E2.01504
G1 X98.03 Y135.436 E2.03727
G1 X98.016 Y135.818 E2.05952
G1 X97.983 Y136.077 E2.07471
G1 X97.9 Y136.45 E2.09695
G1 X97.778 Y136.812 E2.11918
G1 X97.672 Y137.051 E2.1344
G1 X97.486 Y137.384 E2.1566
G1 X97.265 Y137.696 E2.17885
G1 X97.094 Y137.894 E2.19407
G1 X96.821 Y138.16 E2.21625
G1 X96.518 Y138.397 E2.23864
G1 X96.193 Y138.598 E2.26088
G1 X95.959 Y138.715 E2.2761
G1 X95.606 Y138.853 E2.29816
G1 X95.354 Y138.925 E2.31341
G1 X94.979 Y138.998 E2.33564
G1 X94.596 Y139.029 E2.358
G1 X94.212 Y139.019 E2.38035
G1 X93.831 Y138.966 E2.40274
G1 X93.46 Y138.874 E2.42498
G1 X93.214 Y138.788 E2.44015
G1 X92.866 Y138.629 E2.46242
G1 X92.535 Y138.433 E2.48481
G1 X92.23 Y138.204 E2.50701
G1 X92.036 Y138.028 E2.52225
G1 X91.779 Y137.749 E2.54432
G1 X91.62 Y137.542 E2.55951
G1 X91.416 Y137.219 E2.58174
G1 X91.251 Y136.88 E2.60368
G1 X91.156 Y136.631 E2.61919
G1 X91.053 Y136.263 E2.64143
G1 X90.991 Y135.886 E2.66366
G1 X90.972 Y135.626 E2.67883
G1 X90.979 Y135.244 E2.70106
G1 X91.028 Y134.862 E2.72347
G1 X91.116 Y134.496 E2.74538
G1 X91.201 Y134.244 E2.76086
G1 X91.356 Y133.894 E2.78314
G1 X91.545 Y133.568 E2.80507
G1 X91.699 Y133.351 E2.82056
G1 X91.948 Y133.061 E2.8428
G1 X92.228 Y132.798 E2.86516
G1 X92.533 Y132.568 E2.88739
G1 X92.756 Y132.431 E2.90262
G1 X93.095 Y132.261 E2.92469
G1 X93.339 Y132.166 E2.93993
G1 X93.705 Y132.06 E2.9621
G1 X94.084 Y131.994 E2.98449
G1 X94.46 Y131.97 E3.00642
G1 X94.727 Y131.977 E3.02196
G1 X95.106 Y132.022 E3.04417
G1 X95.478 Y132.108 E3.06639
G1 X95.727 Y132.19 E3.08165
G1 X96.077 Y132.341 E3.10383
G1 X96.409 Y132.53 E3.12606
G1 X96.623 Y132.68 E3.14127
G1 X96.916 Y132.926 E3.16353
G1 X97.18 Y133.202 E3.18576
G1 X97.342 Y133.406 E3.20092
G1 X97.552 Y133.726 E3.22319
G1 X97.727 Y134.068 E3.24555
G1 X97.863 Y134.427 E3.26789
G1 X97.945 Y134.741 E3.28678
G1 X97.945 Y134.741 F7200
G1 X98.451 Y134.709
;TYPE:Perimeter
G1 F3000
G1 X98.499 Y134.996 E3.30371
G1 X98.53 Y135.427 E3.32886
G1 X98.515 Y135.858 E3.35396
G1 X98.476 Y136.163 E3.37185
G1 X98.382 Y136.585 E3.39701
G1 X98.244 Y136.994 E3.42213
G1 X98.119 Y137.274 E3.43997
G1 X97.909 Y137.651 E3.46508
G1 X97.659 Y138.003 E3.49021
G1 X97.459 Y138.237 E3.50812
G1 X97.15 Y138.538 E3.53322
G1 X96.804 Y138.808 E3.55876
G1 X96.436 Y139.035 E3.58392
G1 X96.162 Y139.172 E3.60175
G1 X95.766 Y139.327 E3.6265
G1 X95.471 Y139.412 E3.64437
G1 X95.047 Y139.494 E3.6695
G1 X94.61 Y139.53 E3.69502
G1 X94.171 Y139.518 E3.72058
G1 X93.736 Y139.458 E3.74613
G1 X93.317 Y139.353 E3.77127
G1 X93.027 Y139.252 E3.78914
G1 X92.634 Y139.073 E3.81427
G1 X92.257 Y138.849 E3.83979
G1 X91.911 Y138.59 E3.86494
G1 X91.684 Y138.384 E3.88278
G1 X91.396 Y138.071 E3.90753
G1 X91.209 Y137.828 E3.92537
G1 X90.979 Y137.463 E3.95048
G1 X90.792 Y137.079 E3.97534
G1 X90.681 Y136.788 E3.99346
G1 X90.564 Y136.372 E4.01861
G1 X90.494 Y135.945 E4.04379
G1 X90.472 Y135.639 E4.06164
G1 X90.48 Y135.207 E4.08678
