; generated by PrusaSlicer 2.7.4+win64 on 2024-06-09 at 14:13:01 UTC

; 

; external perimeters extrusion width = 0.42mm
; perimeters extrusion width = 0.45mm
; infill extrusion width = 0.45mm
; solid infill extrusion width = 0.50mm
; top infill extrusion width = 0.42mm
; support material extrusion width = 0.42mm
; first layer extrusion width = 0.56mm

M201 X2500 Y2500 Z800 E2500 ; sets maximum accelerations, mm/sec^2
M203 X250 Y250 Z8 E80 ; sets maximum feedrates, mm / sec
M204 S2500 T2500 ; sets acceleration (S) and retract acceleration (R), mm/sec^2
M205 X10.00 Y10.00 Z2.00 E10.00 ; sets the jerk limits, mm/sec
M205 S0 T0 ; sets the minimum extruding and travel feed rate, mm/sec
;TYPE:Custom
G90 ; use absolute coordinates
M83 ; extruder relative mode
M104 S215 ; set extruder temp
M140 S60 ; set bed temp
M190 S60 ; wait for bed temp
M109 S215 ; wait for extruder temp
G28                                        ; move X/Y/Z to min endstops
G1 Z0.28                                   ; lift nozzle a bit 
G92 E0 
G1 Y3 F1800                                    ; zero the extruded length 
G1 X60  E25 F500                       ; Extrude 25mm of filament in a 5cm line. 
G92 E0                                     ; zero the extruded length again 
G1 E-2 F500                                ; Retract a little 
G1 X70 F4000                              ; Quickly wipe away from the filament line
M117
G21 ; set units to millimeters
G90 ; use absolute coordinates
M82 ; use absolute distances for extrusion
G92 E0
M107
;LAYER_CHANGE
;Z:0.28
;HEIGHT:0.28
G1 E-2 F4800
G92 E0
G1 Z.28 F7200
G92 E0
G1 X64.896 Y130.28
G1 E2 F4800
G92 E0
;TYPE:External perimeter
;WIDTH:0.56
G1 F3000
G1 X155.116 Y130.28 E5.25035
G1 X160.28 Y125.116 E5.67535
G1 X160.28 Y85.116 E8.00315
G1 X165.116 Y80.28 E8.40115
G1 X194.72 Y80.28 E10.12395
G1 X194.72 Y91.884 E10.79924
G1 X189.884 Y96.72 E11.19724
G1 X174.884 Y96.72 E12.07016
G1 X169.72 Y101.884 E12.49516
G1 X169.72 Y134.884 E14.41559
G1 X164.884 Y139.72 E14.81359
G1 X55.116 Y139.72 E21.20153
G1 X50.28 Y134.884 E21.59953
G1 X50.28 Y101.884 E23.51996
G1 X45.116 Y96.72 E23.94496
G1 X30.116 Y96.72 E24.81788
G1 X25.28 Y91.884 E25.21588
G1 X25.28 Y80.28 E25.89117
G1 X54.884 Y80.28 E27.61397
G1 X59.72 Y85.116 E28.01197
G1 X59.72 Y125.116 E30.33977
G1 X64.85 Y130.246 E30.76197
G1 X64.765 Y130.78 F7200
;TYPE:Perimeter
G1 F3000
G1 X155.323 Y130.78 E36.03199
G1 X160.78 Y125.323 E36.4811
G1 X160.78 Y85.323 E38.8089
G1 X165.323 Y80.78 E39.18279
G1 X194.22 Y80.78 E40.86445
G1 X194.22 Y91.677 E41.4986
G1 X189.677 Y96.22 E41.87249
G1 X174.677 Y96.22 E42.74541
G1 X169.22 Y101.677 E43.19452
G1 X169.22 Y134.677 E45.11495
G1 X164.677 Y139.22 E45.48884
G1 X55.323 Y139.22 E51.85269
G1 X50.78 Y134.677 E52.22658
G1 X50.78 Y101.677 E54.14701
G1 X45.323 Y96.22 E54.59612
G1 X30.323 Y96.22 E55.46904
G1 X25.78 Y91.677 E55.84293
G1 X25.78 Y80.78 E56.47708
G1 X54.677 Y80.78 E58.15874
G1 X59.22 Y85.323 E58.53263
G1 X59.22 Y125.323 E60.86043
G1 X64.677 Y130.78 E61.30954
G1 X64.705 Y130.78 E61.31117
G1 X64.705 Y130.78 F7200
G1 X64.653 Y131.28
G1 F3000
G1 X155.53 Y131.28 E66.59975
G1 X161.28 Y125.53 E67.07298
G1 X161.28 Y85.53 E69.40078
G1 X165.53 Y81.28 E69.75056
G1 X193.72 Y81.28 E71.39108
G1 X193.72 Y91.47 E71.98409
G1 X189.47 Y95.72 E72.33387
G1 X174.47 Y95.72 E73.20679
G1 X168.72 Y101.47 E73.68002
G1 X168.72 Y134.47 E75.60045
G1 X164.47 Y138.72 E75.95023
G1 X55.53 Y138.72 E82.28999
G1 X51.28 Y134.47 E82.63977
G1 X51.28 Y101.47 E84.5602
G1 X45.53 Y95.72 E85.03343
G1 X30.53 Y95.72 E85.90635
G1 X26.28 Y91.47 E86.25613
G1 X26.28 Y81.28 E86.84914
G1 X54.47 Y81.28 E88.48966
G1 X58.72 Y85.53 E88.83944
G1 X58.72 Y125.53 E91.16724
G1 X64.47 Y131.28 E91.64047
G1 X64.593 Y131.28 E91.64763
G1 E90.24763 F4800
;WIPE_START
G1 F5760
G1 X64.653 Y131.28 E90.20013
G1 X65.351 Y131.28 E89.64763
;WIPE_END
G92 E0
G1 X193.52 Y82.494 F7200
G1 E2 F4800
;TYPE:Solid infill
;WIDTH:0.561576
G1 F3000
G1 X192.731 Y81.705 E2.06514
G1 X192.022 Y81.705 E2.10653
G1 X193.295 Y82.978 E2.21163
G1 X193.295 Y83.687 E2.25302
G1 X191.313 Y81.705 E2.41665
G1 X190.604 Y81.705 E2.45804
G1 X193.295 Y84.396 E2.68021
G1 X193.295 Y85.106 E2.72166
G1 X189.894 Y81.705 E3.00244
G1 X189.185 Y81.705 E3.04383
G1 X193.295 Y85.815 E3.38315
G1 X193.295 Y86.524 E3.42454
G1 X188.476 Y81.705 E3.82239
G1 X187.767 Y81.705 E3.86378
G1 X193.295 Y87.233 E4.32017
G1 X193.295 Y87.942 E4.36156
G1 X187.058 Y81.705 E4.87648
G1 X186.348 Y81.705 E4.91793
G1 X193.295 Y88.652 E5.49147
G1 X193.295 Y89.361 E5.53286
G1 X185.639 Y81.705 E6.16494
G1 X184.93 Y81.705 E6.20633
G1 X193.295 Y90.07 E6.89694
G1 X193.295 Y90.779 E6.93833
G1 X184.221 Y81.705 E7.68747
G1 X183.512 Y81.705 E7.72886
G1 X193.198 Y91.391 E8.52853
G1 X192.843 Y91.746 E8.55784
G1 X182.802 Y81.705 E9.38682
G1 X182.093 Y81.705 E9.42821
G1 X192.489 Y92.1 E10.28646
G1 X192.134 Y92.455 E10.31577
G1 X181.384 Y81.705 E11.20328
G1 X180.675 Y81.705 E11.24467
G1 X191.78 Y92.81 E12.16149
G1 X191.425 Y93.164 E12.19076
G1 X179.966 Y81.705 E13.13681
G1 X179.256 Y81.705 E13.17826
G1 X191.07 Y93.519 E14.15362
G1 X190.716 Y93.873 E14.18285
G1 X178.547 Y81.705 E15.18747
G1 X177.838 Y81.705 E15.22886
G1 X190.361 Y94.228 E16.26275
G1 X190.007 Y94.583 E16.29202
G1 X177.129 Y81.705 E17.35522
G1 X176.419 Y81.705 E17.39667
G1 X189.652 Y94.937 E18.48914
G1 X189.297 Y95.292 E18.51845
G1 X175.71 Y81.705 E19.64019
G1 X175.001 Y81.705 E19.68158
G1 X188.592 Y95.295 E20.8036
G1 X187.882 Y95.295 E20.84505
G1 X174.292 Y81.705 E21.96703
G1 X173.583 Y81.705 E22.00842
G1 X187.173 Y95.295 E23.1304
G1 X186.464 Y95.295 E23.17179
G1 X172.873 Y81.705 E24.29381
G1 X172.164 Y81.705 E24.3352
G1 X185.755 Y95.295 E25.45722
G1 X185.045 Y95.295 E25.49867
G1 X171.455 Y81.705 E26.62065
G1 X170.746 Y81.705 E26.66204
G1 X184.336 Y95.295 E27.78402
G1 X183.627 Y95.295 E27.82541
G1 X170.037 Y81.705 E28.94739
G1 X169.327 Y81.705 E28.98884
G1 X182.918 Y95.295 E30.11086
G1 X182.209 Y95.295 E30.15225
G1 X168.618 Y81.705 E31.27427
G1 X167.909 Y81.705 E31.31566
G1 X181.499 Y95.295 E32.43764
G1 X180.79 Y95.295 E32.47903
G1 X167.2 Y81.705 E33.60101
G1 X166.491 Y81.705 E33.6424
G1 X180.081 Y95.295 E34.76438
G1 X179.372 Y95.295 E34.80577
G1 X165.781 Y81.705 E35.92779
G1 X165.706 Y81.705 E35.93217
G1 X165.389 Y82.022 E35.95834
G1 X178.663 Y95.295 E37.05419
G1 X177.953 Y95.295 E37.09564
G1 X165.035 Y82.376 E38.16218
G1 X164.68 Y82.731 E38.19149
G1 X177.244 Y95.295 E39.22877
G1 X176.535 Y95.295 E39.27016
G1 X164.325 Y83.086 E40.27817
G1 X163.971 Y83.44 E40.3074
G1 X175.826 Y95.295 E41.28614
G1 X175.117 Y95.295 E41.32753
G1 X163.616 Y83.795 E42.277
G1 X163.261 Y84.149 E42.30627
G1 X174.407 Y95.295 E43.22648
G1 X174.294 Y95.295 E43.23308
G1 X173.996 Y95.593 E43.25768
G1 X162.907 Y84.504 E44.17318
G1 X162.552 Y84.859 E44.20249
G1 X173.641 Y95.948 E45.11799
G1 X173.287 Y96.302 E45.14722
G1 X162.198 Y85.213 E46.06272
G1 X161.843 Y85.568 E46.09203
G1 X172.932 Y96.657 E47.00753
G1 X172.578 Y97.012 E47.0368
G1 X161.705 Y86.139 E47.93447
G1 X161.705 Y86.848 E47.97586
G1 X172.223 Y97.366 E48.84422
G1 X171.868 Y97.721 E48.87353
G1 X161.705 Y87.557 E49.71262
G1 X161.705 Y88.266 E49.75401
G1 X171.514 Y98.075 E50.56384
G1 X171.159 Y98.43 E50.59315
G1 X161.705 Y88.976 E51.37367
G1 X161.705 Y89.685 E51.41506
G1 X170.805 Y98.785 E52.16635
G1 X170.45 Y99.139 E52.19562
G1 X161.705 Y90.394 E52.9176
G1 X161.705 Y91.103 E52.95899
G1 X170.095 Y99.494 E53.65171
G1 X169.741 Y99.848 E53.68094
G1 X161.705 Y91.812 E54.34439
G1 X161.705 Y92.522 E54.38584
G1 X169.386 Y100.203 E55.01998
G1 X169.032 Y100.558 E55.04925
G1 X161.705 Y93.231 E55.65416
G1 X161.705 Y93.94 E55.69555
G1 X168.677 Y100.912 E56.27115
G1 X168.322 Y101.267 E56.30046
G1 X161.705 Y94.649 E56.8468
G1 X161.705 Y95.358 E56.88819
G1 X168.295 Y101.949 E57.4323
G1 X168.295 Y102.658 E57.47369
G1 X161.705 Y96.068 E58.01776
G1 X161.705 Y96.777 E58.05915
G1 X168.295 Y103.367 E58.60322
G1 X168.295 Y104.077 E58.64467
G1 X161.705 Y97.486 E59.18878
G1 X161.705 Y98.195 E59.23017
G1 X168.295 Y104.786 E59.77428
G1 X168.295 Y105.495 E59.81567
G1 X161.705 Y98.904 E60.35978
G1 X161.705 Y99.614 E60.40123
G1 X168.295 Y106.204 E60.9453
G1 X168.295 Y106.913 E60.98669
G1 X161.705 Y100.323 E61.53076
G1 X161.705 Y101.032 E61.57215
G1 X168.295 Y107.623 E62.11626
G1 X168.295 Y108.332 E62.15765
G1 X161.705 Y101.741 E62.70176
G1 X161.705 Y102.451 E62.74321
G1 X168.295 Y109.041 E63.28728
G1 X168.295 Y109.75 E63.32867
G1 X161.705 Y103.16 E63.87274
G1 X161.705 Y103.869 E63.91413
G1 X168.295 Y110.459 E64.4582
G1 X168.295 Y111.169 E64.49965
G1 X161.705 Y104.578 E65.04376
G1 X161.705 Y105.287 E65.08515
G1 X168.295 Y111.878 E65.62926
G1 X168.295 Y112.587 E65.67065
G1 X161.705 Y105.997 E66.21472
G1 X161.705 Y106.706 E66.25611
G1 X168.295 Y113.296 E66.80018
G1 X168.295 Y114.005 E66.84157
G1 X161.705 Y107.415 E67.38564
G1 X161.705 Y108.124 E67.42703
G1 X168.295 Y114.715 E67.97114
G1 X168.295 Y115.424 E68.01253
G1 X161.705 Y108.833 E68.55664
G1 X161.705 Y109.543 E68.59809
G1 X168.295 Y116.133 E69.14216
G1 X168.295 Y116.842 E69.18355
G1 X161.705 Y110.252 E69.72762
G1 X161.705 Y110.961 E69.76901
G1 X168.295 Y117.552 E70.31312
G1 X168.295 Y118.261 E70.35451
G1 X161.705 Y111.67 E70.89862
G1 X161.705 Y112.379 E70.94001
G1 X168.295 Y118.97 E71.48412
G1 X168.295 Y119.679 E71.52551
G1 X161.705 Y113.089 E72.06958
G1 X161.705 Y113.798 E72.11097
G1 X168.295 Y120.388 E72.65504
G1 X168.295 Y121.098 E72.69649
G1 X161.705 Y114.507 E73.2406
G1 X161.705 Y115.216 E73.28199
G1 X168.295 Y121.807 E73.8261
G1 X168.295 Y122.516 E73.86749
G1 X161.705 Y115.926 E74.41156
G1 X161.705 Y116.635 E74.45295
G1 X168.295 Y123.225 E74.99702
G1 X168.295 Y123.934 E75.03841
G1 X161.705 Y117.344 E75.58248
G1 X161.705 Y118.053 E75.62387
G1 X168.295 Y124.644 E76.16798
G1 X168.295 Y125.353 E76.20937
G1 X161.705 Y118.762 E76.75348
G1 X161.705 Y119.472 E76.79493
G1 X168.295 Y126.062 E77.339
G1 X168.295 Y126.771 E77.38039
G1 X161.705 Y120.181 E77.92446
G1 X161.705 Y120.89 E77.96585
G1 X168.295 Y127.48 E78.50992
G1 X168.295 Y128.19 E78.55137
G1 X161.705 Y121.599 E79.09548
G1 X161.705 Y122.308 E79.13687
G1 X168.295 Y128.899 E79.68098
G1 X168.295 Y129.608 E79.72237
G1 X161.705 Y123.018 E80.26644
G1 X161.705 Y123.727 E80.30783
G1 X168.295 Y130.317 E80.8519
G1 X168.295 Y131.027 E80.89335
G1 X161.705 Y124.436 E81.43746
G1 X161.705 Y125.145 E81.47885
G1 X168.295 Y131.736 E82.02296
G1 X168.295 Y132.445 E82.06435
G1 X161.631 Y125.78 E82.61457
G1 X161.276 Y126.135 E82.64388
G1 X168.295 Y133.154 E83.22336
G1 X168.295 Y133.863 E83.26475
G1 X160.921 Y126.489 E83.87354
G1 X160.567 Y126.844 E83.90281
G1 X168.156 Y134.433 E84.52935
G1 X167.801 Y134.788 E84.55866
G1 X160.212 Y127.199 E85.1852
G1 X159.858 Y127.553 E85.21443
G1 X167.447 Y135.142 E85.84097
G1 X167.092 Y135.497 E85.87028
G1 X159.503 Y127.908 E86.49682
G1 X159.148 Y128.263 E86.52613
G1 X166.737 Y135.852 E87.15267
G1 X166.383 Y136.206 E87.1819
G1 X158.794 Y128.617 E87.80844
G1 X158.439 Y128.972 E87.83775
G1 X166.028 Y136.561 E88.46429
G1 X165.674 Y136.915 E88.49352
G1 X158.085 Y129.326 E89.12006
G1 X157.73 Y129.681 E89.14937
G1 X165.319 Y137.27 E89.77591
G1 X164.964 Y137.625 E89.80522
G1 X157.375 Y130.036 E90.43176
G1 X157.021 Y130.39 E90.46099
G1 X164.61 Y137.979 E91.08753
G1 X164.294 Y138.295 E91.11362
G1 X164.217 Y138.295 E91.11812
G1 X156.666 Y130.745 E91.74149
G1 X156.312 Y131.099 E91.77072
G1 X163.507 Y138.295 E92.36478
G1 X162.798 Y138.295 E92.40617
G1 X155.957 Y131.454 E92.97096
G1 X155.706 Y131.705 E92.99168
G1 X155.498 Y131.705 E93.00382
G1 X162.089 Y138.295 E93.54793
G1 X161.38 Y138.295 E93.58932
G1 X154.789 Y131.705 E94.13343
G1 X154.08 Y131.705 E94.17482
G1 X160.671 Y138.295 E94.71893
G1 X159.961 Y138.295 E94.76038
G1 X153.371 Y131.705 E95.30445
G1 X152.662 Y131.705 E95.34584
G1 X159.252 Y138.295 E95.88991
G1 X158.543 Y138.295 E95.9313
G1 X151.952 Y131.705 E96.47541
G1 X151.243 Y131.705 E96.5168
G1 X157.834 Y138.295 E97.06091
G1 X157.125 Y138.295 E97.1023
G1 X150.534 Y131.705 E97.64641
G1 X149.825 Y131.705 E97.6878
G1 X156.415 Y138.295 E98.23187
G1 X155.706 Y138.295 E98.27326
G1 X149.116 Y131.705 E98.81733
G1 X148.406 Y131.705 E98.85878
G1 X154.997 Y138.295 E99.40289
G1 X154.288 Y138.295 E99.44428
G1 X147.697 Y131.705 E99.98839
G1 X146.988 Y131.705 E100.02978
G1 X153.578 Y138.295 E100.57385
G1 X152.869 Y138.295 E100.61524
G1 X146.279 Y131.705 E101.15931
G1 X145.57 Y131.705 E101.2007
G1 X152.16 Y138.295 E101.74477
G1 X151.451 Y138.295 E101.78616
G1 X144.86 Y131.705 E102.33027
G1 X144.151 Y131.705 E102.37166
G1 X150.742 Y138.295 E102.91577
G1 X150.032 Y138.295 E102.95722
G1 X143.442 Y131.705 E103.50129
G1 X142.733 Y131.705 E103.54268
G1 X149.323 Y138.295 E104.08675
G1 X148.614 Y138.295 E104.12814
G1 X142.023 Y131.705 E104.67225
G1 X141.314 Y131.705 E104.71364
G1 X147.905 Y138.295 E105.25775
G1 X147.196 Y138.295 E105.29914
G1 X140.605 Y131.705 E105.84325
G1 X139.896 Y131.705 E105.88464
G1 X146.486 Y138.295 E106.42871
G1 X145.777 Y138.295 E106.4701
G1 X139.187 Y131.705 E107.01417
G1 X138.477 Y131.705 E107.05562
G1 X145.068 Y138.295 E107.59973
G1 X144.359 Y138.295 E107.64112
G1 X137.768 Y131.705 E108.18523
G1 X137.059 Y131.705 E108.22662
G1 X143.65 Y138.295 E108.77073
G1 X142.94 Y138.295 E108.81218
G1 X136.35 Y131.705 E109.35625
G1 X135.641 Y131.705 E109.39764
G1 X142.231 Y138.295 E109.94171
G1 X141.522 Y138.295 E109.9831
G1 X134.931 Y131.705 E110.52721
G1 X134.222 Y131.705 E110.5686
G1 X140.813 Y138.295 E111.11271
G1 X140.103 Y138.295 E111.15416
G1 X133.513 Y131.705 E111.69823
G1 X132.804 Y131.705 E111.73962
G1 X139.394 Y138.295 E112.28369
G1 X138.685 Y138.295 E112.32508
G1 X132.095 Y131.705 E112.86915
G1 X131.385 Y131.705 E112.9106
G1 X137.976 Y138.295 E113.45471
G1 X137.267 Y138.295 E113.4961
G1 X130.676 Y131.705 E114.04021
G1 X129.967 Y131.705 E114.0816
G1 X136.557 Y138.295 E114.62567
G1 X135.848 Y138.295 E114.66706
G1 X129.258 Y131.705 E115.21113
G1 X128.549 Y131.705 E115.25252
G1 X135.139 Y138.295 E115.79659
G1 X134.43 Y138.295 E115.83798
G1 X127.839 Y131.705 E116.38209
G1 X127.13 Y131.705 E116.42348
G1 X133.721 Y138.295 E116.96759
G1 X133.011 Y138.295 E117.00904
G1 X126.421 Y131.705 E117.55311
G1 X125.712 Y131.705 E117.5945
G1 X132.302 Y138.295 E118.13857
G1 X131.593 Y138.295 E118.17996
G1 X125.002 Y131.705 E118.72407
G1 X124.293 Y131.705 E118.76546
G1 X130.884 Y138.295 E119.30957
G1 X130.175 Y138.295 E119.35096
G1 X123.584 Y131.705 E119.89507
G1 X122.875 Y131.705 E119.93646
G1 X129.465 Y138.295 E120.48053
G1 X128.756 Y138.295 E120.52192
G1 X122.166 Y131.705 E121.06599
G1 X121.456 Y131.705 E121.10744
G1 X128.047 Y138.295 E121.65155
G1 X127.338 Y138.295 E121.69294
G1 X120.747 Y131.705 E122.23705
G1 X120.038 Y131.705 E122.27844
G1 X126.629 Y138.295 E122.82255
G1 X125.919 Y138.295 E122.864
G1 X119.329 Y131.705 E123.40807
G1 X118.62 Y131.705 E123.44946
G1 X125.21 Y138.295 E123.99353
G1 X124.501 Y138.295 E124.03492
G1 X117.91 Y131.705 E124.57903
G1 X117.201 Y131.705 E124.62042
G1 X123.792 Y138.295 E125.16453
G1 X123.082 Y138.295 E125.20598
G1 X116.492 Y131.705 E125.75005
G1 X115.783 Y131.705 E125.79144
G1 X122.373 Y138.295 E126.33551
G1 X121.664 Y138.295 E126.3769
G1 X115.074 Y131.705 E126.92097
G1 X114.364 Y131.705 E126.96242
G1 X120.955 Y138.295 E127.50653
G1 X120.246 Y138.295 E127.54792
G1 X113.655 Y131.705 E128.09203
G1 X112.946 Y131.705 E128.13342
G1 X119.536 Y138.295 E128.67749
G1 X118.827 Y138.295 E128.71888
G1 X112.237 Y131.705 E129.26295
G1 X111.527 Y131.705 E129.3044
G1 X118.118 Y138.295 E129.84851
G1 X117.409 Y138.295 E129.8899
G1 X110.818 Y131.705 E130.43401
G1 X110.109 Y131.705 E130.4754
G1 X116.7 Y138.295 E131.01951
G1 X115.99 Y138.295 E131.06096
G1 X109.4 Y131.705 E131.60503
G1 X108.691 Y131.705 E131.64642
G1 X115.281 Y138.295 E132.19049
G1 X114.572 Y138.295 E132.23188
G1 X107.981 Y131.705 E132.77599
G1 X107.272 Y131.705 E132.81738
G1 X113.863 Y138.295 E133.36149
G1 X113.154 Y138.295 E133.40288
G1 X106.563 Y131.705 E133.94699
G1 X105.854 Y131.705 E133.98838
G1 X112.444 Y138.295 E134.53245
G1 X111.735 Y138.295 E134.57384
G1 X105.145 Y131.705 E135.11791
