; generated by PrusaSlicer 2.7.4+win64 on 2024-06-08 at 14:23:27 UTC

; 

; external perimeters extrusion width = 0.42mm
; perimeters extrusion width = 0.45mm
; infill extrusion width = 0.45mm
; solid infill extrusion width = 0.50mm
; top infill extrusion width = 0.42mm
; support material extrusion width = 0.42mm
; first layer extrusion width = 0.56mm

; external perimeters extrusion width = 0.42mm
; perimeters extrusion width = 0.45mm
; infill extrusion width = 0.45mm
; solid infill extrusion width = 0.50mm
; top infill extrusion width = 0.42mm
; support material extrusion width = 0.42mm
; first layer extrusion width = 0.56mm

M201 X2500 Y2500 Z800 E2500 ; sets maximum accelerations, mm/sec^2
M203 X250 Y250 Z8 E80 ; sets maximum feedrates, mm / sec
M204 S2500 T2500 ; sets acceleration (S) and retract acceleration (R), mm/sec^2
M205 X10.00 Y10.00 Z2.00 E10.00 ; sets the jerk limits, mm/sec
M205 S0 T0 ; sets the minimum extruding and travel feed rate, mm/sec
;TYPE:Custom
G90 ; use absolute coordinates
M83 ; extruder relative mode
M104 S215 ; set extruder temp
M140 S60 ; set bed temp
M190 S60 ; wait for bed temp
M109 S215 ; wait for extruder temp
G28                                        ; move X/Y/Z to min endstops
G1 Z0.28                                   ; lift nozzle a bit 
G92 E0 
G1 Y3 F1800                                    ; zero the extruded length 
G1 X60  E25 F500                       ; Extrude 25mm of filament in a 5cm line. 
G92 E0                                     ; zero the extruded length again 
G1 E-2 F500                                ; Retract a little 
G1 X70 F4000                              ; Quickly wipe away from the filament line
M117
G21 ; set units to millimeters
G90 ; use absolute coordinates
M82 ; use absolute distances for extrusion
G92 E0
M107
;LAYER_CHANGE
;Z:0.28
;HEIGHT:0.28
G1 E-2 F4800
G92 E0
G1 Z.28 F7200
G92 E0
G1 X99.797 Y47.316
G1 E2 F4800
G92 E0
;TYPE:External perimeter
;WIDTH:0.56
G1 F3000
G1 X109.237 Y47.316 E.54936
G1 X109.237 Y67.029 E1.69656
G1 X109.209 Y67.549 E1.72687
G1 X109.16 Y67.884 E1.74657
G1 X109.087 Y68.214 E1.76624
G1 X108.931 Y68.706 E1.79628
G1 X108.801 Y69.018 E1.81595
G1 X108.646 Y69.322 E1.83581
G1 X108.472 Y69.612 E1.85549
G1 X108.167 Y70.028 E1.88551
G1 X107.944 Y70.282 E1.90518
G1 X107.702 Y70.519 E1.92489
G1 X107.303 Y70.846 E1.95491
G1 X107.023 Y71.036 E1.9746
G1 X106.728 Y71.207 E1.99444
G1 X106.423 Y71.354 E2.01414
G1 X105.941 Y71.536 E2.04412
G1 X105.615 Y71.627 E2.06382
G1 X105.283 Y71.694 E2.08353
G1 X104.774 Y71.749 E2.11332
G1 X104.432 Y71.756 E2.13323
G1 X104.092 Y71.737 E2.15305
G1 X103.753 Y71.694 E2.17294
G1 X103.419 Y71.627 E2.19276
G1 X103.093 Y71.536 E2.21246
G1 X102.611 Y71.354 E2.24244
G1 X102.309 Y71.208 E2.26196
G1 X101.866 Y70.942 E2.29203
G1 X101.593 Y70.742 E2.31172
G1 X101.336 Y70.523 E2.33137
G1 X100.977 Y70.158 E2.36116
G1 X100.76 Y69.893 E2.38109
G1 X100.565 Y69.616 E2.4008
G1 X100.308 Y69.172 E2.43065
G1 X100.102 Y68.704 E2.46041
G1 X99.947 Y68.217 E2.49015
G1 X99.847 Y67.716 E2.51988
G1 X99.8 Y67.204 E2.5498
G1 X99.797 Y47.376 E3.70369
G1 X99.797 Y47.376 F7200
G1 X100.297 Y47.816
;TYPE:Perimeter
G1 F3000
G1 X108.737 Y47.816 E4.19486
G1 X108.737 Y67.015 E5.31214
G1 X108.711 Y67.5 E5.34041
G1 X108.668 Y67.794 E5.3577
G1 X108.604 Y68.085 E5.37504
G1 X108.462 Y68.534 E5.40245
G1 X108.209 Y69.08 E5.43747
G1 X108.055 Y69.335 E5.45481
G1 X107.777 Y69.715 E5.48221
G1 X107.368 Y70.147 E5.51683
G1 X107.004 Y70.445 E5.54421
G1 X106.494 Y70.765 E5.57925
G1 X106.226 Y70.894 E5.59656
G1 X105.785 Y71.061 E5.624
G1 X105.206 Y71.199 E5.65864
G1 X104.742 Y71.25 E5.68581
G1 X104.441 Y71.255 E5.70333
G1 X103.834 Y71.2 E5.7388
G1 X103.249 Y71.061 E5.77379
G1 X102.808 Y70.894 E5.80123
G1 X102.547 Y70.768 E5.8181
G1 X102.143 Y70.525 E5.84554
G1 X101.903 Y70.349 E5.86286
G1 X101.676 Y70.156 E5.8802
G1 X101.349 Y69.823 E5.90736
G1 X100.986 Y69.347 E5.9422
G1 X100.754 Y68.945 E5.96921
G1 X100.57 Y68.527 E5.99579
G1 X100.432 Y68.092 E6.02235
G1 X100.342 Y67.644 E6.04894
G1 X100.3 Y67.182 E6.07594
G1 X100.297 Y47.876 E7.19945
G1 X100.297 Y47.876 F7200
G1 X100.797 Y48.316
G1 F3000
G1 X108.237 Y48.316 E7.63242
G1 X108.237 Y67.002 E8.71985
G1 X108.213 Y67.45 E8.74596
G1 X108.176 Y67.704 E8.7609
G1 X108.121 Y67.955 E8.77585
G1 X107.992 Y68.361 E8.80064
G1 X107.771 Y68.838 E8.83123
G1 X107.639 Y69.058 E8.84616
G1 X107.387 Y69.401 E8.87093
G1 X107.034 Y69.774 E8.90082
G1 X106.704 Y70.044 E8.92563
G1 X106.259 Y70.323 E8.9562
G1 X106.028 Y70.435 E8.97114
G1 X105.63 Y70.585 E8.99589
G1 X105.13 Y70.705 E9.02581
G1 X104.71 Y70.75 E9.05039
G1 X104.449 Y70.755 E9.06558
G1 X103.915 Y70.707 E9.09678
G1 X103.404 Y70.585 E9.12735
G1 X103.006 Y70.435 E9.1521
G1 X102.785 Y70.328 E9.16639
G1 X102.42 Y70.108 E9.19119
G1 X102.213 Y69.956 E9.20614
G1 X102.017 Y69.79 E9.22109
G1 X101.721 Y69.489 E9.24566
G1 X101.408 Y69.077 E9.27577
G1 X101.201 Y68.719 E9.29984
G1 X101.039 Y68.35 E9.32329
G1 X100.917 Y67.966 E9.34674
G1 X100.837 Y67.572 E9.37014
G1 X100.8 Y67.159 E9.39427
G1 X100.797 Y48.376 E10.48735
G1 E9.08735 F4800
;WIPE_START
G1 F5760
G1 X100.797 Y48.316 E9.03985
G1 X101.495 Y48.316 E8.48735
;WIPE_END
G92 E0
G1 X103.571 Y68.545 F7200
G1 E2 F4800
;TYPE:External perimeter
G1 F3000
G1 X103.566 Y68.543 E2.00031
G1 X103.308 Y68.345 E2.01924
G1 X103.057 Y68.057 E2.04147
G1 X102.896 Y67.774 E2.06042
G1 X102.788 Y67.466 E2.07941
G1 X102.736 Y67.085 E2.10179
G1 X102.767 Y66.701 E2.12421
G1 X102.859 Y66.386 E2.14331
G1 X103.035 Y66.048 E2.16549
G1 X103.242 Y65.792 E2.18465
G1 X103.536 Y65.55 E2.20681
G1 X103.824 Y65.396 E2.22582
G1 X104.134 Y65.297 E2.24476
G1 X104.513 Y65.255 E2.26695
G1 X104.839 Y65.285 E2.286
G1 X105.15 Y65.372 E2.30479
G1 X105.442 Y65.514 E2.32369
G1 X105.748 Y65.748 E2.34611
G1 X105.995 Y66.042 E2.36846
G1 X106.152 Y66.329 E2.3875
G1 X106.253 Y66.638 E2.40642
G1 X106.298 Y67.018 E2.42869
G1 X106.272 Y67.345 E2.44778
G1 X106.165 Y67.712 E2.47003
G1 X106.015 Y68.001 E2.48898
G1 X105.816 Y68.255 E2.50776
G1 X105.572 Y68.472 E2.52676
G1 X105.242 Y68.664 E2.54898
G1 X104.931 Y68.769 E2.56808
G1 X104.549 Y68.818 E2.59049
G1 X104.166 Y68.783 E2.61287
G1 X103.854 Y68.69 E2.63182
G1 X103.625 Y68.573 E2.64679
G1 X103.625 Y68.573 F7200
G1 X103.333 Y68.985
;TYPE:Perimeter
G1 F3000
G1 X103.299 Y68.967 E2.64903
G1 X102.964 Y68.711 E2.67357
G1 X102.647 Y68.348 E2.70162
G1 X102.439 Y67.982 E2.72612
G1 X102.3 Y67.584 E2.75065
G1 X102.233 Y67.099 E2.77914
G1 X102.273 Y66.611 E2.80763
G1 X102.392 Y66.199 E2.83259
G1 X102.615 Y65.773 E2.86057
G1 X102.885 Y65.439 E2.88556
G1 X103.256 Y65.132 E2.91358
G1 X103.629 Y64.933 E2.93818
G1 X104.03 Y64.805 E2.96268
G1 X104.508 Y64.753 E2.99066
G1 X104.929 Y64.791 E3.01526
G1 X105.328 Y64.902 E3.03936
G1 X105.707 Y65.087 E3.0639
G1 X106.095 Y65.385 E3.09237
G1 X106.41 Y65.758 E3.12078
G1 X106.612 Y66.129 E3.14536
G1 X106.744 Y66.529 E3.16987
G1 X106.801 Y67.009 E3.198
G1 X106.766 Y67.436 E3.22293
G1 X106.632 Y67.899 E3.25098
G1 X106.437 Y68.272 E3.27547
G1 X106.182 Y68.599 E3.2996
G1 X105.867 Y68.879 E3.32413
G1 X105.45 Y69.121 E3.35219
G1 X105.044 Y69.259 E3.37714
G1 X104.558 Y69.321 E3.40565
G1 X104.071 Y69.276 E3.43411
G1 X103.667 Y69.156 E3.45864
G1 X103.387 Y69.012 E3.47696
G1 X103.387 Y69.012 F7200
G1 X103.101 Y69.428
G1 F3000
G1 X103.031 Y69.392 E3.48154
G1 X102.62 Y69.078 E3.51164
G1 X102.237 Y68.638 E3.54559
G1 X101.982 Y68.189 E3.57564
G1 X101.811 Y67.701 E3.60573
G1 X101.731 Y67.112 E3.64032
G1 X101.779 Y66.52 E3.67488
G1 X101.926 Y66.012 E3.70566
G1 X102.195 Y65.497 E3.73947
G1 X102.528 Y65.085 E3.7703
G1 X102.976 Y64.715 E3.80411
G1 X103.433 Y64.471 E3.83426
G1 X103.926 Y64.314 E3.86437
G1 X104.504 Y64.25 E3.89821
G1 X105.02 Y64.297 E3.92836
G1 X105.506 Y64.433 E3.95773
G1 X105.971 Y64.66 E3.98784
G1 X106.443 Y65.021 E4.02242
G1 X106.824 Y65.475 E4.05691
G1 X107.073 Y65.93 E4.08709
G1 X107.234 Y66.421 E4.11716
G1 X107.303 Y66.999 E4.15104
G1 X107.26 Y67.526 E4.18181
G1 X107.098 Y68.086 E4.21574
G1 X106.859 Y68.544 E4.2458
G1 X106.548 Y68.942 E4.27519
G1 X106.162 Y69.286 E4.30528
G1 X105.658 Y69.578 E4.33918
G1 X105.157 Y69.748 E4.36997
G1 X104.568 Y69.823 E4.40452
G1 X103.976 Y69.77 E4.43911
G1 X103.48 Y69.622 E4.46923
G1 X103.154 Y69.455 E4.49055
G1 E3.09055 F4800
;WIPE_START
G1 F5760
G1 X103.101 Y69.428 E3.04346
G1 X103.031 Y69.392 E2.98114
G1 X102.62 Y69.078 E2.57167
G1 X102.553 Y69.001 E2.49055
;WIPE_END
G92 E0
G1 X101.366 Y65.911 F7200
G1 E2 F4800
;TYPE:Gap fill
;WIDTH:0.614058
G1 F3000
G1 X101.296 Y66.406 E2.03224
;WIDTH:0.551888
G1 X101.265 Y67.102 E2.07213
;WIDTH:0.490116
G1 X101.306 Y67.503 E2.09231
G1 X101.364 Y67.831 E2.10898
G1 X101.567 Y68.399 E2.13918
G1 X101.87 Y68.925 E2.16957
G1 X102.318 Y69.432 E2.20344
G1 X102.766 Y69.774 E2.23165
G1 X103.326 Y70.059 E2.26311
G1 X103.908 Y70.231 E2.29349
G1 X104.599 Y70.288 E2.3282
G1 X105.274 Y70.2 E2.36228
G1 X105.844 Y70.007 E2.39241
G1 X106.426 Y69.67 E2.42608
G1 X106.902 Y69.247 E2.45796
G1 X107.25 Y68.799 E2.48636
G1 X107.465 Y68.4 E2.50905
G1 X107.552 Y68.2 E2.51997
G1 X107.722 Y67.589 E2.55172
G1 X107.771 Y66.989 E2.58186
G1 X107.751 Y66.653 E2.59871
;WIDTH:0.569486
G1 X107.727 Y66.285 E2.62058
G1 X107.667 Y65.908 E2.64322
G1 E1.24322 F4800
;WIPE_START
G1 F5760
G1 X107.727 Y66.285 E.94101
G1 X107.751 Y66.653 E.64906
G1 X107.751 Y66.66 E.64322
;WIPE_END
G92 E0
G1 X107.016 Y48.516 F7200
G1 E2 F4800
;TYPE:Solid infill
;WIDTH:0.564948
G1 F3000
G1 X107.812 Y49.312 E2.06616
G1 X107.812 Y50.026 E2.10812
G1 X106.527 Y48.741 E2.21492
G1 X105.813 Y48.741 E2.25688
G1 X107.812 Y50.74 E2.42303
G1 X107.812 Y51.454 E2.46499
G1 X105.099 Y48.741 E2.69048
G1 X104.385 Y48.741 E2.73244
G1 X107.812 Y52.168 E3.01727
G1 X107.812 Y52.882 E3.05923
G1 X103.671 Y48.741 E3.40341
G1 X102.957 Y48.741 E3.44537
G1 X107.812 Y53.596 E3.84889
G1 X107.812 Y54.31 E3.89085
G1 X102.243 Y48.741 E4.35372
G1 X101.529 Y48.741 E4.39568
G1 X107.812 Y55.024 E4.91789
G1 X107.812 Y55.738 E4.95985
G1 X101.222 Y49.148 E5.50758
G1 X101.222 Y49.862 E5.54954
G1 X107.812 Y56.452 E6.09727
G1 X107.812 Y57.166 E6.13923
G1 X101.222 Y50.576 E6.68696
G1 X101.222 Y51.29 E6.72892
G1 X107.812 Y57.88 E7.27665
G1 X107.812 Y58.594 E7.31861
G1 X101.223 Y52.004 E7.86629
G1 X101.223 Y52.718 E7.90825
G1 X107.812 Y59.308 E8.45593
G1 X107.812 Y60.022 E8.49789
G1 X101.223 Y53.433 E9.04553
G1 X101.223 Y54.147 E9.08749
G1 X107.812 Y60.736 E9.63513
G1 X107.812 Y61.45 E9.67709
G1 X101.223 Y54.861 E10.22473
G1 X101.223 Y55.575 E10.26669
G1 X107.812 Y62.164 E10.81433
G1 X107.812 Y62.878 E10.85629
G1 X101.223 Y56.289 E11.40393
G1 X101.223 Y57.003 E11.44589
G1 X107.812 Y63.592 E11.99353
G1 X107.812 Y64.306 E12.03549
G1 X101.223 Y57.717 E12.58313
G1 X101.224 Y58.431 E12.62509
G1 X107.812 Y65.02 E13.17269
G1 X107.812 Y65.455 E13.19826
G1 X107.572 Y65.493 E13.21254
G1 X101.224 Y59.145 E13.74015
G1 X101.224 Y59.859 E13.78211
G1 X105.298 Y63.934 E14.12076
G1 X105.097 Y63.877 E14.13304
G1 X104.476 Y63.826 E14.16966
G1 X101.224 Y60.574 E14.43995
G1 X101.224 Y61.288 E14.48191
G1 X103.834 Y63.897 E14.6988
G1 X103.292 Y64.07 E14.73224
G1 X101.224 Y62.002 E14.90412
G1 X101.224 Y62.716 E14.94608
G1 X102.823 Y64.315 E15.07898
G1 X102.738 Y64.36 E15.08463
G1 X102.419 Y64.624 E15.10897
G1 X101.224 Y63.43 E15.20825
G1 X101.225 Y64.144 E15.25021
G1 X102.064 Y64.983 E15.31994
G1 X101.838 Y65.263 E15.34109
G1 X101.766 Y65.4 E15.35019
G1 X101 Y64.633 E15.4139
G1 E14.0139 F4800
;WIPE_START
G1 F5760
G1 X101.536 Y65.169 E13.4139
;WIPE_END
G92 E0
G92 E0
G1 X102.274 Y85.835 F7200
G1 E2 F4800
;TYPE:External perimeter
;WIDTH:0.56
G1 F3000
G1 X102.286 Y80.217 E2.32694
G1 X102.351 Y79.708 E2.3568
G1 X102.468 Y79.215 E2.38629
G1 X102.577 Y78.89 E2.40624
G1 X102.786 Y78.418 E2.43628
G1 X102.949 Y78.122 E2.45594
G1 X103.135 Y77.836 E2.47579
G1 X103.342 Y77.565 E2.49564
G1 X103.567 Y77.309 E2.51547
G1 X103.81 Y77.071 E2.53526
G1 X104.07 Y76.85 E2.55512
G1 X104.345 Y76.649 E2.57494
G1 X104.634 Y76.468 E2.59478
G1 X104.935 Y76.308 E2.61462
G1 X105.247 Y76.171 E2.63445
G1 X105.568 Y76.056 E2.65429
G1 X105.896 Y75.965 E2.6741
G1 X106.23 Y75.897 E2.69394
G1 X106.568 Y75.855 E2.71376
G1 X106.908 Y75.836 E2.73358
G1 X107.24 Y75.842 E2.7529
G1 X107.76 Y75.898 E2.78334
G1 X108.091 Y75.965 E2.80299
G1 X108.42 Y76.056 E2.82286
G1 X108.741 Y76.171 E2.8427
G1 X109.052 Y76.308 E2.86248
G1 X109.353 Y76.468 E2.88232
G1 X109.642 Y76.649 E2.90216
G1 X109.917 Y76.85 E2.92198
G1 X110.177 Y77.071 E2.94184
G1 X110.42 Y77.309 E2.96163
G1 X110.639 Y77.558 E2.98093
G1 X110.949 Y77.98 E3.0114
G1 X111.123 Y78.269 E3.03103
G1 X111.276 Y78.571 E3.05073
G1 X111.467 Y79.05 E3.08074
G1 X111.563 Y79.375 E3.10046
G1 X111.636 Y79.705 E3.12013
G1 X111.701 Y80.217 E3.15016
G1 X111.714 Y85.835 E3.4771
G1 X121.714 Y85.835 E4.05905
G1 X121.714 Y100.275 E4.89938
G1 X92.274 Y100.275 E6.61264
G1 X92.274 Y85.835 E7.45297
G1 X102.214 Y85.835 E8.03143
G1 X102.214 Y85.835 F7200
G1 X102.773 Y86.335
;TYPE:Perimeter
G1 F3000
G1 X102.785 Y80.258 E8.38508
G1 X102.843 Y79.797 E8.41212
G1 X102.949 Y79.353 E8.43868
G1 X103.044 Y79.071 E8.456
G1 X103.234 Y78.64 E8.48341
G1 X103.544 Y78.124 E8.51844
G1 X103.93 Y77.653 E8.55388
G1 X104.38 Y77.243 E8.58931
G1 X104.884 Y76.901 E8.62476
G1 X105.432 Y76.635 E8.66021
G1 X106.012 Y76.451 E8.69562
G1 X106.613 Y76.353 E8.73106
G1 X107.208 Y76.341 E8.76569
G1 X107.684 Y76.393 E8.79356
G1 X108.268 Y76.533 E8.82851
G1 X108.834 Y76.758 E8.86396
G1 X109.362 Y77.063 E8.89945
G1 X109.84 Y77.44 E8.93488
G1 X110.249 Y77.872 E8.9695
G1 X110.532 Y78.257 E8.99731
G1 X110.82 Y78.777 E9.0319
G1 X110.994 Y79.215 E9.05933
G1 X111.079 Y79.5 E9.07664
G1 X111.143 Y79.791 E9.09398
G1 X111.202 Y80.258 E9.12137
G1 X111.214 Y86.335 E9.47502
G1 X121.214 Y86.335 E10.05697
G1 X121.214 Y99.775 E10.83911
G1 X92.773 Y99.775 E12.49423
G1 X92.773 Y86.335 E13.27637
G1 X102.713 Y86.335 E13.85483
G1 X102.713 Y86.335 F7200
G1 X103.273 Y86.835
G1 F3000
G1 X103.273 Y80.578 E14.21896
G1 X103.283 Y80.298 E14.23526
G1 X103.336 Y79.887 E14.25938
G1 X103.43 Y79.491 E14.28307
G1 X103.511 Y79.251 E14.29781
G1 X103.682 Y78.862 E14.32254
G1 X103.807 Y78.638 E14.33747
G1 X104.116 Y78.199 E14.36871
G1 X104.485 Y77.809 E14.39995
G1 X104.906 Y77.477 E14.43115
G1 X105.371 Y77.208 E14.46241
G1 X105.87 Y77.01 E14.49365
G1 X106.392 Y76.885 E14.52489
G1 X106.658 Y76.851 E14.5405
G1 X107.177 Y76.841 E14.57071
G1 X107.607 Y76.887 E14.59588
G1 X107.859 Y76.938 E14.61084
G1 X108.37 Y77.1 E14.64204
G1 X108.853 Y77.334 E14.67327
G1 X109.297 Y77.635 E14.70449
G1 X109.694 Y77.998 E14.7358
G1 X109.86 Y78.185 E14.75035
G1 X110.115 Y78.534 E14.7755
G1 X110.364 Y78.983 E14.80538
G1 X110.521 Y79.379 E14.83017
G1 X110.65 Y79.876 E14.86005
G1 X110.704 Y80.298 E14.88481
G1 X110.714 Y80.578 E14.90111
G1 X110.714 Y86.835 E15.26524
G1 X120.714 Y86.835 E15.84719
G1 X120.714 Y99.275 E16.57113
G1 X93.273 Y99.275 E18.16806
G1 X93.273 Y86.835 E18.892
G1 X103.213 Y86.835 E19.47046
G1 E18.07046 F4800
;WIPE_START
G1 F5760
G1 X103.273 Y86.835 E18.02296
G1 X103.273 Y86.137 E17.47046
;WIPE_END
G92 E0
G1 X108.774 Y80.562 F7200
G1 E2 F4800
;TYPE:External perimeter
G1 F3000
G1 X108.733 Y80.938 E2.02201
G1 X108.634 Y81.248 E2.04095
G1 X108.481 Y81.535 E2.05988
G1 X108.239 Y81.828 E2.082
G1 X107.985 Y82.035 E2.10107
G1 X107.699 Y82.191 E2.12003
G1 X107.334 Y82.304 E2.14227
G1 X107.01 Y82.336 E2.16122
G1 X106.685 Y82.31 E2.18019
G1 X106.32 Y82.204 E2.20231
G1 X106.029 Y82.053 E2.22139
G1 X105.775 Y81.854 E2.24017
G1 X105.559 Y81.611 E2.25909
G1 X105.365 Y81.278 E2.28152
G1 X105.249 Y80.913 E2.30381
G1 X105.213 Y80.588 E2.32284
G1 X105.236 Y80.263 E2.3418
G1 X105.339 Y79.895 E2.36404
G1 X105.488 Y79.602 E2.38317
G1 X105.728 Y79.301 E2.40557
G1 X106.025 Y79.06 E2.42783
G1 X106.316 Y78.908 E2.44694
G1 X106.627 Y78.812 E2.46588
G1 X107.005 Y78.774 E2.48799
G1 X107.331 Y78.806 E2.50705
G1 X107.644 Y78.897 E2.52602
G1 X107.983 Y79.074 E2.54828
G1 X108.238 Y79.28 E2.56736
G1 X108.481 Y79.575 E2.5896
G1 X108.634 Y79.862 E2.60853
G1 X108.733 Y80.172 E2.62747
G1 X108.769 Y80.503 E2.64685
G1 X108.769 Y80.503 F7200
G1 X109.273 Y80.6
;TYPE:Perimeter
G1 F3000
