; generated by PrusaSlicer 2.7.4+win64 on 2024-06-11 at 08:01:44 UTC

; 

; external perimeters extrusion width = 0.42mm
; perimeters extrusion width = 0.45mm
; infill extrusion width = 0.45mm
; solid infill extrusion width = 0.50mm
; top infill extrusion width = 0.42mm
; support material extrusion width = 0.42mm
; first layer extrusion width = 0.56mm

M201 X2500 Y2500 Z800 E2500 ; sets maximum accelerations, mm/sec^2
M203 X250 Y250 Z8 E80 ; sets maximum feedrates, mm / sec
M204 S2500 T2500 ; sets acceleration (S) and retract acceleration (R), mm/sec^2
M205 X10.00 Y10.00 Z2.00 E10.00 ; sets the jerk limits, mm/sec
M205 S0 T0 ; sets the minimum extruding and travel feed rate, mm/sec
;TYPE:Custom
G90 ; use absolute coordinates
M83 ; extruder relative mode
M104 S215 ; set extruder temp
M140 S60 ; set bed temp
M190 S60 ; wait for bed temp
M109 S215 ; wait for extruder temp
G28                                        ; move X/Y/Z to min endstops
G1 Z0.28                                   ; lift nozzle a bit 
G92 E0 
G1 Y3 F1800                                    ; zero the extruded length 
G1 X60  E25 F500                       ; Extrude 25mm of filament in a 5cm line. 
G92 E0                                     ; zero the extruded length again 
G1 E-2 F500                                ; Retract a little 
G1 X70 F4000                              ; Quickly wipe away from the filament line
M117
G21 ; set units to millimeters
G90 ; use absolute coordinates
M82 ; use absolute distances for extrusion
G92 E0
M107
;LAYER_CHANGE
;Z:0.28
;HEIGHT:0.28
G1 E-2 F4800
G92 E0
G1 Z.28 F7200
G92 E0
G1 X98.04 Y120.79
G1 E2 F4800
G92 E0
;TYPE:External perimeter
;WIDTH:0.56
G1 F3000
G1 X98.019 Y120.558 E.01356
G1 X97.929 Y120.25 E.03223
G1 X97.786 Y119.963 E.05089
G1 X97.553 Y119.663 E.073
G1 X97.262 Y119.42 E.09506
G1 X96.978 Y119.265 E.11389
G1 X96.616 Y119.152 E.13596
G1 X96.381 Y119.132 E.14969
G1 X96.118 Y118.817 E.17357
G1 X95.8 Y118.406 E.20381
G1 X95.201 Y117.544 E.2649
G1 X94.929 Y117.104 E.295
G1 X94.481 Y116.284 E.34938
G1 X94.536 Y116.12 E.35945
G1 X94.584 Y115.744 E.38151
G1 X94.551 Y115.366 E.40359
G1 X94.46 Y115.055 E.42245
G1 X94.284 Y114.719 E.44452
G1 X94.04 Y114.428 E.46662
G1 X93.788 Y114.225 E.48545
G1 X93.581 Y114.118 E.49901
G1 X93.46 Y113.728 E.52277
G1 X93.202 Y112.719 E.58338
G1 X93.1 Y112.204 E.61393
G1 X92.951 Y111.173 E.67455
G1 X92.913 Y110.759 E.69874
G1 X93.063 Y110.581 E.71229
G1 X93.218 Y110.297 E.73112
G1 X93.331 Y109.938 E.75302
G1 X93.366 Y109.616 E.77187
G1 X93.332 Y109.238 E.79396
G1 X93.218 Y108.876 E.81605
G1 X93.063 Y108.592 E.83488
G1 X92.913 Y108.414 E.84843
G1 X92.95 Y108.007 E.87221
G1 X93.098 Y106.976 E.93282
G1 X93.201 Y106.462 E.96333
G1 X93.46 Y105.445 E1.0244
G1 X93.58 Y105.058 E1.04798
G1 X93.738 Y104.98 E1.05823
G1 X94.036 Y104.749 E1.08017
G1 X94.248 Y104.505 E1.09898
G1 X94.436 Y104.175 E1.12108
G1 X94.55 Y103.81 E1.14333
G1 X94.584 Y103.43 E1.16553
G1 X94.536 Y103.053 E1.18765
G1 X94.48 Y102.886 E1.1979
G1 X94.669 Y102.525 E1.22161
G1 X94.927 Y102.073 E1.2519
G1 X95.493 Y101.193 E1.31279
G1 X96.115 Y100.361 E1.37324
G1 X96.38 Y100.044 E1.39728
G1 X96.555 Y100.031 E1.40749
G1 X96.922 Y99.932 E1.42961
G1 X97.258 Y99.756 E1.45168
G1 X97.51 Y99.553 E1.47051
G1 X97.753 Y99.262 E1.49257
G1 X97.929 Y98.926 E1.51464
G1 X98.019 Y98.615 E1.53348
G1 X98.04 Y98.383 E1.54704
G1 X98.353 Y98.122 E1.57076
G1 X99.187 Y97.497 E1.63141
G1 X99.625 Y97.204 E1.66208
G1 X100.067 Y96.931 E1.69231
G1 X100.887 Y96.483 E1.74669
G1 X101.052 Y96.538 E1.75681
G1 X101.428 Y96.586 E1.77887
G1 X101.806 Y96.552 E1.80096
G1 X102.116 Y96.461 E1.81976
G1 X102.453 Y96.285 E1.84189
G1 X102.745 Y96.04 E1.86407
G1 X102.978 Y95.74 E1.88618
G1 X103.057 Y95.582 E1.89646
G1 X103.443 Y95.461 E1.92
G1 X104.453 Y95.204 E1.98065
G1 X104.967 Y95.101 E2.01116
G1 X105.998 Y94.953 E2.07177
G1 X106.412 Y94.915 E2.09596
G1 X106.591 Y95.065 E2.10955
G1 X106.872 Y95.219 E2.1282
G1 X107.177 Y95.321 E2.14692
G1 X107.553 Y95.368 E2.16897
G1 X107.933 Y95.334 E2.19117
G1 X108.295 Y95.22 E2.21326
G1 X108.579 Y95.065 E2.23209
G1 X108.758 Y94.915 E2.24568
G1 X109.159 Y94.951 E2.26911
G1 X109.682 Y95.017 E2.29979
G1 X110.715 Y95.203 E2.36087
G1 X111.218 Y95.322 E2.39095
G1 X112.117 Y95.586 E2.44548
G1 X112.224 Y95.79 E2.45889
G1 X112.425 Y96.04 E2.47756
G1 X112.667 Y96.25 E2.49621
G1 X112.997 Y96.438 E2.51831
G1 X113.361 Y96.552 E2.54051
G1 X113.739 Y96.586 E2.5626
G1 X114.061 Y96.551 E2.58145
G1 X114.283 Y96.481 E2.595
G1 X114.647 Y96.671 E2.6189
G1 X115.098 Y96.929 E2.64914
G1 X115.979 Y97.495 E2.71008
G1 X116.811 Y98.117 E2.77053
G1 X117.128 Y98.381 E2.79454
G1 X117.14 Y98.557 E2.80481
G1 X117.24 Y98.923 E2.82689
G1 X117.416 Y99.26 E2.84902
G1 X117.618 Y99.512 E2.86782
G1 X117.908 Y99.753 E2.88976
G1 X118.192 Y99.908 E2.90859
G1 X118.554 Y100.021 E2.93066
G1 X118.788 Y100.041 E2.94433
G1 X119.052 Y100.357 E2.96829
G1 X119.37 Y100.767 E2.99849
G1 X119.967 Y101.627 E3.05941
G1 X120.501 Y102.527 E3.12031
G1 X120.69 Y102.886 E3.14392
G1 X120.634 Y103.053 E3.15417
G1 X120.586 Y103.427 E3.17611
G1 X120.609 Y103.75 E3.19495
G1 X120.708 Y104.114 E3.2169
G1 X120.853 Y104.403 E3.23572
G1 X121.086 Y104.702 E3.25778
G1 X121.38 Y104.947 E3.28005
G1 X121.588 Y105.055 E3.29369
G1 X121.71 Y105.445 E3.31747
G1 X121.969 Y106.462 E3.37854
G1 X122.07 Y106.969 E3.40862
G1 X122.219 Y108 E3.46924
G1 X122.256 Y108.414 E3.49343
G1 X122.107 Y108.592 E3.50694
G1 X121.953 Y108.874 E3.52564
G1 X121.851 Y109.178 E3.5443
G1 X121.804 Y109.555 E3.56641
G1 X121.838 Y109.935 E3.58861
G1 X121.951 Y110.297 E3.61068
G1 X122.107 Y110.581 E3.62954
G1 X122.257 Y110.759 E3.64309
G1 X122.22 Y111.168 E3.66699
G1 X122.155 Y111.684 E3.69726
G1 X121.968 Y112.716 E3.7583
G1 X121.849 Y113.22 E3.78844
G1 X121.587 Y114.116 E3.84277
G1 X121.431 Y114.194 E3.85292
G1 X121.133 Y114.425 E3.87486
G1 X120.921 Y114.669 E3.89367
G1 X120.733 Y114.998 E3.91572
G1 X120.619 Y115.363 E3.93797
G1 X120.586 Y115.741 E3.96005
G1 X120.621 Y116.063 E3.9789
G1 X120.691 Y116.285 E3.99245
G1 X120.501 Y116.646 E4.01619
G1 X119.966 Y117.548 E4.07722
G1 X119.677 Y117.98 E4.10747
G1 X119.373 Y118.402 E4.13774
G1 X118.787 Y119.13 E4.19213
G1 X118.614 Y119.142 E4.20222
G1 X118.248 Y119.242 E4.2243
G1 X117.912 Y119.417 E4.24635
G1 X117.66 Y119.62 E4.26518
G1 X117.417 Y119.911 E4.28724
G1 X117.241 Y120.248 E4.30937
G1 X117.15 Y120.558 E4.32817
G1 X117.13 Y120.79 E4.34172
G1 X116.815 Y121.053 E4.3656
G1 X116.404 Y121.372 E4.39588
G1 X115.542 Y121.97 E4.45693
G1 X115.102 Y122.242 E4.48703
G1 X114.283 Y122.69 E4.54136
G1 X114.118 Y122.635 E4.55148
G1 X113.744 Y122.588 E4.57342
G1 X113.422 Y122.611 E4.59221
G1 X113.058 Y122.71 E4.61416
G1 X112.769 Y122.855 E4.63298
G1 X112.469 Y123.088 E4.65509
G1 X112.225 Y123.381 E4.67728
G1 X112.116 Y123.59 E4.691
G1 X111.724 Y123.713 E4.71491
G1 X111.223 Y123.85 E4.74514
G1 X110.198 Y124.073 E4.80619
G1 X109.687 Y124.156 E4.83632
G1 X108.758 Y124.256 E4.8907
G1 X108.627 Y124.142 E4.90081
G1 X108.3 Y123.955 E4.92273
G1 X107.993 Y123.853 E4.94156
G1 X107.617 Y123.805 E4.96362
G1 X107.236 Y123.839 E4.98588
G1 X106.874 Y123.953 E5.00797
G1 X106.591 Y124.109 E5.02678
G1 X106.412 Y124.258 E5.04033
G1 X106.003 Y124.221 E5.06423
G1 X105.488 Y124.156 E5.09444
G1 X104.455 Y123.97 E5.15552
G1 X103.952 Y123.851 E5.1856
G1 X103.055 Y123.588 E5.24
G1 X102.978 Y123.433 E5.25007
G1 X102.747 Y123.135 E5.27201
G1 X102.503 Y122.923 E5.29082
G1 X102.173 Y122.735 E5.31292
G1 X101.809 Y122.621 E5.33512
G1 X101.431 Y122.588 E5.3572
G1 X101.109 Y122.623 E5.37605
G1 X100.887 Y122.693 E5.3896
G1 X100.525 Y122.503 E5.41339
G1 X99.63 Y121.971 E5.47398
G1 X99.193 Y121.68 E5.50453
G1 X98.359 Y121.056 E5.56515
G1 X98.086 Y120.829 E5.58581
G1 X98.086 Y120.829 F7200
G1 X98.52 Y120.539
;TYPE:Perimeter
G1 F3000
G1 X98.513 Y120.466 E5.59008
G1 X98.397 Y120.067 E5.61426
G1 X98.211 Y119.696 E5.63841
G1 X97.915 Y119.314 E5.66653
G1 X97.545 Y119.005 E5.69458
G1 X97.174 Y118.803 E5.71916
G1 X96.713 Y118.659 E5.74727
G1 X96.632 Y118.652 E5.752
G1 X96.508 Y118.503 E5.76328
G1 X96.203 Y118.11 E5.79223
G1 X95.62 Y117.27 E5.85173
G1 X95.362 Y116.853 E5.88027
G1 X95.025 Y116.238 E5.92108
G1 X95.087 Y115.753 E5.94953
G1 X95.044 Y115.272 E5.97763
G1 X94.925 Y114.867 E6.0022
G1 X94.702 Y114.439 E6.03029
G1 X94.392 Y114.069 E6.05838
G1 X94.063 Y113.805 E6.08293
G1 X93.997 Y113.77 E6.08728
G1 X93.941 Y113.592 E6.09814
G1 X93.69 Y112.608 E6.15724
G1 X93.592 Y112.12 E6.18621
G1 X93.43 Y110.921 E6.25662
G1 X93.478 Y110.864 E6.26096
G1 X93.681 Y110.494 E6.28552
G1 X93.823 Y110.04 E6.3132
G1 X93.868 Y109.621 E6.33772
G1 X93.825 Y109.14 E6.36582
G1 X93.681 Y108.679 E6.39393
G1 X93.478 Y108.309 E6.41849
G1 X93.43 Y108.252 E6.42283
G1 X93.447 Y108.066 E6.4337
G1 X93.591 Y107.061 E6.49278
G1 X93.688 Y106.572 E6.52179
G1 X93.993 Y105.415 E6.59142
G1 X94.382 Y105.114 E6.62004
G1 X94.658 Y104.795 E6.64459
G1 X94.897 Y104.376 E6.67266
G1 X95.044 Y103.908 E6.70121
G1 X95.087 Y103.42 E6.72972
G1 X95.024 Y102.925 E6.75876
G1 X95.108 Y102.765 E6.76928
G1 X95.355 Y102.333 E6.79824
G1 X95.904 Y101.478 E6.85737
G1 X96.624 Y100.531 E6.9266
G1 X97.105 Y100.4 E6.95561
G1 X97.533 Y100.176 E6.98372
G1 X97.862 Y99.912 E7.00827
G1 X98.171 Y99.541 E7.03637
G1 X98.395 Y99.113 E7.06448
G1 X98.513 Y98.708 E7.08903
G1 X98.52 Y98.634 E7.09336
G1 X98.663 Y98.514 E7.10422
G1 X99.476 Y97.906 E7.1633
G1 X99.896 Y97.625 E7.19271
G1 X100.319 Y97.363 E7.22167
G1 X100.934 Y97.027 E7.26245
G1 X101.418 Y97.089 E7.29085
G1 X101.899 Y97.046 E7.31895
G1 X102.305 Y96.927 E7.34357
G1 X102.732 Y96.703 E7.37163
G1 X103.108 Y96.389 E7.40014
G1 X103.413 Y95.995 E7.42914
G1 X103.58 Y95.943 E7.43932
G1 X104.564 Y95.692 E7.49842
G1 X105.052 Y95.594 E7.52739
G1 X106.25 Y95.432 E7.59774
G1 X106.307 Y95.479 E7.60204
G1 X106.671 Y95.679 E7.62621
G1 X107.065 Y95.81 E7.65037
G1 X107.544 Y95.871 E7.67847
G1 X108.032 Y95.827 E7.70698
G1 X108.492 Y95.682 E7.73505
G1 X108.863 Y95.479 E7.75966
G1 X108.92 Y95.432 E7.76396
G1 X109.106 Y95.448 E7.77482
G1 X109.607 Y95.511 E7.80421
G1 X110.613 Y95.693 E7.8637
G1 X111.09 Y95.806 E7.89223
G1 X111.772 Y96.006 E7.93359
G1 X112.063 Y96.388 E7.96154
G1 X112.377 Y96.66 E7.98572
G1 X112.796 Y96.899 E8.01379
G1 X113.263 Y97.045 E8.04226
G1 X113.744 Y97.088 E8.07036
G1 X114.164 Y97.042 E8.09495
G1 X114.235 Y97.02 E8.09928
G1 X114.407 Y97.11 E8.11058
G1 X114.839 Y97.356 E8.13951
G1 X115.693 Y97.905 E8.19859
G1 X116.641 Y98.626 E8.2679
G1 X116.772 Y99.107 E8.29691
G1 X116.995 Y99.535 E8.325
G1 X117.26 Y99.864 E8.34958
G1 X117.625 Y100.169 E8.37726
G1 X117.996 Y100.371 E8.40184
G1 X118.457 Y100.514 E8.42993
G1 X118.538 Y100.521 E8.43466
G1 X118.662 Y100.67 E8.44594
G1 X118.967 Y101.063 E8.47489
G1 X119.546 Y101.898 E8.53402
G1 X120.146 Y102.925 E8.60324
G1 X120.084 Y103.413 E8.63187
G1 X120.114 Y103.834 E8.65643
G1 X120.239 Y104.293 E8.68411
G1 X120.428 Y104.671 E8.7087
G1 X120.725 Y105.052 E8.73681
G1 X121.101 Y105.365 E8.76528
G1 X121.173 Y105.403 E8.77002
G1 X121.229 Y105.581 E8.78088
G1 X121.482 Y106.572 E8.8404
G1 X121.577 Y107.054 E8.86899
G1 X121.74 Y108.252 E8.93935
G1 X121.692 Y108.309 E8.94369
G1 X121.493 Y108.673 E8.96783
G1 X121.361 Y109.067 E8.99201
G1 X121.301 Y109.546 E9.0201
G1 X121.345 Y110.034 E9.04861
G1 X121.489 Y110.494 E9.07666
G1 X121.692 Y110.864 E9.10122
G1 X121.74 Y110.921 E9.10556
G1 X121.723 Y111.115 E9.11689
G1 X121.66 Y111.608 E9.14581
G1 X121.479 Y112.614 E9.20529
G1 X121.366 Y113.092 E9.23387
G1 X121.169 Y113.765 E9.27468
G1 X120.788 Y114.06 E9.30272
G1 X120.511 Y114.378 E9.32726
G1 X120.272 Y114.798 E9.35538
G1 X120.126 Y115.265 E9.38385
G1 X120.084 Y115.746 E9.41195
G1 X120.129 Y116.166 E9.43653
G1 X120.152 Y116.237 E9.44087
G1 X120.065 Y116.402 E9.45173
G1 X119.543 Y117.282 E9.51127
G1 X119.266 Y117.695 E9.54021
G1 X118.976 Y118.099 E9.56915
G1 X118.536 Y118.645 E9.60996
G1 X118.065 Y118.774 E9.63838
G1 X117.637 Y118.997 E9.66647
G1 X117.308 Y119.262 E9.69105
G1 X116.998 Y119.632 E9.71914
G1 X116.775 Y120.06 E9.74723
G1 X116.657 Y120.466 E9.77183
G1 X116.65 Y120.54 E9.77616
G1 X116.501 Y120.664 E9.78744
G1 X116.108 Y120.969 E9.81639
G1 X115.268 Y121.552 E9.87589
G1 X114.851 Y121.81 E9.90443
G1 X114.236 Y122.146 E9.94521
G1 X113.758 Y122.086 E9.97325
G1 X113.337 Y122.115 E9.99781
G1 X112.878 Y122.241 E10.02551
G1 X112.501 Y122.43 E10.05005
G1 X112.12 Y122.727 E10.07816
G1 X111.806 Y123.103 E10.10667
G1 X111.769 Y123.175 E10.11138
G1 X111.583 Y123.233 E10.12272
G1 X111.104 Y123.364 E10.15162
G1 X110.104 Y123.582 E10.21118
G1 X109.62 Y123.66 E10.23971
G1 X108.923 Y123.735 E10.28051
G1 X108.505 Y123.497 E10.3085
G1 X108.105 Y123.363 E10.33305
G1 X107.626 Y123.303 E10.36114
G1 X107.138 Y123.346 E10.38965
G1 X106.677 Y123.491 E10.41777
G1 X106.307 Y123.694 E10.44233
G1 X106.25 Y123.742 E10.44667
G1 X106.057 Y123.724 E10.45795
G1 X105.563 Y123.662 E10.48692
G1 X104.557 Y123.48 E10.54641
G1 X104.08 Y123.368 E10.57492
G1 X103.407 Y123.171 E10.61573
G1 X103.112 Y122.79 E10.64377
G1 X102.793 Y122.513 E10.66836
G1 X102.374 Y122.274 E10.69643
G1 X101.906 Y122.128 E10.72496
G1 X101.426 Y122.085 E10.75301
G1 X101.006 Y122.131 E10.7776
G1 X100.935 Y122.153 E10.78193
G1 X100.769 Y122.067 E10.79281
G1 X99.896 Y121.548 E10.85191
G1 X99.482 Y121.272 E10.88087
G1 X98.567 Y120.576 E10.94777
G1 X98.567 Y120.576 F7200
G1 X98.977 Y120.27
G1 F3000
G1 X98.864 Y119.884 E10.97118
G1 X98.636 Y119.428 E11.00085
G1 X98.277 Y118.965 E11.03494
G1 X97.827 Y118.589 E11.06907
G1 X97.37 Y118.34 E11.09936
G1 X96.901 Y118.194 E11.12795
G1 X96.606 Y117.814 E11.15595
G1 X96.038 Y116.996 E11.2139
G1 X95.794 Y116.601 E11.24092
G1 X95.542 Y116.14 E11.27149
G1 X95.59 Y115.763 E11.29361
G1 X95.538 Y115.179 E11.32773
G1 X95.391 Y114.679 E11.35806
G1 X95.119 Y114.16 E11.39216
G1 X94.743 Y113.71 E11.42629
G1 X94.421 Y113.451 E11.45034
G1 X94.178 Y112.497 E11.50763
G1 X94.085 Y112.035 E11.53506
G1 X93.944 Y111.054 E11.59274
G1 X94.143 Y110.691 E11.61683
G1 X94.315 Y110.143 E11.65025
G1 X94.371 Y109.625 E11.68057
G1 X94.318 Y109.041 E11.7147
G1 X94.143 Y108.482 E11.74879
G1 X93.944 Y108.12 E11.77283
G1 X94.084 Y107.145 E11.83015
G1 X94.176 Y106.683 E11.85756
G1 X94.423 Y105.714 E11.91575
G1 X94.727 Y105.479 E11.93811
G1 X95.068 Y105.085 E11.96843
G1 X95.358 Y104.576 E12.00252
G1 X95.537 Y104.006 E12.03729
G1 X95.59 Y103.411 E12.07205
G1 X95.54 Y103.017 E12.09516
G1 X95.782 Y102.592 E12.12362
G1 X96.315 Y101.763 E12.18097
G1 X96.906 Y100.972 E12.23843
G1 X97.289 Y100.868 E12.26153
G1 X97.808 Y100.597 E12.2956
G1 X98.214 Y100.27 E12.32594
G1 X98.59 Y99.82 E12.36007
G1 X98.861 Y99.301 E12.39414
G1 X98.977 Y98.904 E12.41821
G1 X99.765 Y98.314 E12.4755
G1 X100.166 Y98.045 E12.5036
G1 X100.57 Y97.796 E12.53122
G1 X101.032 Y97.543 E12.56187
G1 X101.409 Y97.591 E12.58399
G1 X101.993 Y97.54 E12.61811
G1 X102.493 Y97.393 E12.64844
G1 X103.012 Y97.121 E12.68254
G1 X103.47 Y96.738 E12.71728
G1 X103.712 Y96.425 E12.7403
G1 X104.674 Y96.179 E12.79808
G1 X105.137 Y96.087 E12.82555
G1 X106.118 Y95.946 E12.88323
G1 X106.47 Y96.139 E12.90659
G1 X106.954 Y96.3 E12.93627
G1 X107.535 Y96.373 E12.97035
G1 X108.13 Y96.32 E13.00511
G1 X108.689 Y96.144 E13.03922
G1 X109.052 Y95.946 E13.06328
G1 X109.531 Y96.006 E13.09137
G1 X110.511 Y96.183 E13.14932
G1 X110.962 Y96.289 E13.17628
G1 X111.459 Y96.435 E13.20643
G1 X111.701 Y96.736 E13.22891
G1 X112.086 Y97.07 E13.25857
G1 X112.595 Y97.36 E13.29266
G1 X113.166 Y97.539 E13.32748
G1 X113.749 Y97.59 E13.36154
G1 X114.161 Y97.545 E13.38566
G1 X114.58 Y97.784 E13.41373
G1 X115.408 Y98.316 E13.471
G1 X116.199 Y98.908 E13.5285
G1 X116.304 Y99.29 E13.55155
G1 X116.575 Y99.81 E13.58567
G1 X116.902 Y100.216 E13.61601
G1 X117.343 Y100.584 E13.64944
G1 X117.8 Y100.833 E13.67973
G1 X118.269 Y100.979 E13.70832
G1 X118.564 Y101.359 E13.73632
G1 X119.126 Y102.168 E13.79364
G1 X119.63 Y103.018 E13.85115
G1 X119.582 Y103.399 E13.8735
G1 X119.618 Y103.919 E13.90383
G1 X119.77 Y104.473 E13.93726
G1 X120.003 Y104.939 E13.96758
G1 X120.363 Y105.401 E14.00166
G1 X120.749 Y105.723 E14.03091
G1 X120.994 Y106.683 E14.08857
G1 X121.084 Y107.138 E14.11556
