; generated by PrusaSlicer 2.7.4+win64 on 2024-06-07 at 15:40:52 UTC

; 

; external perimeters extrusion width = 0.42mm
; perimeters extrusion width = 0.45mm
; infill extrusion width = 0.45mm
; solid infill extrusion width = 0.50mm
; top infill extrusion width = 0.42mm
; support material extrusion width = 0.42mm
; first layer extrusion width = 0.56mm

M201 X2500 Y2500 Z800 E2500 ; sets maximum accelerations, mm/sec^2
M203 X250 Y250 Z8 E80 ; sets maximum feedrates, mm / sec
M204 S2500 T2500 ; sets acceleration (S) and retract acceleration (R), mm/sec^2
M205 X10.00 Y10.00 Z2.00 E10.00 ; sets the jerk limits, mm/sec
M205 S0 T0 ; sets the minimum extruding and travel feed rate, mm/sec
;TYPE:Custom
G90 ; use absolute coordinates
M83 ; extruder relative mode
M104 S215 ; set extruder temp
M140 S60 ; set bed temp
M190 S60 ; wait for bed temp
M109 S215 ; wait for extruder temp
G28                                        ; move X/Y/Z to min endstops
G1 Z0.28                                   ; lift nozzle a bit 
G92 E0 
G1 Y3 F1800                                    ; zero the extruded length 
G1 X60  E25 F500                       ; Extrude 25mm of filament in a 5cm line. 
G92 E0                                     ; zero the extruded length again 
G1 E-2 F500                                ; Retract a little 
G1 X70 F4000                              ; Quickly wipe away from the filament line
M117
G21 ; set units to millimeters
G90 ; use absolute coordinates
M82 ; use absolute distances for extrusion
G92 E0
M107
;LAYER_CHANGE
;Z:0.28
;HEIGHT:0.28
G1 E-2 F4800
G92 E0
G1 Z.28 F7200
G92 E0
G1 X198.296 Y142.22
G1 E2 F4800
G92 E0
;TYPE:External perimeter
;WIDTH:0.56
G1 F3000
G1 X21.704 Y142.22 E10.27676
G1 X21.704 Y77.78 E14.02684
G1 X198.296 Y77.78 E24.3036
G1 X198.296 Y142.16 E28.05019
G1 X197.796 Y141.72 F7200
;TYPE:Perimeter
G1 F3000
G1 X22.204 Y141.72 E38.26875
G1 X22.204 Y78.28 E41.96064
G1 X197.796 Y78.28 E52.1792
G1 X197.796 Y141.66 E55.86759
G1 E54.46759 F4800
;WIPE_START
G1 F5760
G1 X197.796 Y141.72 E54.42009
G1 X197.098 Y141.72 E53.86759
;WIPE_END
G92 E0
G1 X24.701 Y108.384 F7200
G1 E2 F4800
;TYPE:External perimeter
G1 F3000
G1 X24.813 Y108.291 E2.00847
G1 X25.206 Y108.076 E2.03454
G1 X25.571 Y107.963 E2.05678
G1 X26.01 Y107.919 E2.08246
G1 X26.394 Y107.956 E2.10491
G1 X26.759 Y108.062 E2.12703
G1 X27.156 Y108.269 E2.15309
G1 X27.453 Y108.51 E2.17535
G1 X27.738 Y108.855 E2.20139
G1 X27.917 Y109.19 E2.22349
G1 X28.033 Y109.553 E2.24567
G1 X28.082 Y110 E2.27184
G1 X28.033 Y110.447 E2.29801
G1 X27.917 Y110.812 E2.3203
G1 X27.702 Y111.198 E2.34601
G1 X27.452 Y111.491 E2.36842
G1 X27.156 Y111.731 E2.3906
G1 X26.759 Y111.938 E2.41666
G1 X26.394 Y112.043 E2.43876
G1 X26.017 Y112.081 E2.46081
G1 X25.577 Y112.038 E2.48654
G1 X25.206 Y111.924 E2.50913
G1 X24.813 Y111.709 E2.5352
G1 X24.522 Y111.465 E2.5573
G1 X24.28 Y111.172 E2.57942
G1 X24.069 Y110.777 E2.60548
G1 X23.96 Y110.412 E2.62765
G1 X23.919 Y110.003 E2.65157
G1 X23.96 Y109.588 E2.67584
G1 X24.069 Y109.223 E2.69801
G1 X24.276 Y108.833 E2.7237
G1 X24.522 Y108.535 E2.74619
G1 X24.655 Y108.423 E2.75631
G1 X24.655 Y108.423 F7200
G1 X24.192 Y108.159
;TYPE:Perimeter
G1 F3000
G1 X24.529 Y107.876 E2.78192
G1 X25.01 Y107.613 E2.81382
G1 X25.471 Y107.471 E2.84189
G1 X26.009 Y107.416 E2.87336
G1 X26.489 Y107.463 E2.90143
G1 X26.946 Y107.596 E2.92913
G1 X27.432 Y107.849 E2.96102
G1 X27.807 Y108.153 E2.98911
G1 X28.156 Y108.576 E3.02102
G1 X28.38 Y108.995 E3.04867
G1 X28.524 Y109.448 E3.07633
G1 X28.585 Y110 E3.10865
G1 X28.524 Y110.552 E3.14097
G1 X28.378 Y111.011 E3.169
G1 X28.115 Y111.484 E3.2005
G1 X27.802 Y111.851 E3.22857
G1 X27.432 Y112.151 E3.25629
G1 X26.946 Y112.404 E3.28818
G1 X26.49 Y112.536 E3.31581
G1 X26.017 Y112.584 E3.34348
G1 X25.478 Y112.53 E3.375
G1 X25.011 Y112.387 E3.40342
G1 X24.529 Y112.124 E3.43537
G1 X24.165 Y111.818 E3.46304
G1 X23.862 Y111.451 E3.49074
G1 X23.604 Y110.968 E3.52261
G1 X23.467 Y110.509 E3.55049
G1 X23.416 Y110.003 E3.58009
G1 X23.467 Y109.491 E3.61003
G1 X23.604 Y109.032 E3.63791
G1 X23.859 Y108.554 E3.66944
G1 X24.149 Y108.201 E3.69603
G1 E2.29603 F4800
;WIPE_START
G1 F5760
G1 X24.192 Y108.159 E2.24844
G1 X24.529 Y107.876 E1.90005
G1 X24.755 Y107.753 E1.69603
;WIPE_END
G92 E0
G1 X196.474 Y111.834 F7200
G1 E2 F4800
G1 F3000
G1 X196.523 Y111.777 E2.00437
G1 X196.839 Y111.211 E2.04209
G1 X197.042 Y110.572 E2.08111
G1 X197.296 Y110.612 E2.09607
G1 X197.296 Y141.22 E3.8773
G1 X22.704 Y141.22 E14.03767
G1 X22.704 Y110.597 E15.81977
G1 X22.96 Y110.559 E15.83483
G1 X23.14 Y111.159 E15.87128
G1 X23.445 Y111.731 E15.909
G1 X23.809 Y112.172 E15.94228
G1 X24.246 Y112.539 E15.97549
G1 X24.816 Y112.85 E16.01328
G1 X25.379 Y113.023 E16.04756
G1 X26.017 Y113.086 E16.08487
G1 X26.585 Y113.029 E16.11809
G1 X27.133 Y112.871 E16.15128
G1 X27.708 Y112.571 E16.18902
G1 X28.153 Y112.21 E16.22237
G1 X28.528 Y111.771 E16.25597
G1 X28.839 Y111.21 E16.2933
G1 X29.016 Y110.656 E16.32715
G1 X29.087 Y110 E16.36555
G1 X29.016 Y109.344 E16.40395
G1 X28.842 Y108.8 E16.43719
G1 X28.573 Y108.296 E16.47044
G1 X28.161 Y107.796 E16.50814
G1 X27.708 Y107.429 E16.54207
G1 X27.133 Y107.129 E16.57981
G1 X26.584 Y106.97 E16.61307
G1 X26.009 Y106.914 E16.64669
G1 X25.371 Y106.979 E16.68401
G1 X24.815 Y107.151 E16.71788
G1 X24.246 Y107.461 E16.75559
G1 X23.808 Y107.829 E16.78888
G1 X23.441 Y108.275 E16.82249
G1 X23.14 Y108.841 E16.8598
G1 X22.96 Y109.441 E16.89625
G1 X22.704 Y109.403 E16.91131
G1 X22.704 Y78.78 E18.69341
G1 X197.296 Y78.78 E28.85378
G1 X197.296 Y109.388 E30.63501
G1 X197.042 Y109.428 E30.64997
G1 X196.839 Y108.789 E30.68899
G1 X196.523 Y108.223 E30.72671
G1 X196.152 Y107.789 E30.75994
G1 X195.708 Y107.429 E30.7932
G1 X195.133 Y107.129 E30.83094
G1 X194.584 Y106.97 E30.8642
G1 X194.009 Y106.914 E30.89782
G1 X193.371 Y106.979 E30.93514
G1 X192.815 Y107.151 E30.96901
G1 X192.246 Y107.461 E31.00672
G1 X191.8 Y107.836 E31.04063
G1 X191.396 Y108.343 E31.07836
G1 X191.137 Y108.852 E31.1116
G1 X190.974 Y109.394 E31.14454
G1 X190.914 Y110.004 E31.18021
G1 X190.975 Y110.607 E31.21548
G1 X191.137 Y111.148 E31.24834
G1 X191.396 Y111.657 E31.28158
G1 X191.8 Y112.164 E31.31931
G1 X192.246 Y112.539 E31.35322
G1 X192.825 Y112.855 E31.39161
G1 X193.459 Y113.038 E31.43001
G1 X194.028 Y113.085 E31.46324
G1 X194.586 Y113.029 E31.49588
G1 X195.141 Y112.868 E31.52951
G1 X195.708 Y112.57 E31.56679
G1 X196.152 Y112.211 E31.60002
G1 X196.435 Y111.88 E31.62536
G1 E30.22536 F4800
;WIPE_START
G1 F5760
G1 X196.474 Y111.834 E30.17762
G1 X196.523 Y111.777 E30.11811
G1 X196.826 Y111.234 E29.62536
;WIPE_END
G92 E0
G1 X179.17 Y82.153 F7200
G1 E2 F4800
;TYPE:External perimeter
G1 F3000
G1 X179.172 Y82.155 E2.00016
G1 X179.727 Y82.639 E2.04301
G1 X180.071 Y82.999 E2.07199
G1 X180.529 Y83.575 E2.11482
G1 X180.923 Y84.199 E2.15777
G1 X181.246 Y84.863 E2.20074
G1 X181.496 Y85.558 E2.24372
G1 X181.669 Y86.275 E2.28664
G1 X181.762 Y87.005 E2.32947
G1 X181.78 Y87.5 E2.3583
G1 X181.762 Y87.995 E2.38713
G1 X181.669 Y88.722 E2.42978
G1 X181.562 Y89.208 E2.45874
G1 X181.339 Y89.906 E2.50138
G1 X181.145 Y90.365 E2.53038
G1 X180.799 Y91.014 E2.57318
G1 X180.382 Y91.624 E2.61618
G1 X179.902 Y92.184 E2.6591
G1 X179.365 Y92.688 E2.70196
G1 X178.973 Y92.994 E2.7309
G1 X178.355 Y93.392 E2.77368
G1 X177.694 Y93.722 E2.81667
G1 X177.001 Y93.978 E2.85966
G1 X176.285 Y94.158 E2.90262
G1 X175.556 Y94.257 E2.94543
G1 X175.059 Y94.28 E2.97438
G1 X174.324 Y94.247 E3.0172
G1 X173.603 Y94.135 E3.05966
G1 X173.114 Y94.013 E3.08899
G1 X172.419 Y93.77 E3.13184
G1 X171.755 Y93.453 E3.17466
G1 X171.327 Y93.2 E3.20359
G1 X170.731 Y92.768 E3.24643
G1 X170.184 Y92.273 E3.28936
G1 X169.695 Y91.723 E3.33219
G1 X169.4 Y91.322 E3.36116
G1 X169.02 Y90.695 E3.40383
G1 X168.802 Y90.248 E3.43277
G1 X168.54 Y89.56 E3.47561
G1 X168.355 Y88.848 E3.51842
G1 X168.274 Y88.357 E3.54738
G1 X168.221 Y87.623 E3.59021
G1 X168.248 Y86.885 E3.63319
G1 X168.353 Y86.164 E3.67559
G1 X168.47 Y85.673 E3.70496
G1 X168.707 Y84.977 E3.74775
G1 X169.014 Y84.315 E3.79022
G1 X169.267 Y83.879 E3.81956
G1 X169.693 Y83.279 E3.86238
G1 X170.184 Y82.727 E3.90537
G1 X170.731 Y82.232 E3.9483
G1 X171.33 Y81.799 E3.99131
G1 X171.969 Y81.435 E4.03411
G1 X172.422 Y81.229 E4.06307
G1 X173.108 Y80.989 E4.10536
G1 X173.597 Y80.867 E4.13469
G1 X174.324 Y80.753 E4.17751
G1 X175.052 Y80.72 E4.21992
G1 X175.556 Y80.743 E4.24928
G1 X176.285 Y80.842 E4.29209
G1 X176.999 Y81.021 E4.33493
G1 X177.469 Y81.185 E4.3639
G1 X178.136 Y81.489 E4.40656
G1 X178.568 Y81.735 E4.43549
G1 X179.12 Y82.119 E4.47462
G1 X179.12 Y82.119 F7200
G1 X179.46 Y81.746
;TYPE:Perimeter
G1 F3000
G1 X179.48 Y81.761 E4.47607
G1 X180.073 Y82.277 E4.52182
G1 X180.448 Y82.67 E4.55343
G1 X180.937 Y83.285 E4.59915
G1 X181.36 Y83.955 E4.64526
G1 X181.708 Y84.668 E4.69143
G1 X181.976 Y85.414 E4.73756
G1 X182.161 Y86.185 E4.7837
G1 X182.261 Y86.965 E4.82946
G1 X182.28 Y87.5 E4.86061
G1 X182.261 Y88.035 E4.89176
G1 X182.162 Y88.808 E4.93711
G1 X182.045 Y89.338 E4.9687
G1 X181.808 Y90.08 E5.01403
G1 X181.597 Y90.58 E5.04561
G1 X181.227 Y91.273 E5.09133
G1 X180.78 Y91.928 E5.13748
G1 X180.264 Y92.53 E5.18362
G1 X179.691 Y93.068 E5.22936
G1 X179.263 Y93.402 E5.26095
G1 X178.602 Y93.828 E5.30671
G1 X177.893 Y94.182 E5.35283
G1 X177.149 Y94.457 E5.39899
G1 X176.38 Y94.649 E5.44512
G1 X175.601 Y94.756 E5.49088
G1 X175.059 Y94.78 E5.52245
G1 X174.274 Y94.745 E5.56818
G1 X173.504 Y94.625 E5.61353
G1 X172.971 Y94.492 E5.6455
G1 X172.229 Y94.233 E5.69124
G1 X171.52 Y93.895 E5.73695
G1 X171.053 Y93.618 E5.76855
G1 X170.416 Y93.157 E5.81431
G1 X169.828 Y92.625 E5.86046
G1 X169.306 Y92.038 E5.90617
G1 X168.984 Y91.601 E5.93776
G1 X168.58 Y90.935 E5.98309
G1 X168.342 Y90.447 E6.01469
G1 X168.063 Y89.712 E6.06044
G1 X167.865 Y88.952 E6.10614
G1 X167.777 Y88.416 E6.13775
G1 X167.72 Y87.632 E6.1835
G1 X167.749 Y86.84 E6.22962
G1 X167.861 Y86.069 E6.27496
G1 X167.99 Y85.535 E6.30693
G1 X168.242 Y84.79 E6.3527
G1 X168.571 Y84.084 E6.39803
G1 X168.846 Y83.609 E6.42997
G1 X169.302 Y82.968 E6.47575
G1 X169.828 Y82.375 E6.52188
G1 X170.416 Y81.843 E6.56803
G1 X171.058 Y81.378 E6.61416
G1 X171.741 Y80.989 E6.6599
G1 X172.235 Y80.765 E6.69147
G1 X172.964 Y80.51 E6.73641
G1 X173.497 Y80.376 E6.76839
G1 X174.274 Y80.255 E6.81415
G1 X175.052 Y80.22 E6.85947
G1 X175.601 Y80.244 E6.89145
G1 X176.38 Y80.351 E6.93721
G1 X177.142 Y80.542 E6.98293
G1 X177.655 Y80.721 E7.01455
G1 X178.364 Y81.043 E7.05987
G1 X178.836 Y81.312 E7.09149
G1 X179.411 Y81.712 E7.13225
G1 X179.411 Y81.712 F7200
G1 X179.747 Y81.337
G1 F3000
G1 X179.788 Y81.366 E7.13517
G1 X180.418 Y81.915 E7.1838
G1 X180.825 Y82.341 E7.21809
G1 X181.345 Y82.995 E7.26671
G1 X181.797 Y83.712 E7.31603
G1 X182.169 Y84.473 E7.36532
G1 X182.456 Y85.271 E7.41467
G1 X182.654 Y86.095 E7.46399
G1 X182.76 Y86.924 E7.51263
G1 X182.781 Y87.5 E7.54617
G1 X182.76 Y88.076 E7.57971
G1 X182.655 Y88.894 E7.6277
G1 X182.528 Y89.468 E7.66191
G1 X182.278 Y90.253 E7.70985
G1 X182.049 Y90.795 E7.74409
G1 X181.655 Y91.533 E7.79278
G1 X181.177 Y92.233 E7.84211
G1 X180.626 Y92.876 E7.89139
G1 X180.017 Y93.448 E7.94001
G1 X179.553 Y93.81 E7.97426
G1 X178.85 Y94.263 E8.02293
G1 X178.092 Y94.641 E8.07222
G1 X177.297 Y94.935 E8.12155
G1 X176.475 Y95.141 E8.17087
G1 X175.647 Y95.254 E8.2195
G1 X175.059 Y95.281 E8.25375
G1 X174.224 Y95.243 E8.30239
G1 X173.405 Y95.116 E8.35062
G1 X172.828 Y94.972 E8.38523
G1 X172.038 Y94.696 E8.43393
G1 X171.284 Y94.336 E8.48255
G1 X170.778 Y94.036 E8.51678
G1 X170.101 Y93.546 E8.56541
G1 X169.473 Y92.977 E8.61473
G1 X168.917 Y92.353 E8.66337
G1 X168.568 Y91.879 E8.69762
G1 X168.141 Y91.174 E8.74559
G1 X167.883 Y90.646 E8.77979
G1 X167.586 Y89.864 E8.82847
G1 X167.376 Y89.055 E8.87711
G1 X167.28 Y88.475 E8.91132
G1 X167.22 Y87.641 E8.95998
G1 X167.25 Y86.795 E9.00924
G1 X167.37 Y85.975 E9.05747
G1 X167.509 Y85.396 E9.09212
G1 X167.777 Y84.604 E9.14078
G1 X168.127 Y83.853 E9.189
G1 X168.426 Y83.338 E9.22366
G1 X168.91 Y82.656 E9.27233
G1 X169.473 Y82.023 E9.32163
G1 X170.101 Y81.454 E9.37095
G1 X170.787 Y80.957 E9.42025
G1 X171.514 Y80.544 E9.46891
G1 X172.049 Y80.3 E9.50313
G1 X172.82 Y80.031 E9.55065
G1 X173.398 Y79.886 E9.58533
G1 X174.224 Y79.757 E9.63398
G1 X175.052 Y79.719 E9.68222
G1 X175.646 Y79.746 E9.71682
G1 X176.475 Y79.859 E9.76551
G1 X177.286 Y80.062 E9.81416
G1 X177.841 Y80.256 E9.84837
G1 X178.591 Y80.597 E9.89632
G1 X179.103 Y80.888 E9.93059
G1 X179.698 Y81.303 E9.97281
G1 E8.57281 F4800
;WIPE_START
G1 F5760
G1 X179.747 Y81.337 E8.52559
G1 X179.788 Y81.366 E8.48583
G1 X180.277 Y81.792 E7.97281
;WIPE_END
G92 E0
G1 X195.801 Y111.02 F7200
G1 E2 F4800
;TYPE:External perimeter
G1 F3000
G1 X195.699 Y111.203 E2.01219
G1 X195.451 Y111.492 E2.03435
G1 X195.156 Y111.731 E2.05644
G1 X194.765 Y111.936 E2.08213
G1 X194.395 Y112.043 E2.10454
G1 X194.019 Y112.081 E2.12653
G1 X193.64 Y112.05 E2.14866
G1 X193.208 Y111.925 E2.17483
G1 X192.813 Y111.709 E2.20103
G1 X192.52 Y111.463 E2.22329
G1 X192.241 Y111.113 E2.24934
G1 X192.068 Y110.775 E2.27144
G1 X191.96 Y110.412 E2.29348
G1 X191.919 Y110.003 E2.3174
G1 X191.96 Y109.588 E2.34167
G1 X192.068 Y109.225 E2.36371
G1 X192.241 Y108.887 E2.38581
G1 X192.52 Y108.537 E2.41186
G1 X192.813 Y108.291 E2.43412
G1 X193.206 Y108.076 E2.46019
G1 X193.571 Y107.963 E2.48243
G1 X194.01 Y107.919 E2.50811
G1 X194.394 Y107.956 E2.53056
G1 X194.759 Y108.062 E2.55268
G1 X195.156 Y108.269 E2.57874
G1 X195.451 Y108.509 E2.60087
G1 X195.699 Y108.797 E2.62299
G1 X195.916 Y109.188 E2.64901
G1 X196.033 Y109.553 E2.67132
G1 X196.082 Y110 E2.69749
G1 X196.033 Y110.447 E2.72366
G1 X195.916 Y110.812 E2.74597
G1 X195.83 Y110.967 E2.75629
G1 X195.83 Y110.967 F7200
G1 X196.09 Y111.514
;TYPE:Perimeter
G1 F3000
G1 X195.802 Y111.851 E2.78209
G1 X195.432 Y112.15 E2.80977
G1 X194.953 Y112.402 E2.84127
G1 X194.49 Y112.536 E2.86932
G1 X194.023 Y112.583 E2.89663
G1 X193.549 Y112.544 E2.92431
G1 X193.016 Y112.39 E2.9566
G1 X192.529 Y112.124 E2.98889
G1 X192.16 Y111.814 E3.01694
G1 X191.819 Y111.385 E3.04883
G1 X191.602 Y110.961 E3.07655
G1 X191.467 Y110.509 E3.104
G1 X191.416 Y110.003 E3.1336
G1 X191.467 Y109.491 E3.16354
G1 X191.602 Y109.039 E3.19099
G1 X191.819 Y108.615 E3.21871
G1 X192.16 Y108.186 E3.2506
G1 X192.529 Y107.876 E3.27865
G1 X193.01 Y107.613 E3.31055
G1 X193.471 Y107.471 E3.33862
G1 X194.009 Y107.416 E3.37009
G1 X194.489 Y107.463 E3.39816
G1 X194.946 Y107.596 E3.42586
G1 X195.432 Y107.849 E3.45775
G1 X195.802 Y108.149 E3.48547
G1 X196.111 Y108.51 E3.51312
G1 X196.378 Y108.988 E3.54498
G1 X196.524 Y109.448 E3.57307
G1 X196.585 Y110 E3.60539
G1 X196.524 Y110.552 E3.63771
G1 X196.378 Y111.012 E3.6658
G1 X196.124 Y111.466 E3.69607
G1 X196.124 Y111.466 F7200
G1 X196.903 Y111.672
;TYPE:Gap fill
;WIDTH:0.154248
G1 F3000
G1 X196.999 Y111.533 E3.69792
G1 X197.021 Y111.449 E3.69887
G1 X197.021 Y111.449 F7200
G1 X197.096 Y112.54
;TYPE:Solid infill
;WIDTH:0.560426
G1 F3000
G1 X196.737 Y112.181 E3.72844
G1 X196.403 Y112.554 E3.7576
G1 X196.871 Y113.023 E3.79619
G1 X196.871 Y113.73 E3.83737
G1 X196.012 Y112.871 E3.90813
G1 X195.943 Y112.927 E3.91331
G1 X195.561 Y113.127 E3.93842
G1 X196.871 Y114.438 E4.04637
G1 X196.871 Y115.145 E4.08755
G1 X195.06 Y113.334 E4.23672
G1 X194.667 Y113.448 E4.26055
G1 X194.485 Y113.466 E4.2712
G1 X196.871 Y115.853 E4.46778
G1 X196.871 Y116.561 E4.50902
G1 X193.558 Y113.247 E4.78195
G1 E3.38195 F4800
;WIPE_START
G1 F5760
G1 X194.094 Y113.783 E2.78195
;WIPE_END
G92 E0
G1 X197.096 Y79.991 F7200
G1 E2 F4800
G1 F3000
G1 X196.31 Y79.205 E2.06474
G1 X195.602 Y79.205 E2.10598
G1 X196.871 Y80.474 E2.21051
G1 X196.871 Y81.181 E2.25169
G1 X194.895 Y79.205 E2.41445
G1 X194.187 Y79.205 E2.45569
G1 X196.871 Y81.889 E2.67677
G1 X196.871 Y82.597 E2.71801
G1 X193.479 Y79.205 E2.99741
G1 X192.772 Y79.205 E3.03859
G1 X196.871 Y83.304 E3.37623
G1 X196.871 Y84.012 E3.41747
G1 X192.064 Y79.205 E3.81342
G1 X191.357 Y79.205 E3.8546
G1 X196.871 Y84.719 E4.30879
G1 X196.871 Y85.427 E4.35003
G1 X190.649 Y79.205 E4.86254
G1 X189.941 Y79.205 E4.90378
G1 X196.871 Y86.135 E5.4746
G1 X196.871 Y86.842 E5.51578
G1 X189.234 Y79.205 E6.14484
G1 X188.526 Y79.205 E6.18608
