; generated by PrusaSlicer 2.7.4+win64 on 2024-06-07 at 16:27:14 UTC

; 

; external perimeters extrusion width = 0.42mm
; perimeters extrusion width = 0.45mm
; infill extrusion width = 0.45mm
; solid infill extrusion width = 0.50mm
; top infill extrusion width = 0.42mm
; support material extrusion width = 0.42mm
; first layer extrusion width = 0.56mm

M201 X2500 Y2500 Z800 E2500 ; sets maximum accelerations, mm/sec^2
M203 X250 Y250 Z8 E80 ; sets maximum feedrates, mm / sec
M204 S2500 T2500 ; sets acceleration (S) and retract acceleration (R), mm/sec^2
M205 X10.00 Y10.00 Z2.00 E10.00 ; sets the jerk limits, mm/sec
M205 S0 T0 ; sets the minimum extruding and travel feed rate, mm/sec
;TYPE:Custom
G90 ; use absolute coordinates
M83 ; extruder relative mode
M104 S215 ; set extruder temp
M140 S60 ; set bed temp
M190 S60 ; wait for bed temp
M109 S215 ; wait for extruder temp
G28                                        ; move X/Y/Z to min endstops
G1 Z0.28                                   ; lift nozzle a bit 
G92 E0 
G1 Y3 F1800                                    ; zero the extruded length 
G1 X60  E25 F500                       ; Extrude 25mm of filament in a 5cm line. 
G92 E0                                     ; zero the extruded length again 
G1 E-2 F500                                ; Retract a little 
G1 X70 F4000                              ; Quickly wipe away from the filament line
M117
G21 ; set units to millimeters
G90 ; use absolute coordinates
M82 ; use absolute distances for extrusion
G92 E0
M107
;LAYER_CHANGE
;Z:0.28
;HEIGHT:0.28
G1 E-2 F4800
G92 E0
G1 Z.28 F7200
G92 E0
G1 X198.296 Y142.22
G1 E2 F4800
G92 E0
;TYPE:External perimeter
;WIDTH:0.56
G1 F3000
G1 X21.704 Y142.22 E10.27676
G1 X21.704 Y77.78 E14.02684
G1 X198.296 Y77.78 E24.3036
G1 X198.296 Y142.16 E28.05019
G1 X197.796 Y141.72 F7200
;TYPE:Perimeter
G1 F3000
G1 X22.204 Y141.72 E38.26875
G1 X22.204 Y78.28 E41.96064
G1 X197.796 Y78.28 E52.1792
G1 X197.796 Y141.66 E55.86759
G1 E54.46759 F4800
;WIPE_START
G1 F5760
G1 X197.796 Y141.72 E54.42009
G1 X197.098 Y141.72 E53.86759
;WIPE_END
G92 E0
G1 X24.149 Y110.926 F7200
G1 E2 F4800
;TYPE:External perimeter
G1 F3000
G1 X24.069 Y110.777 E2.00984
G1 X23.96 Y110.412 E2.03201
G1 X23.919 Y110.003 E2.05593
G1 X23.96 Y109.588 E2.0802
G1 X24.069 Y109.223 E2.10237
G1 X24.276 Y108.833 E2.12806
G1 X24.522 Y108.535 E2.15055
G1 X24.813 Y108.291 E2.17265
G1 X25.206 Y108.076 E2.19872
G1 X25.571 Y107.963 E2.22096
G1 X26.01 Y107.919 E2.24664
G1 X26.394 Y107.956 E2.26909
G1 X26.759 Y108.062 E2.29121
G1 X27.156 Y108.269 E2.31727
G1 X27.453 Y108.51 E2.33953
G1 X27.738 Y108.855 E2.36557
G1 X27.917 Y109.19 E2.38767
G1 X28.033 Y109.553 E2.40985
G1 X28.082 Y110 E2.43602
G1 X28.033 Y110.447 E2.46219
G1 X27.917 Y110.812 E2.48448
G1 X27.702 Y111.198 E2.51019
G1 X27.452 Y111.491 E2.5326
G1 X27.156 Y111.731 E2.55478
G1 X26.759 Y111.938 E2.58084
G1 X26.394 Y112.043 E2.60294
G1 X26.017 Y112.081 E2.62499
G1 X25.577 Y112.038 E2.65072
G1 X25.206 Y111.924 E2.67331
G1 X24.813 Y111.709 E2.69938
G1 X24.522 Y111.465 E2.72148
G1 X24.28 Y111.172 E2.7436
G1 X24.177 Y110.979 E2.75633
G1 X24.177 Y110.979 F7200
G1 X23.883 Y111.477
;TYPE:Perimeter
G1 F3000
G1 X23.862 Y111.451 E2.75827
G1 X23.604 Y110.968 E2.79014
G1 X23.467 Y110.509 E2.81802
G1 X23.416 Y110.003 E2.84762
G1 X23.467 Y109.491 E2.87756
G1 X23.604 Y109.032 E2.90544
G1 X23.859 Y108.554 E2.93697
G1 X24.165 Y108.182 E2.965
G1 X24.529 Y107.876 E2.99267
G1 X25.01 Y107.613 E3.02457
G1 X25.471 Y107.471 E3.05264
G1 X26.009 Y107.416 E3.08411
G1 X26.489 Y107.463 E3.11218
G1 X26.946 Y107.596 E3.13988
G1 X27.432 Y107.849 E3.17177
G1 X27.807 Y108.153 E3.19986
G1 X28.156 Y108.576 E3.23177
G1 X28.38 Y108.995 E3.25942
G1 X28.524 Y109.448 E3.28708
G1 X28.585 Y110 E3.3194
G1 X28.524 Y110.552 E3.35172
G1 X28.378 Y111.011 E3.37975
G1 X28.115 Y111.484 E3.41125
G1 X27.802 Y111.851 E3.43932
G1 X27.432 Y112.151 E3.46704
G1 X26.946 Y112.404 E3.49893
G1 X26.49 Y112.536 E3.52656
G1 X26.017 Y112.584 E3.55423
G1 X25.478 Y112.53 E3.58575
G1 X25.011 Y112.387 E3.61417
G1 X24.529 Y112.124 E3.64612
G1 X24.165 Y111.818 E3.67379
G1 X23.921 Y111.523 E3.69607
G1 E2.29607 F4800
;WIPE_START
G1 F5760
G1 X23.883 Y111.477 E2.24883
G1 X23.862 Y111.451 E2.22237
G1 X23.604 Y110.968 E1.78886
G1 X23.571 Y110.856 E1.69607
;WIPE_END
G92 E0
G1 X196.8 Y108.72 F7200
G1 E2 F4800
G1 F3000
G1 X196.523 Y108.223 E2.03311
G1 X196.152 Y107.789 E2.06634
G1 X195.708 Y107.429 E2.0996
G1 X195.133 Y107.129 E2.13734
G1 X194.584 Y106.97 E2.1706
G1 X194.009 Y106.914 E2.20422
G1 X193.371 Y106.979 E2.24154
G1 X192.815 Y107.151 E2.27541
G1 X192.246 Y107.461 E2.31312
G1 X191.8 Y107.836 E2.34703
G1 X191.396 Y108.343 E2.38476
G1 X191.137 Y108.852 E2.418
G1 X190.974 Y109.394 E2.45094
G1 X190.914 Y110.004 E2.48661
G1 X190.975 Y110.607 E2.52188
G1 X191.137 Y111.148 E2.55474
G1 X191.396 Y111.657 E2.58798
G1 X191.8 Y112.164 E2.62571
G1 X192.246 Y112.539 E2.65962
G1 X192.825 Y112.855 E2.69801
G1 X193.459 Y113.038 E2.73641
G1 X194.028 Y113.085 E2.76964
G1 X194.586 Y113.029 E2.80228
G1 X195.141 Y112.868 E2.83591
G1 X195.708 Y112.57 E2.87319
G1 X196.152 Y112.211 E2.90642
G1 X196.523 Y111.777 E2.93965
G1 X196.839 Y111.211 E2.97737
G1 X197.042 Y110.572 E3.01639
G1 X197.296 Y110.612 E3.03135
G1 X197.296 Y141.22 E4.81258
G1 X22.704 Y141.22 E14.97295
G1 X22.704 Y110.597 E16.75505
G1 X22.96 Y110.559 E16.77011
G1 X23.14 Y111.159 E16.80656
G1 X23.445 Y111.731 E16.84428
G1 X23.809 Y112.172 E16.87756
G1 X24.246 Y112.539 E16.91077
G1 X24.816 Y112.85 E16.94856
G1 X25.379 Y113.023 E16.98284
G1 X26.017 Y113.086 E17.02015
G1 X26.585 Y113.029 E17.05337
G1 X27.133 Y112.871 E17.08656
G1 X27.708 Y112.571 E17.1243
G1 X28.153 Y112.21 E17.15765
G1 X28.528 Y111.771 E17.19125
G1 X28.839 Y111.21 E17.22858
G1 X29.016 Y110.656 E17.26243
G1 X29.087 Y110 E17.30083
G1 X29.016 Y109.344 E17.33923
G1 X28.842 Y108.8 E17.37247
G1 X28.573 Y108.296 E17.40572
G1 X28.161 Y107.796 E17.44342
G1 X27.708 Y107.429 E17.47735
G1 X27.133 Y107.129 E17.51509
G1 X26.584 Y106.97 E17.54835
G1 X26.009 Y106.914 E17.58197
G1 X25.371 Y106.979 E17.61929
G1 X24.815 Y107.151 E17.65316
G1 X24.246 Y107.461 E17.69087
G1 X23.808 Y107.829 E17.72416
G1 X23.441 Y108.275 E17.75777
G1 X23.14 Y108.841 E17.79508
G1 X22.96 Y109.441 E17.83153
G1 X22.704 Y109.403 E17.84659
G1 X22.704 Y78.78 E19.62869
G1 X197.296 Y78.78 E29.78906
G1 X197.296 Y109.388 E31.57029
G1 X197.042 Y109.428 E31.58525
G1 X196.839 Y108.789 E31.62427
G1 X196.829 Y108.772 E31.62542
G1 X196.829 Y108.772 F7200
G1 X195.889 Y109.139
;TYPE:External perimeter
G1 F3000
G1 X195.916 Y109.188 E31.62868
G1 X196.033 Y109.553 E31.65099
G1 X196.082 Y110 E31.67716
G1 X196.033 Y110.447 E31.70333
G1 X195.916 Y110.812 E31.72564
G1 X195.699 Y111.203 E31.75166
G1 X195.451 Y111.492 E31.77382
G1 X195.156 Y111.731 E31.79591
G1 X194.765 Y111.936 E31.8216
G1 X194.395 Y112.043 E31.84401
G1 X194.019 Y112.081 E31.866
G1 X193.64 Y112.05 E31.88813
G1 X193.208 Y111.925 E31.9143
G1 X192.813 Y111.709 E31.9405
G1 X192.52 Y111.463 E31.96276
G1 X192.241 Y111.113 E31.98881
G1 X192.068 Y110.775 E32.01091
G1 X191.96 Y110.412 E32.03295
G1 X191.919 Y110.003 E32.05687
G1 X191.96 Y109.588 E32.08114
G1 X192.068 Y109.225 E32.10318
G1 X192.241 Y108.887 E32.12528
G1 X192.52 Y108.537 E32.15133
G1 X192.813 Y108.291 E32.17359
G1 X193.206 Y108.076 E32.19966
G1 X193.571 Y107.963 E32.2219
G1 X194.01 Y107.919 E32.24758
G1 X194.394 Y107.956 E32.27003
G1 X194.759 Y108.062 E32.29215
G1 X195.156 Y108.269 E32.31821
G1 X195.451 Y108.509 E32.34034
G1 X195.699 Y108.797 E32.36246
G1 X195.86 Y109.086 E32.38171
G1 X195.86 Y109.086 F7200
G1 X196.388 Y109.023
;TYPE:Perimeter
G1 F3000
G1 X196.524 Y109.448 E32.40768
G1 X196.585 Y110 E32.44
G1 X196.524 Y110.552 E32.47232
G1 X196.378 Y111.012 E32.50041
G1 X196.111 Y111.49 E32.53227
G1 X195.802 Y111.851 E32.55992
G1 X195.432 Y112.15 E32.5876
G1 X194.953 Y112.402 E32.6191
G1 X194.49 Y112.536 E32.64715
G1 X194.023 Y112.583 E32.67446
G1 X193.549 Y112.544 E32.70214
G1 X193.016 Y112.39 E32.73443
G1 X192.529 Y112.124 E32.76672
G1 X192.16 Y111.814 E32.79477
G1 X191.819 Y111.385 E32.82666
G1 X191.602 Y110.961 E32.85438
G1 X191.467 Y110.509 E32.88183
G1 X191.416 Y110.003 E32.91143
G1 X191.467 Y109.491 E32.94137
G1 X191.602 Y109.039 E32.96882
G1 X191.819 Y108.615 E32.99654
G1 X192.16 Y108.186 E33.02843
G1 X192.529 Y107.876 E33.05648
G1 X193.01 Y107.613 E33.08838
G1 X193.471 Y107.471 E33.11645
G1 X194.009 Y107.416 E33.14792
G1 X194.489 Y107.463 E33.17599
G1 X194.946 Y107.596 E33.20369
G1 X195.432 Y107.849 E33.23558
G1 X195.802 Y108.149 E33.2633
G1 X196.111 Y108.51 E33.29095
G1 X196.366 Y108.967 E33.32141
G1 X196.366 Y108.967 F7200
G1 X197.021 Y108.551
;TYPE:Gap fill
;WIDTH:0.154251
G1 F3000
G1 X196.999 Y108.467 E33.32236
G1 X196.903 Y108.328 E33.32421
G1 E31.92421 F4800
;WIPE_START
G1 F5760
G1 X196.999 Y108.467 E31.79047
G1 X197.021 Y108.551 E31.72173
;WIPE_END
G1 E31.32421 F4800
G92 E0
G1 X197.021 Y111.449 F7200
G1 E2 F4800
;WIDTH:0.154248
G1 F3000
G1 X196.999 Y111.533 E2.00095
G1 X196.903 Y111.672 E2.0028
G1 E.6028 F4800
;WIPE_START
G1 F5760
G1 X196.999 Y111.533 E.46906
G1 X197.021 Y111.449 E.40032
;WIPE_END
G1 E.0028 F4800
G92 E0
G1 X196.085 Y78.98 F7200
G1 E2 F4800
;TYPE:Solid infill
;WIDTH:0.560426
G1 F3000
G1 X196.871 Y79.766 E2.06474
G1 X196.871 Y80.474 E2.10598
G1 X195.602 Y79.205 E2.21051
G1 X194.895 Y79.205 E2.25169
G1 X196.871 Y81.181 E2.41445
G1 X196.871 Y81.889 E2.45569
G1 X194.187 Y79.205 E2.67677
G1 X193.479 Y79.205 E2.71801
G1 X196.871 Y82.597 E2.99741
G1 X196.871 Y83.304 E3.03859
G1 X192.772 Y79.205 E3.37623
G1 X192.064 Y79.205 E3.41747
G1 X196.871 Y84.012 E3.81342
G1 X196.871 Y84.719 E3.8546
G1 X191.357 Y79.205 E4.30879
G1 X190.649 Y79.205 E4.35003
G1 X196.871 Y85.427 E4.86254
G1 X196.871 Y86.135 E4.90378
G1 X189.941 Y79.205 E5.4746
G1 X189.234 Y79.205 E5.51578
G1 X196.871 Y86.842 E6.14484
G1 X196.871 Y87.55 E6.18608
G1 X188.526 Y79.205 E6.87346
G1 X187.819 Y79.205 E6.91464
G1 X196.871 Y88.257 E7.66025
G1 X196.871 Y88.965 E7.70149
G1 X187.111 Y79.205 E8.50542
G1 X186.404 Y79.205 E8.5466
G1 X196.871 Y89.672 E9.40877
G1 X196.871 Y90.38 E9.45001
G1 X185.696 Y79.205 E10.3705
G1 X184.988 Y79.205 E10.41174
G1 X196.871 Y91.088 E11.39054
G1 X196.871 Y91.795 E11.43172
G1 X184.281 Y79.205 E12.46876
G1 X183.573 Y79.205 E12.51
G1 X196.871 Y92.503 E13.60536
G1 X196.871 Y93.21 E13.64654
G1 X182.866 Y79.205 E14.80013
G1 X182.158 Y79.205 E14.84137
G1 X196.871 Y93.918 E16.05328
G1 X196.871 Y94.626 E16.09452
G1 X181.45 Y79.205 E17.36475
G1 X180.743 Y79.205 E17.40593
G1 X196.871 Y95.333 E18.7344
G1 X196.871 Y96.041 E18.77564
G1 X180.035 Y79.205 E20.16242
G1 X179.328 Y79.205 E20.2036
G1 X196.871 Y96.748 E21.64862
G1 X196.871 Y97.456 E21.68986
G1 X178.62 Y79.205 E23.1932
G1 X177.913 Y79.205 E23.23438
G1 X196.871 Y98.163 E24.79595
G1 X196.871 Y98.871 E24.83719
G1 X177.205 Y79.205 E26.45708
G1 X176.497 Y79.205 E26.49832
G1 X196.871 Y99.579 E28.17653
G1 X196.871 Y100.286 E28.21771
G1 X175.79 Y79.205 E29.95415
G1 X175.082 Y79.205 E29.99539
G1 X196.871 Y100.994 E31.79015
G1 X196.871 Y101.701 E31.83133
G1 X174.375 Y79.205 E33.68433
G1 X173.667 Y79.205 E33.72557
G1 X196.871 Y102.409 E35.63689
G1 X196.871 Y103.117 E35.67813
G1 X172.959 Y79.205 E37.64776
G1 X172.252 Y79.205 E37.68894
G1 X196.871 Y103.824 E39.71681
G1 X196.871 Y104.532 E39.75805
G1 X171.544 Y79.205 E41.84424
G1 X170.837 Y79.205 E41.88542
G1 X196.871 Y105.239 E44.02984
G1 X196.871 Y105.947 E44.07108
G1 X170.129 Y79.205 E46.27382
G1 X169.422 Y79.205 E46.315
G1 X196.871 Y106.654 E48.57598
G1 X196.871 Y107.362 E48.61722
G1 X168.714 Y79.205 E50.93652
G1 X168.006 Y79.205 E50.97776
G1 X195.8 Y106.998 E53.26711
G1 X195.292 Y106.733 E53.30048
G1 X194.643 Y106.549 E53.33977
G1 X167.299 Y79.205 E55.5921
G1 X166.591 Y79.205 E55.63334
G1 X193.886 Y106.499 E57.88159
G1 X193.25 Y106.571 E57.91887
G1 X165.884 Y79.205 E60.17301
G1 X165.176 Y79.205 E60.21425
G1 X192.71 Y106.738 E62.48219
G1 X192.242 Y106.979 E62.51285
G1 X164.468 Y79.205 E64.8006
G1 X163.761 Y79.205 E64.84178
G1 X191.82 Y107.264 E67.153
G1 X191.494 Y107.538 E67.1778
G1 X191.446 Y107.598 E67.18228
G1 X163.053 Y79.205 E69.52101
G1 X162.346 Y79.205 E69.56219
G1 X191.133 Y107.992 E71.93338
G1 X191.037 Y108.112 E71.94233
G1 X190.871 Y108.438 E71.96364
G1 X161.638 Y79.205 E74.37157
G1 X160.931 Y79.205 E74.41275
G1 X190.666 Y108.941 E76.86207
G1 X190.556 Y109.311 E76.88455
G1 X190.535 Y109.517 E76.89661
G1 X160.223 Y79.205 E79.39341
G1 X159.515 Y79.205 E79.43465
G1 X190.758 Y110.447 E82.0081
G1 E80.6081 F4800
;WIPE_START
G1 F5760
G1 X190.222 Y109.911 E80.0081
;WIPE_END
G92 E0
G1 X196.577 Y112.021 F7200
G1 E2 F4800
G1 F3000
G1 X196.871 Y112.315 E2.02422
G1 X196.871 Y113.023 E2.06546
G1 X196.403 Y112.554 E2.10405
G1 X196.012 Y112.871 E2.13337
G1 X196.871 Y113.73 E2.20413
G1 X196.871 Y114.438 E2.24537
G1 X195.561 Y113.127 E2.35332
G1 X195.3 Y113.264 E2.37049
G1 X195.06 Y113.334 E2.38505
G1 X196.871 Y115.145 E2.53422
G1 X196.871 Y115.853 E2.57546
G1 X194.485 Y113.466 E2.77204
G1 X194.032 Y113.512 E2.79856
G1 X193.804 Y113.493 E2.81189
G1 X196.871 Y116.561 E3.06456
G1 X196.871 Y117.268 E3.10574
G1 X192.931 Y113.328 E3.43028
G1 X192.662 Y113.25 E3.44659
G1 X192.005 Y112.892 E3.49017
G1 X191.494 Y112.462 E3.52907
G1 X191.037 Y111.888 E3.5718
G1 X190.74 Y111.307 E3.60981
G1 X190.668 Y111.065 E3.62452
G1 X158.808 Y79.205 E6.24883
G1 X158.1 Y79.205 E6.29007
G1 X196.871 Y117.976 E9.48364
G1 X196.871 Y118.683 E9.52482
G1 X157.393 Y79.205 E12.77663
G1 X156.685 Y79.205 E12.81787
G1 X196.871 Y119.391 E16.128
G1 X196.871 Y120.099 E16.16924
G1 X155.977 Y79.205 E19.53768
G1 X155.27 Y79.205 E19.57886
G1 X196.871 Y120.806 E23.00554
G1 X196.871 Y121.514 E23.04678
G1 X154.562 Y79.205 E26.53178
G1 X153.855 Y79.205 E26.57296
G1 X196.871 Y122.221 E30.11619
G1 X196.871 Y122.929 E30.15743
G1 X153.147 Y79.205 E33.75898
G1 X152.44 Y79.205 E33.80016
G1 X196.871 Y123.636 E37.45995
G1 X196.871 Y124.344 E37.50119
G1 X151.732 Y79.205 E41.21929
G1 X151.024 Y79.205 E41.26053
G1 X196.871 Y125.052 E45.03695
G1 X196.871 Y125.759 E45.07813
G1 X150.317 Y79.205 E48.91279
G1 X149.609 Y79.205 E48.95403
G1 X196.871 Y126.467 E52.84701
G1 X196.871 Y127.174 E52.88819
G1 X148.902 Y79.205 E56.8394
G1 X148.194 Y79.205 E56.88064
G1 X196.871 Y127.882 E60.89017
G1 X196.871 Y128.59 E60.93141
G1 X147.486 Y79.205 E64.99926
G1 X146.779 Y79.205 E65.04044
G1 X196.871 Y129.297 E69.16652
G1 X196.871 Y130.005 E69.20776
G1 X146.071 Y79.205 E73.39216
G1 X145.364 Y79.205 E73.43334
G1 X196.871 Y130.712 E77.67598
G1 X196.871 Y131.42 E77.71722
G1 X144.656 Y79.205 E82.01818
G1 X143.949 Y79.205 E82.05936
G1 X196.871 Y132.127 E86.41855
G1 X196.871 Y132.835 E86.45979
G1 X143.241 Y79.205 E90.8773
G1 X142.533 Y79.205 E90.91854
G1 X196.871 Y133.543 E95.39437
G1 X196.871 Y134.25 E95.43555
G1 X141.826 Y79.205 E99.96961
G1 X141.118 Y79.205 E100.01085
G1 X196.871 Y134.958 E104.60323
G1 X196.871 Y135.665 E104.64441
G1 X140.411 Y79.205 E109.29503
G1 X139.703 Y79.205 E109.33627
G1 X196.871 Y136.373 E114.0452
G1 X196.871 Y137.081 E114.08644
G1 X138.995 Y79.205 E118.85369
G1 X138.288 Y79.205 E118.89487
G1 X196.871 Y137.788 E123.72036
G1 X196.871 Y138.496 E123.7616
G1 X137.58 Y79.205 E128.64541
G1 X136.873 Y79.205 E128.68659
G1 X196.871 Y139.203 E133.62863
G1 X196.871 Y139.911 E133.66987
G1 X136.165 Y79.205 E138.67023
G1 X135.458 Y79.205 E138.71141
G1 X196.871 Y140.618 E143.77001
G1 X196.871 Y140.795 E143.78032
G1 X196.34 Y140.795 E143.81125
G1 X134.75 Y79.205 E148.88443
G1 X134.042 Y79.205 E148.92567
G1 X195.633 Y140.795 E153.99889
G1 X194.925 Y140.795 E154.04013
G1 X133.335 Y79.205 E159.11331
G1 X132.627 Y79.205 E159.15455
G1 X194.218 Y140.795 E164.22777
G1 X193.51 Y140.795 E164.26901
G1 X131.92 Y79.205 E169.34219
G1 X131.212 Y79.205 E169.38343
G1 X192.803 Y140.795 E174.45665
G1 X192.095 Y140.795 E174.49789
G1 X130.504 Y79.205 E179.57111
G1 X129.797 Y79.205 E179.61229
G1 X191.387 Y140.795 E184.68547
G1 X190.68 Y140.795 E184.72665
G1 X129.089 Y79.205 E189.79987
G1 X128.382 Y79.205 E189.84105
G1 X189.972 Y140.795 E194.91423
G1 X189.265 Y140.795 E194.95541
