; generated by PrusaSlicer 2.7.4+win64 on 2024-06-11 at 18:01:40 UTC

; 

; external perimeters extrusion width = 0.42mm
; perimeters extrusion width = 0.45mm
; infill extrusion width = 0.45mm
; solid infill extrusion width = 0.50mm
; top infill extrusion width = 0.42mm
; support material extrusion width = 0.42mm
; first layer extrusion width = 0.56mm

; external perimeters extrusion width = 0.42mm
; perimeters extrusion width = 0.45mm
; infill extrusion width = 0.45mm
; solid infill extrusion width = 0.50mm
; top infill extrusion width = 0.42mm
; support material extrusion width = 0.42mm
; first layer extrusion width = 0.56mm

M201 X2500 Y2500 Z800 E2500 ; sets maximum accelerations, mm/sec^2
M203 X250 Y250 Z8 E80 ; sets maximum feedrates, mm / sec
M204 S2500 T2500 ; sets acceleration (S) and retract acceleration (R), mm/sec^2
M205 X10.00 Y10.00 Z2.00 E10.00 ; sets the jerk limits, mm/sec
M205 S0 T0 ; sets the minimum extruding and travel feed rate, mm/sec
;TYPE:Custom
G90 ; use absolute coordinates
M83 ; extruder relative mode
M104 S215 ; set extruder temp
M140 S60 ; set bed temp
M190 S60 ; wait for bed temp
M109 S215 ; wait for extruder temp
G28                                        ; move X/Y/Z to min endstops
G1 Z0.28                                   ; lift nozzle a bit 
G92 E0 
G1 Y3 F1800                                    ; zero the extruded length 
G1 X60  E25 F500                       ; Extrude 25mm of filament in a 5cm line. 
G92 E0                                     ; zero the extruded length again 
G1 E-2 F500                                ; Retract a little 
G1 X70 F4000                              ; Quickly wipe away from the filament line
M117
G21 ; set units to millimeters
G90 ; use absolute coordinates
M82 ; use absolute distances for extrusion
G92 E0
M107
;LAYER_CHANGE
;Z:0.28
;HEIGHT:0.28
G1 E-2 F4800
G92 E0
G1 Z.28 F7200
G92 E0
G1 X110.785 Y102.253
G1 E2 F4800
G92 E0
;TYPE:External perimeter
;WIDTH:0.56
G1 F2979
G1 X111.491 Y102.428 E.04233
G1 X112.175 Y102.674 E.08463
G1 X112.832 Y102.987 E.12698
G1 X113.454 Y103.365 E.16934
G1 X114.034 Y103.803 E.21164
G1 X114.568 Y104.298 E.25401
G1 X115.05 Y104.845 E.29644
G1 X115.336 Y105.231 E.3244
G1 X115.721 Y105.851 E.36687
G1 X116.039 Y106.505 E.40919
G1 X116.291 Y107.188 E.45156
G1 X116.472 Y107.892 E.49386
G1 X116.582 Y108.612 E.53625
G1 X116.618 Y109.338 E.57855
G1 X116.582 Y110.065 E.62091
G1 X116.472 Y110.784 E.66324
G1 X116.291 Y111.488 E.70554
G1 X116.039 Y112.171 E.74791
G1 X115.721 Y112.825 E.79023
G1 X115.338 Y113.443 E.83254
G1 X114.893 Y114.021 E.87499
G1 X114.517 Y114.429 E.90728
G1 X114.035 Y114.873 E.94542
G1 X113.454 Y115.311 E.98776
G1 X112.832 Y115.689 E1.03012
G1 X112.175 Y116.002 E1.07247
G1 X111.491 Y116.248 E1.11477
G1 X110.785 Y116.423 E1.1571
G1 X110.065 Y116.527 E1.19944
G1 X109.338 Y116.557 E1.24178
G1 X108.612 Y116.515 E1.2841
G1 X107.894 Y116.399 E1.32643
G1 X107.191 Y116.212 E1.36876
G1 X106.51 Y115.955 E1.41112
G1 X105.857 Y115.629 E1.45359
G1 X105.446 Y115.38 E1.48156
G1 X104.857 Y114.95 E1.524
G1 X104.315 Y114.464 E1.56636
G1 X103.825 Y113.927 E1.60867
G1 X103.391 Y113.343 E1.65101
G1 X103.019 Y112.718 E1.69334
G1 X102.711 Y112.059 E1.73567
G1 X102.471 Y111.372 E1.77802
G1 X102.302 Y110.665 E1.82032
G1 X102.204 Y109.944 E1.86266
G1 X102.18 Y109.217 E1.90499
G1 X102.229 Y108.491 E1.94734
G1 X102.35 Y107.774 E1.98966
G1 X102.544 Y107.072 E2.03204
G1 X102.806 Y106.394 E2.07434
G1 X103.137 Y105.744 E2.11679
G1 X103.39 Y105.335 E2.14478
G1 X103.825 Y104.749 E2.18725
G1 X104.315 Y104.212 E2.22956
G1 X104.857 Y103.726 E2.27192
G1 X105.444 Y103.297 E2.31423
G1 X106.072 Y102.93 E2.35656
G1 X106.734 Y102.628 E2.3989
G1 X107.423 Y102.394 E2.44125
G1 X108.132 Y102.23 E2.4836
G1 X108.855 Y102.139 E2.52601
G1 X109.41 Y102.119 E2.55833
G1 X110.064 Y102.149 E2.59643
G1 X110.725 Y102.244 E2.63529
G1 X110.725 Y102.244 F7200
G1 X110.689 Y102.744
;TYPE:Perimeter
G1 F2979
G1 X111.346 Y102.907 E2.67468
G1 X111.983 Y103.136 E2.71407
G1 X112.594 Y103.427 E2.75345
G1 X113.172 Y103.779 E2.79283
G1 X113.713 Y104.187 E2.83226
G1 X114.209 Y104.647 E2.87163
G1 X114.661 Y105.16 E2.91142
G1 X114.922 Y105.512 E2.93692
G1 X115.282 Y106.093 E2.9767
G1 X115.579 Y106.702 E3.01613
G1 X115.813 Y107.337 E3.05551
G1 X115.982 Y107.993 E3.09493
G1 X116.084 Y108.662 E3.13431
G1 X116.118 Y109.338 E3.1737
G1 X116.084 Y110.014 E3.21309
G1 X115.982 Y110.683 E3.25247
G1 X115.813 Y111.339 E3.29189
G1 X115.579 Y111.974 E3.33127
G1 X115.282 Y112.583 E3.3707
G1 X114.926 Y113.158 E3.41006
G1 X114.511 Y113.698 E3.44969
G1 X114.163 Y114.075 E3.47955
G1 X113.714 Y114.488 E3.51505
G1 X113.172 Y114.897 E3.55456
G1 X112.594 Y115.249 E3.59394
G1 X111.983 Y115.54 E3.63332
G1 X111.346 Y115.769 E3.67271
G1 X110.689 Y115.932 E3.7121
G1 X110.019 Y116.028 E3.75149
G1 X109.342 Y116.057 E3.79092
G1 X108.666 Y116.017 E3.83033
G1 X107.998 Y115.91 E3.8697
G1 X107.344 Y115.735 E3.9091
G1 X106.71 Y115.496 E3.94853
G1 X106.099 Y115.191 E3.98827
G1 X105.724 Y114.964 E4.01378
G1 X105.172 Y114.561 E4.05355
G1 X104.667 Y114.109 E4.09299
G1 X104.211 Y113.609 E4.13237
G1 X103.808 Y113.065 E4.17177
G1 X103.461 Y112.484 E4.21115
G1 X103.175 Y111.87 E4.25057
G1 X102.952 Y111.231 E4.28996
G1 X102.794 Y110.573 E4.32934
G1 X102.703 Y109.902 E4.36875
G1 X102.68 Y109.225 E4.40817
G1 X102.726 Y108.55 E4.44754
G1 X102.839 Y107.882 E4.48697
G1 X103.019 Y107.23 E4.52633
G1 X103.263 Y106.598 E4.56576
G1 X103.573 Y105.989 E4.60553
G1 X103.804 Y105.616 E4.63106
G1 X104.211 Y105.067 E4.67083
G1 X104.667 Y104.567 E4.71021
G1 X105.172 Y104.115 E4.74965
G1 X105.719 Y103.716 E4.78905
G1 X106.303 Y103.374 E4.82843
G1 X106.919 Y103.093 E4.86783
G1 X107.56 Y102.875 E4.90723
G1 X108.219 Y102.723 E4.94659
G1 X108.895 Y102.638 E4.98624
G1 X109.407 Y102.619 E5.01606
G1 X110.017 Y102.647 E5.0516
G1 X110.629 Y102.735 E5.08758
G1 X110.629 Y102.735 F7200
G1 X110.593 Y103.235
G1 F2979
G1 X111.201 Y103.386 E5.12404
G1 X111.79 Y103.598 E5.16047
G1 X112.356 Y103.868 E5.19696
G1 X112.891 Y104.193 E5.23339
G1 X113.391 Y104.571 E5.26987
G1 X113.851 Y104.997 E5.30636
G1 X114.272 Y105.475 E5.34343
G1 X114.508 Y105.793 E5.36648
G1 X114.844 Y106.335 E5.40359
G1 X115.118 Y106.898 E5.44003
G1 X115.335 Y107.486 E5.4765
G1 X115.491 Y108.093 E5.51297
G1 X115.586 Y108.712 E5.54941
G1 X115.617 Y109.338 E5.58588
G1 X115.586 Y109.964 E5.62235
G1 X115.491 Y110.583 E5.65879
G1 X115.335 Y111.19 E5.69526
G1 X115.118 Y111.778 E5.73173
G1 X114.844 Y112.341 E5.76817
G1 X114.514 Y112.874 E5.80465
G1 X114.128 Y113.376 E5.8415
G1 X113.81 Y113.721 E5.86881
G1 X113.393 Y114.104 E5.90176
G1 X112.891 Y114.483 E5.93836
G1 X112.356 Y114.808 E5.97479
G1 X111.79 Y115.078 E6.01128
G1 X111.201 Y115.29 E6.04771
G1 X110.593 Y115.441 E6.08417
G1 X109.972 Y115.53 E6.12068
G1 X109.346 Y115.556 E6.15714
G1 X108.721 Y115.52 E6.19357
G1 X108.102 Y115.42 E6.23006
G1 X107.497 Y115.259 E6.26649
G1 X106.911 Y115.037 E6.30296
G1 X106.34 Y114.753 E6.34007
G1 X106.001 Y114.547 E6.36315
G1 X105.486 Y114.172 E6.40022
G1 X105.02 Y113.754 E6.43665
G1 X104.598 Y113.291 E6.47311
G1 X104.224 Y112.787 E6.50963
G1 X103.904 Y112.249 E6.54606
G1 X103.639 Y111.682 E6.58248
G1 X103.432 Y111.09 E6.61898
G1 X103.286 Y110.481 E6.65542
G1 X103.202 Y109.86 E6.69189
G1 X103.181 Y109.234 E6.72834
G1 X103.223 Y108.608 E6.76485
G1 X103.328 Y107.991 E6.80127
G1 X103.494 Y107.387 E6.83772
G1 X103.721 Y106.802 E6.87424
G1 X104.009 Y106.234 E6.9113
G1 X104.218 Y105.897 E6.93438
G1 X104.598 Y105.385 E6.97149
G1 X105.02 Y104.922 E7.00795
G1 X105.486 Y104.504 E7.04438
G1 X105.993 Y104.135 E7.08087
G1 X106.534 Y103.819 E7.11733
G1 X107.104 Y103.558 E7.15381
G1 X107.697 Y103.357 E7.19025
G1 X108.307 Y103.216 E7.22668
G1 X108.935 Y103.136 E7.26352
G1 X109.405 Y103.12 E7.29089
G1 X109.97 Y103.146 E7.3238
G1 X110.533 Y103.227 E7.3569
G1 X110.533 Y103.227 F7200
G1 X110.496 Y103.726
G1 F2979
G1 X111.056 Y103.865 E7.39048
G1 X111.598 Y104.06 E7.424
G1 X112.118 Y104.308 E7.45753
G1 X112.61 Y104.607 E7.49103
G1 X113.07 Y104.954 E7.52456
G1 X113.492 Y105.346 E7.55808
G1 X113.883 Y105.79 E7.59251
G1 X114.094 Y106.074 E7.6131
G1 X114.406 Y106.577 E7.64755
G1 X114.658 Y107.094 E7.68102
G1 X114.857 Y107.635 E7.71457
G1 X115.001 Y108.193 E7.74811
G1 X115.088 Y108.763 E7.78167
G1 X115.117 Y109.338 E7.81517
G1 X115.088 Y109.913 E7.84867
G1 X115.001 Y110.483 E7.88223
G1 X114.857 Y111.041 E7.91577
G1 X114.658 Y111.582 E7.94932
G1 X114.406 Y112.099 E7.98279
G1 X114.102 Y112.589 E8.01635
G1 X113.746 Y113.053 E8.05038
G1 X113.456 Y113.367 E8.07525
G1 X113.073 Y113.72 E8.10556
G1 X112.61 Y114.069 E8.1393
G1 X112.118 Y114.368 E8.1728
G1 X111.598 Y114.616 E8.20633
G1 X111.056 Y114.811 E8.23985
G1 X110.496 Y114.95 E8.27343
G1 X109.926 Y115.032 E8.30694
G1 X109.351 Y115.056 E8.34043
G1 X108.775 Y115.022 E8.37401
G1 X108.207 Y114.93 E8.4075
G1 X107.65 Y114.782 E8.44104
G1 X107.111 Y114.578 E8.47458
G1 X106.582 Y114.315 E8.50896
G1 X106.279 Y114.131 E8.52959
G1 X105.801 Y113.783 E8.564
G1 X105.372 Y113.398 E8.59755
G1 X104.984 Y112.972 E8.63108
G1 X104.641 Y112.51 E8.66457
G1 X104.346 Y112.015 E8.6981
G1 X104.102 Y111.493 E8.73163
G1 X103.912 Y110.949 E8.76516
G1 X103.778 Y110.389 E8.79867
G1 X103.701 Y109.818 E8.8322
G1 X103.681 Y109.242 E8.86574
G1 X103.72 Y108.667 E8.89928
G1 X103.816 Y108.099 E8.9328
G1 X103.969 Y107.544 E8.9663
G1 X104.178 Y107.006 E8.99989
G1 X104.445 Y106.48 E9.03422
G1 X104.632 Y106.178 E9.05489
G1 X104.984 Y105.704 E9.08925
G1 X105.372 Y105.278 E9.12278
G1 X105.801 Y104.893 E9.15633
G1 X106.267 Y104.554 E9.18987
G1 X106.764 Y104.263 E9.22339
G1 X107.288 Y104.024 E9.25691
G1 X107.834 Y103.838 E9.29048
G1 X108.395 Y103.709 E9.32398
G1 X108.976 Y103.635 E9.35806
G1 X109.402 Y103.62 E9.38287
G1 X109.923 Y103.644 E9.41322
G1 X110.437 Y103.718 E9.44344
G1 X110.437 Y103.718 F7200
G1 X110.4 Y104.218
G1 F2979
G1 X110.911 Y104.344 E9.47407
G1 X111.405 Y104.522 E9.50463
G1 X111.88 Y104.748 E9.53524
G1 X112.329 Y105.021 E9.56582
G1 X112.749 Y105.338 E9.59644
G1 X113.134 Y105.695 E9.627
G1 X113.494 Y106.104 E9.65871
G1 X113.68 Y106.355 E9.67689
G1 X113.967 Y106.818 E9.70859
G1 X114.198 Y107.291 E9.73922
G1 X114.283 Y107.522 E9.75354
G1 X114.039 Y107.64 E9.76931
G1 X113.821 Y107.288 E9.7934
G1 X113.301 Y106.669 E9.84045
G1 X112.677 Y106.155 E9.8875
G1 X112.205 Y105.869 E9.91962
G1 X111.705 Y105.636 E9.95172
G1 X110.93 Y105.404 E9.9988
G1 X110.127 Y105.316 E10.04581
G1 X109.575 Y105.336 E10.07795
G1 X109.03 Y105.416 E10.11001
G1 X108.255 Y105.648 E10.15709
G1 X107.534 Y106.016 E10.2042
G1 X107.085 Y106.335 E10.23625
G1 X106.704 Y106.674 E10.26593
G1 X106.362 Y107.052 E10.2956
G1 X106.038 Y107.499 E10.32773
G1 X105.664 Y108.215 E10.37474
G1 X105.425 Y108.989 E10.42188
G1 X105.34 Y109.533 E10.45392
G1 X105.317 Y110.043 E10.48363
G1 X105.35 Y110.551 E10.51326
G1 X105.444 Y111.095 E10.54539
G1 X105.684 Y111.823 E10.59
G1 X105.93 Y112.317 E10.62212
G1 X106.229 Y112.781 E10.65424
G1 X106.733 Y113.359 E10.69887
G1 X107.233 Y113.787 E10.73717
G1 X107.087 Y114.008 E10.75258
G1 X106.823 Y113.877 E10.76973
G1 X106.557 Y113.715 E10.78785
G1 X106.116 Y113.394 E10.81959
G1 X105.725 Y113.043 E10.85017
G1 X105.371 Y112.654 E10.88078
G1 X105.057 Y112.232 E10.91139
G1 X104.788 Y111.781 E10.94195
G1 X104.566 Y111.304 E10.97257
G1 X104.392 Y110.808 E11.00316
G1 X104.27 Y110.297 E11.03373
G1 X104.2 Y109.776 E11.06432
G1 X104.182 Y109.25 E11.09495
G1 X104.217 Y108.726 E11.12551
G1 X104.305 Y108.208 E11.15609
G1 X104.445 Y107.701 E11.1867
G1 X104.635 Y107.211 E11.21728
G1 X104.882 Y106.725 E11.24901
G1 X105.046 Y106.459 E11.2672
G1 X105.371 Y106.022 E11.29889
G1 X105.725 Y105.633 E11.3295
G1 X106.116 Y105.282 E11.36008
G1 X106.541 Y104.973 E11.39066
G1 X106.995 Y104.707 E11.42128
G1 X107.473 Y104.489 E11.45185
G1 X107.971 Y104.32 E11.48245
G1 X108.483 Y104.202 E11.51303
G1 X109.016 Y104.134 E11.5443
G1 X109.399 Y104.12 E11.5666
G1 X109.876 Y104.142 E11.59439
G1 X110.341 Y104.209 E11.62173
G1 E10.22173 F4800
;WIPE_START
G1 F5760
G1 X110.4 Y104.218 E10.17448
G1 X110.911 Y104.344 E9.75782
G1 X111.073 Y104.402 E9.62173
;WIPE_END
G92 E0
G1 X105.04 Y108.543 F7200
G1 E2 F4800
G1 F2979
G1 X104.766 Y108.478 E2.01639
G1 X104.794 Y108.316 E2.02596
G1 X104.92 Y107.858 E2.0536
G1 X105.092 Y107.415 E2.08126
G1 X105.318 Y106.97 E2.11031
G1 X105.46 Y106.74 E2.12604
G1 X105.757 Y106.34 E2.15503
G1 X106.077 Y105.989 E2.18267
G1 X106.431 Y105.671 E2.21036
G1 X106.815 Y105.391 E2.23802
G1 X107.225 Y105.152 E2.26564
G1 X107.658 Y104.954 E2.29335
G1 X108.108 Y104.801 E2.32101
G1 X108.571 Y104.694 E2.34866
G1 X108.86 Y104.658 E2.36561
G1 X108.917 Y104.928 E2.38167
G1 X108.068 Y105.182 E2.43324
G1 X107.274 Y105.587 E2.48511
G1 X106.773 Y105.943 E2.52088
G1 X106.351 Y106.318 E2.55373
G1 X105.973 Y106.737 E2.58657
G1 X105.612 Y107.235 E2.62236
G1 X105.2 Y108.024 E2.67416
G1 X105.057 Y108.485 E2.70225
G1 E1.30225 F4800
;WIPE_START
G1 F5760
G1 X105.04 Y108.543 E1.2544
G1 X104.766 Y108.478 E1.03146
G1 X104.794 Y108.316 E.90131
G1 X104.861 Y108.073 E.70225
;WIPE_END
G92 E0
G1 X111.535 Y112.193 F7200
G1 E2 F4800
;TYPE:External perimeter
G1 F2979
G1 X111.468 Y112.243 E2.00487
G1 X111.043 Y112.47 E2.03291
G1 X110.585 Y112.616 E2.06088
G1 X110.291 Y112.665 E2.07823
G1 X109.995 Y112.681 E2.09548
G1 X109.516 Y112.637 E2.12347
G1 X109.048 Y112.506 E2.15175
G1 X108.615 Y112.295 E2.17978
G1 X108.37 Y112.128 E2.19703
G1 X108.144 Y111.935 E2.21433
G1 X107.831 Y111.576 E2.24205
G1 X107.671 Y111.326 E2.25932
G1 X107.538 Y111.06 E2.27663
G1 X107.389 Y110.608 E2.30433
G1 X107.338 Y110.316 E2.32158
G1 X107.32 Y110.024 E2.33861
G1 X107.333 Y109.733 E2.35556
G1 X107.379 Y109.44 E2.37282
G1 X107.521 Y108.98 E2.40084
G1 X107.743 Y108.553 E2.42885
G1 X107.917 Y108.313 E2.4461
G1 X108.113 Y108.096 E2.46312
G1 X108.332 Y107.902 E2.48015
G1 X108.573 Y107.73 E2.49738
G1 X109.002 Y107.511 E2.52541
G1 X109.463 Y107.374 E2.5534
G1 X109.757 Y107.331 E2.57069
G1 X110.054 Y107.32 E2.58799
G1 X110.532 Y107.372 E2.61597
G1 X110.993 Y107.51 E2.64397
G1 X111.262 Y107.635 E2.66123
G1 X111.516 Y107.789 E2.67852
G1 X111.887 Y108.096 E2.70654
G1 X112.197 Y108.464 E2.73454
G1 X112.353 Y108.716 E2.75179
G1 X112.481 Y108.984 E2.76907
G1 X112.621 Y109.439 E2.79677
G1 X112.667 Y109.733 E2.81409
G1 X112.681 Y110.029 E2.83133
G1 X112.633 Y110.508 E2.85934
G1 X112.499 Y110.97 E2.88733
G1 X112.376 Y111.241 E2.90465
G1 X112.224 Y111.496 E2.92193
G1 X111.925 Y111.866 E2.94961
G1 X111.706 Y112.067 E2.96691
G1 X111.584 Y112.158 E2.97577
G1 X111.584 Y112.158 F7200
G1 X112.006 Y112.467
;TYPE:Perimeter
G1 F2979
G1 X111.735 Y112.667 E2.99537
G1 X111.238 Y112.932 E3.02815
G1 X110.702 Y113.104 E3.06091
G1 X110.346 Y113.162 E3.0819
G1 X109.986 Y113.182 E3.10288
G1 X109.425 Y113.131 E3.13566
G1 X108.869 Y112.976 E3.16925
G1 X108.363 Y112.729 E3.20202
G1 X108.065 Y112.525 E3.22304
G1 X107.791 Y112.291 E3.24401
G1 X107.431 Y111.877 E3.27594
G1 X107.236 Y111.574 E3.29691
G1 X107.074 Y111.251 E3.31794
G1 X106.903 Y110.73 E3.34985
G1 X106.841 Y110.375 E3.37082
G1 X106.819 Y110.029 E3.391
G1 X106.835 Y109.683 E3.41116
G1 X106.89 Y109.327 E3.43212
G1 X107.056 Y108.789 E3.46489
G1 X107.317 Y108.289 E3.49771
G1 X107.528 Y107.997 E3.51868
G1 X107.761 Y107.74 E3.53887
G1 X108.02 Y107.51 E3.55903
G1 X108.314 Y107.302 E3.57999
G1 X108.815 Y107.046 E3.61273
G1 X109.355 Y106.884 E3.64554
G1 X109.712 Y106.832 E3.66653
G1 X110.072 Y106.819 E3.68749
G1 X110.632 Y106.88 E3.72027
G1 X111.171 Y107.041 E3.75301
G1 X111.498 Y107.194 E3.77402
G1 X111.806 Y107.381 E3.79499
G1 X112.241 Y107.739 E3.82778
G1 X112.603 Y108.17 E3.86054
G1 X112.793 Y108.477 E3.88155
G1 X112.948 Y108.802 E3.9025
G1 X113.11 Y109.326 E3.93442
G1 X113.165 Y109.683 E3.95544
G1 X113.182 Y110.043 E3.97641
G1 X113.125 Y110.603 E4.00917
G1 X112.969 Y111.144 E4.04194
G1 X112.82 Y111.472 E4.06291
G1 X112.636 Y111.783 E4.08394
G1 X112.29 Y112.209 E4.11588
G1 X112.052 Y112.428 E4.1347
G1 X112.052 Y112.428 F7200
G1 X112.305 Y112.868
G1 F2979
G1 X112.003 Y113.091 E4.15655
G1 X111.433 Y113.395 E4.19414
G1 X110.819 Y113.591 E4.23165
G1 X110.4 Y113.66 E4.25636
