; generated by PrusaSlicer 2.7.4+win64 on 2024-06-12 at 12:29:50 UTC

; 

; external perimeters extrusion width = 0.42mm
; perimeters extrusion width = 0.45mm
; infill extrusion width = 0.45mm
; solid infill extrusion width = 0.50mm
; top infill extrusion width = 0.42mm
; support material extrusion width = 0.42mm
; first layer extrusion width = 0.56mm

M201 X2500 Y2500 Z800 E2500 ; sets maximum accelerations, mm/sec^2
M203 X250 Y250 Z8 E80 ; sets maximum feedrates, mm / sec
M204 S2500 T2500 ; sets acceleration (S) and retract acceleration (R), mm/sec^2
M205 X10.00 Y10.00 Z2.00 E10.00 ; sets the jerk limits, mm/sec
M205 S0 T0 ; sets the minimum extruding and travel feed rate, mm/sec
;TYPE:Custom
G90 ; use absolute coordinates
M83 ; extruder relative mode
M104 S215 ; set extruder temp
M140 S60 ; set bed temp
M190 S60 ; wait for bed temp
M109 S215 ; wait for extruder temp
G28                                        ; move X/Y/Z to min endstops
G1 Z0.28                                   ; lift nozzle a bit 
G92 E0 
G1 Y3 F1800                                    ; zero the extruded length 
G1 X60  E25 F500                       ; Extrude 25mm of filament in a 5cm line. 
G92 E0                                     ; zero the extruded length again 
G1 E-2 F500                                ; Retract a little 
G1 X70 F4000                              ; Quickly wipe away from the filament line
M117
G21 ; set units to millimeters
G90 ; use absolute coordinates
M82 ; use absolute distances for extrusion
G92 E0
M107
;LAYER_CHANGE
;Z:0.28
;HEIGHT:0.28
G1 E-2 F4800
G92 E0
G1 Z.28 F7200
G92 E0
G1 X198.702 Y13.007
G1 E2 F4800
G92 E0
;TYPE:External perimeter
;WIDTH:0.56
G1 F3000
G1 X198.702 Y52.447 E2.29521
G1 X149.262 Y52.447 E5.17237
G1 X149.262 Y13.007 E7.46758
G1 X198.642 Y13.007 E10.34125
G1 X198.642 Y13.007 F7200
G1 X198.202 Y13.507
;TYPE:Perimeter
G1 F3000
G1 X198.202 Y51.947 E12.57826
G1 X149.761 Y51.947 E15.39728
G1 X149.761 Y13.507 E17.63429
G1 X198.142 Y13.507 E20.44982
G1 X198.142 Y13.507 F7200
G1 X197.702 Y14.007
G1 F3000
G1 X197.702 Y51.447 E22.62864
G1 X150.261 Y51.447 E25.38947
G1 X150.261 Y14.007 E27.56829
G1 X197.642 Y14.007 E30.32562
G1 E28.92562 F4800
;WIPE_START
G1 F5760
G1 X197.702 Y14.007 E28.87812
G1 X197.702 Y14.705 E28.32562
;WIPE_END
G92 E0
G1 X185.935 Y25.667 F7200
G1 E2 F4800
;TYPE:External perimeter
G1 F3000
G1 X185.616 Y25.856 E2.02158
G1 X185.266 Y26.015 E2.04395
G1 X184.903 Y26.135 E2.0662
G1 X184.648 Y26.194 E2.08143
G1 X184.272 Y26.245 E2.10351
G1 X184.011 Y26.257 E2.11871
G1 X183.63 Y26.24 E2.1409
G1 X183.25 Y26.181 E2.16328
G1 X182.886 Y26.083 E2.18522
G1 X182.636 Y25.991 E2.20072
G1 X182.291 Y25.826 E2.22298
G1 X181.964 Y25.624 E2.24535
G1 X181.667 Y25.392 E2.26728
G1 X181.472 Y25.21 E2.2828
G1 X181.223 Y24.93 E2.30461
G1 X181.065 Y24.716 E2.32009
G1 X180.867 Y24.389 E2.34234
G1 X180.706 Y24.043 E2.36455
G1 X180.617 Y23.797 E2.37977
G1 X180.521 Y23.427 E2.40202
G1 X180.467 Y23.055 E2.4239
G1 X180.452 Y22.789 E2.4394
G1 X180.466 Y22.407 E2.46165
G1 X180.52 Y22.034 E2.48358
G1 X180.582 Y21.775 E2.49908
G1 X180.705 Y21.413 E2.52133
G1 X180.867 Y21.064 E2.54372
G1 X181.065 Y20.738 E2.56592
G1 X181.22 Y20.527 E2.58116
G1 X181.472 Y20.244 E2.60321
G1 X181.663 Y20.065 E2.61844
G1 X181.964 Y19.83 E2.64066
G1 X182.291 Y19.628 E2.66303
G1 X182.638 Y19.462 E2.68542
G1 X182.994 Y19.338 E2.70736
G1 X183.252 Y19.273 E2.72284
G1 X183.629 Y19.214 E2.74505
G1 X184.006 Y19.197 E2.76701
G1 X184.272 Y19.209 E2.78251
G1 X184.651 Y19.26 E2.80476
G1 X185.021 Y19.353 E2.82696
G1 X185.268 Y19.439 E2.84218
G1 X185.616 Y19.597 E2.86442
G1 X185.946 Y19.794 E2.88679
G1 X186.252 Y20.023 E2.90903
G1 X186.445 Y20.199 E2.92423
G1 X186.704 Y20.479 E2.94643
G1 X186.928 Y20.783 E2.96841
G1 X187.066 Y21.01 E2.98387
G1 X187.234 Y21.354 E3.00615
G1 X187.364 Y21.715 E3.02848
G1 X187.452 Y22.082 E3.05044
G1 X187.491 Y22.345 E3.06591
G1 X187.512 Y22.724 E3.088
G1 X187.502 Y22.986 E3.10326
G1 X187.454 Y23.364 E3.12543
G1 X187.364 Y23.738 E3.14782
G1 X187.234 Y24.1 E3.1702
G1 X187.065 Y24.446 E3.19261
G1 X186.862 Y24.769 E3.21481
G1 X186.702 Y24.976 E3.23004
G1 X186.444 Y25.257 E3.25224
G1 X186.156 Y25.508 E3.27447
G1 X185.984 Y25.632 E3.28681
G1 X185.984 Y25.632 F7200
G1 X186.19 Y26.097
;TYPE:Perimeter
G1 F3000
G1 X185.847 Y26.3 E3.31
G1 X185.448 Y26.482 E3.33552
G1 X185.038 Y26.617 E3.36064
G1 X184.738 Y26.686 E3.37855
G1 X184.318 Y26.743 E3.40322
G1 X184.011 Y26.757 E3.4211
G1 X183.58 Y26.738 E3.44621
G1 X183.146 Y26.67 E3.47177
G1 X182.734 Y26.56 E3.49659
G1 X182.441 Y26.452 E3.51476
G1 X182.051 Y26.266 E3.53991
G1 X181.678 Y26.035 E3.56544
G1 X181.342 Y25.772 E3.59027
G1 X181.114 Y25.559 E3.60843
G1 X180.835 Y25.246 E3.63283
G1 X180.649 Y24.995 E3.65101
G1 X180.425 Y24.625 E3.67618
G1 X180.243 Y24.234 E3.70128
G1 X180.139 Y23.945 E3.71915
G1 X180.031 Y23.527 E3.74427
G1 X179.969 Y23.105 E3.76909
G1 X179.951 Y22.793 E3.78728
G1 X179.967 Y22.362 E3.81238
G1 X180.029 Y21.939 E3.83726
G1 X180.101 Y21.636 E3.85538
G1 X180.24 Y21.227 E3.88052
G1 X180.425 Y20.829 E3.90606
G1 X180.649 Y20.459 E3.93123
G1 X180.831 Y20.212 E3.94908
G1 X181.114 Y19.895 E3.97381
G1 X181.337 Y19.685 E3.99164
G1 X181.678 Y19.419 E4.01681
G1 X182.051 Y19.188 E4.04234
G1 X182.447 Y18.999 E4.06788
G1 X182.85 Y18.858 E4.09273
G1 X183.152 Y18.782 E4.11085
G1 X183.579 Y18.716 E4.13599
G1 X184.006 Y18.696 E4.16087
G1 X184.317 Y18.71 E4.17899
G1 X184.746 Y18.769 E4.20419
G1 X185.165 Y18.874 E4.22933
G1 X185.454 Y18.975 E4.24715
G1 X185.847 Y19.154 E4.27228
G1 X186.225 Y19.378 E4.29785
G1 X186.57 Y19.637 E4.32296
G1 X186.798 Y19.843 E4.34084
G1 X187.09 Y20.161 E4.36596
G1 X187.344 Y20.504 E4.3908
G1 X187.506 Y20.77 E4.40892
G1 X187.695 Y21.159 E4.43409
G1 X187.844 Y21.572 E4.45964
G1 X187.944 Y21.987 E4.48448
G1 X187.989 Y22.295 E4.50259
G1 X188.012 Y22.72 E4.52736
G1 X188.001 Y23.026 E4.54518
G1 X187.946 Y23.455 E4.57035
G1 X187.844 Y23.882 E4.5959
G1 X187.695 Y24.295 E4.62145
G1 X187.503 Y24.689 E4.64696
G1 X187.272 Y25.055 E4.67215
G1 X187.086 Y25.298 E4.68996
G1 X186.793 Y25.616 E4.71512
G1 X186.467 Y25.9 E4.74028
G1 X186.24 Y26.064 E4.75658
G1 X186.24 Y26.064 F7200
G1 X186.529 Y26.472
G1 F3000
G1 X186.493 Y26.498 E4.75916
G1 X186.079 Y26.744 E4.78719
G1 X185.63 Y26.948 E4.81589
G1 X185.172 Y27.099 E4.84395
G1 X184.829 Y27.178 E4.86443
G1 X184.363 Y27.242 E4.8918
G1 X184.011 Y27.258 E4.91231
G1 X183.53 Y27.236 E4.94033
G1 X183.042 Y27.16 E4.96907
G1 X182.582 Y27.036 E4.9968
G1 X182.247 Y26.913 E5.01757
G1 X181.811 Y26.705 E5.04568
G1 X181.392 Y26.446 E5.07435
G1 X181.016 Y26.153 E5.10209
G1 X180.756 Y25.909 E5.12284
G1 X180.446 Y25.561 E5.14996
G1 X180.234 Y25.274 E5.17072
G1 X179.984 Y24.861 E5.19881
G1 X179.78 Y24.424 E5.22688
G1 X179.661 Y24.092 E5.2474
G1 X179.54 Y23.626 E5.27542
G1 X179.471 Y23.155 E5.30312
G1 X179.451 Y22.798 E5.32393
G1 X179.468 Y22.316 E5.352
G1 X179.537 Y21.845 E5.3797
G1 X179.62 Y21.497 E5.40052
G1 X179.775 Y21.04 E5.4286
G1 X179.984 Y20.593 E5.45732
G1 X180.233 Y20.181 E5.48533
G1 X180.443 Y19.897 E5.50588
G1 X180.755 Y19.546 E5.53321
G1 X181.012 Y19.305 E5.55371
G1 X181.392 Y19.008 E5.58178
G1 X181.811 Y18.749 E5.61045
G1 X182.257 Y18.536 E5.63921
G1 X182.706 Y18.379 E5.66689
G1 X183.053 Y18.292 E5.68771
G1 X183.529 Y18.218 E5.71574
G1 X184.005 Y18.196 E5.74347
G1 X184.362 Y18.212 E5.76427
G1 X184.84 Y18.277 E5.79234
G1 X185.308 Y18.394 E5.82041
G1 X185.64 Y18.51 E5.84088
G1 X186.079 Y18.71 E5.86895
G1 X186.504 Y18.962 E5.8977
G1 X186.889 Y19.251 E5.92572
G1 X187.15 Y19.488 E5.94624
G1 X187.476 Y19.842 E5.97425
G1 X187.759 Y20.225 E6.00196
G1 X187.945 Y20.53 E6.02275
G1 X188.156 Y20.964 E6.05083
G1 X188.323 Y21.428 E6.07953
G1 X188.435 Y21.891 E6.10725
G1 X188.487 Y22.245 E6.12807
G1 X188.513 Y22.715 E6.15546
G1 X188.5 Y23.067 E6.17596
G1 X188.439 Y23.545 E6.204
G1 X188.323 Y24.025 E6.23274
G1 X188.156 Y24.49 E6.26149
G1 X187.94 Y24.933 E6.29017
G1 X187.683 Y25.341 E6.31823
G1 X187.469 Y25.62 E6.33869
G1 X187.142 Y25.975 E6.36678
G1 X186.779 Y26.291 E6.39479
G1 X186.577 Y26.437 E6.40929
G1 E5.00929 F4800
;WIPE_START
G1 F5760
G1 X186.529 Y26.472 E4.96226
G1 X186.493 Y26.498 E4.9271
G1 X186.079 Y26.744 E4.54586
G1 X185.922 Y26.815 E4.40929
;WIPE_END
G92 E0
G1 X161.066 Y24.718 F7200
G1 E2 F4800
;TYPE:External perimeter
G1 F3000
G1 X160.928 Y24.499 E2.01506
G1 X160.755 Y24.159 E2.03726
G1 X160.618 Y23.8 E2.05962
G1 X160.523 Y23.435 E2.08157
G1 X160.479 Y23.172 E2.09709
G1 X160.452 Y22.791 E2.11932
G1 X160.466 Y22.407 E2.14168
G1 X160.52 Y22.034 E2.16361
G1 X160.582 Y21.775 E2.17911
G1 X160.705 Y21.413 E2.20136
G1 X160.867 Y21.064 E2.22375
G1 X161.065 Y20.738 E2.24595
G1 X161.22 Y20.527 E2.26119
G1 X161.474 Y20.242 E2.28341
G1 X161.757 Y19.986 E2.30562
G1 X161.966 Y19.828 E2.32087
G1 X162.291 Y19.628 E2.34308
G1 X162.638 Y19.462 E2.36547
G1 X162.998 Y19.336 E2.38767
G1 X163.252 Y19.273 E2.4029
G1 X163.629 Y19.214 E2.42511
G1 X164.006 Y19.197 E2.44707
G1 X164.272 Y19.209 E2.46257
G1 X164.651 Y19.26 E2.48482
G1 X165.021 Y19.353 E2.50702
G1 X165.268 Y19.439 E2.52224
G1 X165.616 Y19.597 E2.54448
G1 X165.946 Y19.794 E2.56685
G1 X166.252 Y20.023 E2.58909
G1 X166.445 Y20.199 E2.60429
G1 X166.704 Y20.479 E2.62649
G1 X166.932 Y20.789 E2.64888
G1 X167.122 Y21.115 E2.67084
G1 X167.235 Y21.356 E2.68633
G1 X167.364 Y21.715 E2.70853
G1 X167.454 Y22.089 E2.73092
G1 X167.502 Y22.468 E2.75315
G1 X167.512 Y22.729 E2.76835
G1 X167.491 Y23.111 E2.79061
G1 X167.428 Y23.49 E2.81297
G1 X167.326 Y23.858 E2.83519
G1 X167.233 Y24.102 E2.85039
G1 X167.065 Y24.446 E2.87267
G1 X166.86 Y24.771 E2.89503
G1 X166.626 Y25.066 E2.91694
G1 X166.442 Y25.259 E2.93246
G1 X166.154 Y25.51 E2.95469
G1 X165.845 Y25.725 E2.9766
G1 X165.613 Y25.857 E2.99213
G1 X165.266 Y26.015 E3.01432
G1 X164.908 Y26.133 E3.03626
G1 X164.648 Y26.194 E3.0518
G1 X164.272 Y26.245 E3.07388
G1 X164.011 Y26.257 E3.08908
G1 X163.627 Y26.24 E3.11145
G1 X163.127 Y26.152 E3.14099
G1 X162.757 Y26.038 E3.16352
G1 X162.405 Y25.885 E3.18586
G1 X162.077 Y25.699 E3.2078
G1 X161.858 Y25.547 E3.22331
G1 X161.566 Y25.301 E3.24553
G1 X161.3 Y25.023 E3.26792
G1 X161.103 Y24.765 E3.28681
G1 X161.103 Y24.765 F7200
G1 X160.644 Y24.985
;TYPE:Perimeter
G1 F3000
G1 X160.493 Y24.747 E3.30321
G1 X160.297 Y24.362 E3.32835
G1 X160.141 Y23.952 E3.35388
G1 X160.034 Y23.539 E3.37871
G1 X159.983 Y23.231 E3.39688
G1 X159.951 Y22.8 E3.42203
G1 X159.967 Y22.361 E3.44759
G1 X160.029 Y21.939 E3.47241
G1 X160.101 Y21.636 E3.49053
G1 X160.24 Y21.227 E3.51567
G1 X160.425 Y20.829 E3.54121
G1 X160.649 Y20.459 E3.56638
G1 X160.831 Y20.212 E3.58423
G1 X161.118 Y19.889 E3.60938
G1 X161.438 Y19.6 E3.63447
G1 X161.684 Y19.415 E3.65238
G1 X162.051 Y19.188 E3.67749
G1 X162.447 Y18.999 E3.70303
G1 X162.855 Y18.857 E3.72817
G1 X163.153 Y18.782 E3.74605
G1 X163.579 Y18.716 E3.77114
G1 X164.006 Y18.696 E3.79602
G1 X164.317 Y18.71 E3.81414
G1 X164.746 Y18.769 E3.83934
G1 X165.164 Y18.874 E3.86442
G1 X165.454 Y18.975 E3.88229
G1 X165.847 Y19.154 E3.90742
G1 X166.225 Y19.378 E3.93299
G1 X166.57 Y19.637 E3.9581
G1 X166.798 Y19.843 E3.97598
G1 X167.09 Y20.161 E4.0011
G1 X167.351 Y20.514 E4.02665
G1 X167.565 Y20.883 E4.05147
G1 X167.697 Y21.165 E4.06959
G1 X167.844 Y21.572 E4.09477
G1 X167.946 Y21.999 E4.12032
G1 X168.001 Y22.427 E4.14543
G1 X168.012 Y22.734 E4.16331
G1 X167.989 Y23.165 E4.18843
G1 X167.917 Y23.598 E4.21397
G1 X167.801 Y24.014 E4.2391
G1 X167.692 Y24.301 E4.25697
G1 X167.503 Y24.689 E4.28209
G1 X167.268 Y25.06 E4.30765
G1 X167.003 Y25.394 E4.33246
G1 X166.788 Y25.62 E4.35061
G1 X166.462 Y25.904 E4.37577
G1 X166.112 Y26.148 E4.4006
G1 X165.841 Y26.303 E4.41877
G1 X165.448 Y26.482 E4.4439
G1 X165.043 Y26.615 E4.46871
G1 X164.739 Y26.686 E4.48688
G1 X164.318 Y26.743 E4.5116
G1 X164.011 Y26.757 E4.52948
G1 X163.573 Y26.737 E4.555
G1 X163.01 Y26.639 E4.58826
G1 X162.584 Y26.508 E4.6142
G1 X162.181 Y26.333 E4.63977
G1 X161.81 Y26.123 E4.66458
G1 X161.554 Y25.945 E4.68273
G1 X161.223 Y25.666 E4.70792
G1 X160.92 Y25.349 E4.73344
G1 X160.678 Y25.033 E4.7566
G1 X160.678 Y25.033 F7200
G1 X160.223 Y25.255
G1 F3000
G1 X160.059 Y24.994 E4.77454
G1 X159.839 Y24.565 E4.8026
G1 X159.664 Y24.104 E4.8313
G1 X159.544 Y23.643 E4.85902
G1 X159.486 Y23.29 E4.87984
G1 X159.451 Y22.809 E4.90791
G1 X159.468 Y22.316 E4.93662
G1 X159.537 Y21.845 E4.96432
G1 X159.62 Y21.497 E4.98514
G1 X159.775 Y21.04 E5.01322
G1 X159.984 Y20.593 E5.04194
G1 X160.233 Y20.181 E5.06995
G1 X160.443 Y19.897 E5.0905
G1 X160.763 Y19.537 E5.11853
G1 X161.12 Y19.214 E5.14655
G1 X161.402 Y19.002 E5.16708
G1 X161.811 Y18.749 E5.19507
G1 X162.257 Y18.536 E5.22383
G1 X162.712 Y18.377 E5.25188
G1 X163.054 Y18.292 E5.27239
G1 X163.529 Y18.218 E5.30037
G1 X164.005 Y18.196 E5.3281
G1 X164.362 Y18.212 E5.3489
G1 X164.84 Y18.277 E5.37697
G1 X165.308 Y18.394 E5.40504
G1 X165.64 Y18.51 E5.42551
G1 X166.079 Y18.71 E5.45358
G1 X166.504 Y18.962 E5.48233
G1 X166.889 Y19.251 E5.51035
G1 X167.15 Y19.488 E5.53087
G1 X167.476 Y19.842 E5.55888
G1 X167.769 Y20.239 E5.58759
G1 X168.009 Y20.651 E5.61534
G1 X168.16 Y20.974 E5.63609
G1 X168.323 Y21.429 E5.66422
G1 X168.439 Y21.908 E5.6929
G1 X168.5 Y22.386 E5.72094
G1 X168.513 Y22.738 E5.74144
G1 X168.486 Y23.22 E5.76953
G1 X168.406 Y23.707 E5.79825
G1 X168.276 Y24.171 E5.82629
G1 X168.151 Y24.5 E5.84677
G1 X167.94 Y24.933 E5.8748
G1 X167.677 Y25.35 E5.90349
G1 X167.38 Y25.723 E5.93124
G1 X167.134 Y25.982 E5.95203
G1 X166.77 Y26.299 E5.98012
G1 X166.38 Y26.571 E6.00779
G1 X166.069 Y26.748 E6.02861
G1 X165.63 Y26.948 E6.05668
G1 X165.178 Y27.097 E6.08438
G1 X164.83 Y27.178 E6.10517
G1 X164.363 Y27.242 E6.1326
G1 X164.011 Y27.258 E6.15311
G1 X163.518 Y27.235 E6.18183
G1 X162.893 Y27.126 E6.21875
G1 X162.41 Y26.977 E6.24817
G1 X161.958 Y26.781 E6.27684
G1 X161.543 Y26.546 E6.30459
G1 X161.25 Y26.342 E6.32537
G1 X160.881 Y26.031 E6.35345
G1 X160.54 Y25.675 E6.38214
G1 X160.257 Y25.305 E6.40925
G1 E5.00925 F4800
;WIPE_START
G1 F5760
G1 X160.223 Y25.255 E4.96138
G1 X160.059 Y24.994 E4.71735
G1 X159.882 Y24.648 E4.40925
;WIPE_END
G92 E0
G1 X165.244 Y34.626 F7200
G1 E2 F4800
;TYPE:External perimeter
G1 F3000
G1 X164.888 Y34.82 E2.02359
G1 X164.492 Y34.95 E2.04785
G1 X164.005 Y35.008 E2.07639
G1 X163.587 Y34.974 E2.1008
G1 X163.116 Y34.838 E2.12933
G1 X162.747 Y34.645 E2.15356
G1 X162.419 Y34.389 E2.17777
G1 X162.1 Y34.017 E2.20629
G1 X161.895 Y33.65 E2.23075
G1 X161.746 Y33.182 E2.25933
G1 X161.701 Y32.768 E2.28356
G1 X161.731 Y32.353 E2.30777
G1 X161.863 Y31.88 E2.33635
G1 X162.054 Y31.507 E2.36074
G1 X162.359 Y31.123 E2.38928
G1 X162.68 Y30.853 E2.41369
G1 X163.111 Y30.618 E2.44226
G1 X163.511 Y30.494 E2.46663
G1 X163.997 Y30.446 E2.49505
G1 X164.414 Y30.487 E2.51943
G1 X164.814 Y30.603 E2.54367
G1 X165.249 Y30.83 E2.57222
G1 X165.574 Y31.094 E2.59659
G1 X165.887 Y31.472 E2.62515
G1 X166.084 Y31.842 E2.64954
G1 X166.225 Y32.312 E2.6781
G1 X166.263 Y32.727 E2.70235
G1 X166.225 Y33.141 E2.72654
G1 X166.085 Y33.61 E2.75502
G1 X165.888 Y33.979 E2.77936
G1 X165.629 Y34.305 E2.80359
G1 X165.291 Y34.589 E2.82928
G1 X165.291 Y34.589 F7200
G1 X165.571 Y35.007
;TYPE:Perimeter
G1 F3000
G1 X165.539 Y35.034 E2.83172
G1 X165.088 Y35.281 E2.86164
G1 X164.601 Y35.441 E2.89147
G1 X164.014 Y35.51 E2.92587
G1 X163.497 Y35.468 E2.95606
G1 X162.929 Y35.304 E2.99046
G1 X162.475 Y35.067 E3.02026
G1 X162.072 Y34.752 E3.05003
G1 X161.688 Y34.305 E3.08432
G1 X161.434 Y33.85 E3.11465
G1 X161.255 Y33.286 E3.14909
G1 X161.199 Y32.777 E3.17889
G1 X161.236 Y32.267 E3.20865
G1 X161.395 Y31.697 E3.24309
G1 X161.631 Y31.235 E3.27328
G1 X161.999 Y30.772 E3.3077
G1 X162.396 Y30.438 E3.33789
G1 X162.915 Y30.155 E3.37229
G1 X163.411 Y30.002 E3.4025
G1 X163.997 Y29.943 E3.43677
G1 X164.509 Y29.994 E3.46671
G1 X165.001 Y30.136 E3.49651
G1 X165.525 Y30.41 E3.53092
G1 X165.928 Y30.737 E3.56112
G1 X166.304 Y31.193 E3.59551
G1 X166.549 Y31.651 E3.62574
G1 X166.718 Y32.217 E3.66012
G1 X166.765 Y32.727 E3.68993
G1 X166.718 Y33.236 E3.71968
G1 X166.55 Y33.801 E3.75398
G1 X166.308 Y34.254 E3.78387
G1 X165.989 Y34.655 E3.81369
G1 X165.617 Y34.969 E3.84202
G1 X165.617 Y34.969 F7200
G1 X165.887 Y35.394
