; generated by PrusaSlicer 2.7.4+win64 on 2024-06-11 at 08:06:24 UTC

; 

; external perimeters extrusion width = 0.42mm
; perimeters extrusion width = 0.45mm
; infill extrusion width = 0.45mm
; solid infill extrusion width = 0.50mm
; top infill extrusion width = 0.42mm
; support material extrusion width = 0.42mm
; first layer extrusion width = 0.56mm

; external perimeters extrusion width = 0.42mm
; perimeters extrusion width = 0.45mm
; infill extrusion width = 0.45mm
; solid infill extrusion width = 0.50mm
; top infill extrusion width = 0.42mm
; support material extrusion width = 0.42mm
; first layer extrusion width = 0.56mm

M201 X2500 Y2500 Z800 E2500 ; sets maximum accelerations, mm/sec^2
M203 X250 Y250 Z8 E80 ; sets maximum feedrates, mm / sec
M204 S2500 T2500 ; sets acceleration (S) and retract acceleration (R), mm/sec^2
M205 X10.00 Y10.00 Z2.00 E10.00 ; sets the jerk limits, mm/sec
M205 S0 T0 ; sets the minimum extruding and travel feed rate, mm/sec
;TYPE:Custom
G90 ; use absolute coordinates
M83 ; extruder relative mode
M104 S215 ; set extruder temp
M140 S60 ; set bed temp
M190 S60 ; wait for bed temp
M109 S215 ; wait for extruder temp
G28                                        ; move X/Y/Z to min endstops
G1 Z0.28                                   ; lift nozzle a bit 
G92 E0 
G1 Y3 F1800                                    ; zero the extruded length 
G1 X60  E25 F500                       ; Extrude 25mm of filament in a 5cm line. 
G92 E0                                     ; zero the extruded length again 
G1 E-2 F500                                ; Retract a little 
G1 X70 F4000                              ; Quickly wipe away from the filament line
M117
G21 ; set units to millimeters
G90 ; use absolute coordinates
M82 ; use absolute distances for extrusion
G92 E0
M107
;LAYER_CHANGE
;Z:0.28
;HEIGHT:0.28
G1 E-2 F4800
G92 E0
G1 Z.28 F7200
G92 E0
G1 X198.72 Y108.927
G1 E2 F4800
G92 E0
;TYPE:Support material
;WIDTH:0.56
G1 F3000
G1 X198.72 Y115.38 E.37553
G1 X192.151 Y115.379 E.75781
G1 X192.151 Y104.5 E1.39091
G1 X198.72 Y104.499 E1.77319
G1 X198.72 Y108.852 E2.02651
G1 X197.924 Y115.155 F7200
G1 F3000
G1 X197.924 Y104.949 E2.62045
G1 X197.369 Y104.949 E2.65275
G1 X197.369 Y114.93 E3.23359
G1 X196.813 Y114.93 E3.26595
G1 X196.813 Y104.949 E3.84679
G1 X196.258 Y104.949 E3.87909
G1 X196.258 Y114.93 E4.45993
G1 X195.703 Y114.93 E4.49223
G1 X195.703 Y104.949 E5.07307
G1 X195.147 Y104.949 E5.10543
G1 X195.147 Y114.929 E5.68622
G1 X194.592 Y114.929 E5.71852
G1 X194.592 Y104.949 E6.29931
G1 X194.036 Y104.949 E6.33167
G1 X194.036 Y114.929 E6.91246
G1 X193.481 Y114.929 E6.94476
G1 X193.481 Y104.949 E7.52555
G1 X192.925 Y104.949 E7.55791
G1 X192.925 Y115.154 E8.15179
G1 E6.75179 F4800
;WIPE_START
G1 F5760
G1 X192.925 Y114.396 E6.15179
;WIPE_END
G92 E0
G1 X28.059 Y142.78 F7200
G1 E2 F4800
;TYPE:External perimeter
G1 F3000
G1 X34.888 Y142.78 E2.39741
G1 X34.828 Y143.173 E2.42055
G1 X34.647 Y143.878 E2.46291
G1 X34.396 Y144.561 E2.50526
G1 X34.077 Y145.214 E2.54755
G1 X33.694 Y145.833 E2.58991
G1 X33.251 Y146.41 E2.63224
G1 X32.752 Y146.939 E2.67456
G1 X32.202 Y147.415 E2.71689
G1 X31.607 Y147.834 E2.75924
G1 X30.973 Y148.191 E2.80158
G1 X30.306 Y148.482 E2.84393
G1 X29.614 Y148.704 E2.88622
G1 X28.902 Y148.856 E2.92859
G1 X28.177 Y148.935 E2.97103
G1 X27.697 Y148.947 E2.99897
G1 X26.968 Y148.904 E3.04147
G1 X26.25 Y148.789 E3.08379
G1 X25.547 Y148.602 E3.12612
G1 X24.865 Y148.344 E3.16855
G1 X24.365 Y148.102 E3.20088
G1 X23.801 Y147.769 E3.239
G1 X23.213 Y147.34 E3.28136
G1 X22.671 Y146.854 E3.32372
G1 X22.181 Y146.317 E3.36603
G1 X21.748 Y145.733 E3.40834
G1 X21.375 Y145.108 E3.4507
G1 X21.067 Y144.449 E3.49303
G1 X20.828 Y143.762 E3.53536
G1 X20.658 Y143.054 E3.57773
G1 X20.561 Y142.334 E3.62001
G1 X20.536 Y141.607 E3.66234
G1 X20.585 Y140.879 E3.7048
G1 X20.672 Y140.331 E3.73709
G1 X20.827 Y139.694 E3.77524
G1 X21.067 Y139.007 E3.81759
G1 X21.375 Y138.348 E3.85992
G1 X21.748 Y137.723 E3.90228
G1 X22.181 Y137.139 E3.94459
G1 X22.671 Y136.601 E3.98694
G1 X23.213 Y136.116 E4.02927
G1 X23.801 Y135.687 E4.07163
G1 X24.429 Y135.32 E4.11396
G1 X25.09 Y135.018 E4.15625
G1 X25.779 Y134.784 E4.1986
G1 X26.488 Y134.62 E4.24095
G1 X27.211 Y134.529 E4.28336
G1 X27.766 Y134.509 E4.31568
G1 X28.059 Y134.522 E4.33275
G1 X28.059 Y142.72 E4.80983
G1 X28.059 Y142.72 F7200
G1 X27.559 Y143.28
;TYPE:Perimeter
G1 F3000
G1 X34.285 Y143.28 E5.20125
G1 X34.169 Y143.729 E5.22824
G1 X33.935 Y144.364 E5.26762
G1 X33.638 Y144.973 E5.30705
G1 X33.282 Y145.548 E5.34641
G1 X32.87 Y146.085 E5.3858
G1 X32.405 Y146.578 E5.42524
G1 X31.894 Y147.021 E5.4646
G1 X31.34 Y147.411 E5.50403
G1 X30.75 Y147.742 E5.5434
G1 X30.129 Y148.013 E5.58283
G1 X29.485 Y148.22 E5.6222
G1 X28.823 Y148.362 E5.6616
G1 X28.143 Y148.436 E5.70141
G1 X27.705 Y148.447 E5.72691
G1 X27.023 Y148.407 E5.76667
G1 X26.354 Y148.299 E5.80611
G1 X25.7 Y148.125 E5.84549
G1 X25.063 Y147.884 E5.88512
G1 X24.602 Y147.661 E5.91492
G1 X24.076 Y147.35 E5.95048
G1 X23.528 Y146.951 E5.98993
G1 X23.024 Y146.499 E6.02933
G1 X22.568 Y145.999 E6.06871
G1 X22.164 Y145.455 E6.10814
G1 X21.818 Y144.873 E6.14754
G1 X21.531 Y144.26 E6.18693
G1 X21.308 Y143.621 E6.22632
G1 X21.15 Y142.962 E6.26576
G1 X21.059 Y142.292 E6.30511
G1 X21.037 Y141.615 E6.34453
G1 X21.082 Y140.935 E6.38419
G1 X21.163 Y140.429 E6.41401
G1 X21.307 Y139.836 E6.44952
G1 X21.531 Y139.196 E6.48898
G1 X21.818 Y138.582 E6.52842
G1 X22.164 Y138.001 E6.56777
G1 X22.568 Y137.457 E6.6072
G1 X23.024 Y136.957 E6.64658
G1 X23.528 Y136.505 E6.68598
G1 X24.075 Y136.106 E6.72538
G1 X24.659 Y135.764 E6.76476
G1 X25.275 Y135.483 E6.80416
G1 X25.916 Y135.265 E6.84356
G1 X26.576 Y135.113 E6.88297
G1 X27.251 Y135.027 E6.92257
G1 X27.559 Y135.016 E6.94051
G1 X27.559 Y143.22 E7.41794
G1 X27.559 Y143.22 F7200
G1 X27.059 Y143.78
G1 F3000
G1 X33.618 Y143.78 E7.79964
G1 X33.475 Y144.168 E7.8237
G1 X33.2 Y144.731 E7.86016
G1 X32.87 Y145.264 E7.89664
G1 X32.489 Y145.76 E7.93304
G1 X32.059 Y146.216 E7.96951
G1 X31.585 Y146.627 E8.00602
G1 X31.073 Y146.987 E8.04244
G1 X30.527 Y147.294 E8.07889
G1 X29.952 Y147.545 E8.1154
G1 X29.356 Y147.737 E8.15184
G1 X28.743 Y147.867 E8.18831
G1 X28.11 Y147.937 E8.22537
G1 X27.713 Y147.947 E8.24848
G1 X27.077 Y147.909 E8.28556
G1 X26.459 Y147.81 E8.32198
G1 X25.853 Y147.648 E8.35848
G1 X25.261 Y147.425 E8.39529
G1 X24.838 Y147.22 E8.42264
G1 X24.351 Y146.932 E8.45557
G1 X23.843 Y146.562 E8.49214
G1 X23.376 Y146.143 E8.52865
G1 X22.954 Y145.68 E8.56511
G1 X22.581 Y145.177 E8.60155
G1 X22.26 Y144.639 E8.63801
G1 X21.995 Y144.071 E8.67449
G1 X21.788 Y143.48 E8.71093
G1 X21.642 Y142.87 E8.74743
G1 X21.558 Y142.25 E8.78384
G1 X21.537 Y141.623 E8.82035
G1 X21.58 Y140.992 E8.85716
G1 X21.653 Y140.528 E8.88449
G1 X21.787 Y139.978 E8.91743
G1 X21.995 Y139.384 E8.95406
G1 X22.26 Y138.817 E8.99048
G1 X22.581 Y138.278 E9.02699
G1 X22.954 Y137.775 E9.06343
G1 X23.376 Y137.312 E9.09989
G1 X23.843 Y136.894 E9.13636
G1 X24.349 Y136.525 E9.1728
G1 X24.89 Y136.209 E9.20926
G1 X25.46 Y135.948 E9.24574
G1 X26.053 Y135.747 E9.28218
G1 X26.664 Y135.606 E9.31867
G1 X27.059 Y135.556 E9.34184
G1 X27.059 Y143.72 E9.81694
G1 X27.059 Y143.72 F7200
G1 X26.559 Y144.28
G1 F3000
G1 X32.892 Y144.28 E10.18549
G1 X32.459 Y144.979 E10.23334
G1 X32.108 Y145.436 E10.26687
G1 X31.712 Y145.855 E10.30042
G1 X31.277 Y146.232 E10.33392
G1 X30.806 Y146.564 E10.36745
G1 X30.304 Y146.846 E10.40096
G1 X29.776 Y147.077 E10.4345
G1 X29.227 Y147.253 E10.46805
G1 X28.664 Y147.373 E10.50155
G1 X28.076 Y147.438 E10.53598
G1 X27.722 Y147.446 E10.55659
G1 X27.132 Y147.412 E10.59098
G1 X26.563 Y147.32 E10.62452
G1 X26.006 Y147.172 E10.65806
G1 X25.459 Y146.965 E10.6921
G1 X25.075 Y146.779 E10.71693
G1 X24.626 Y146.514 E10.74727
G1 X24.158 Y146.173 E10.78097
G1 X23.729 Y145.788 E10.81452
G1 X23.34 Y145.362 E10.84809
G1 X22.997 Y144.9 E10.88158
G1 X22.702 Y144.405 E10.91511
G1 X22.458 Y143.883 E10.94864
G1 X22.268 Y143.339 E10.98217
G1 X22.134 Y142.778 E11.01574
G1 X22.057 Y142.208 E11.04921
G1 X22.038 Y141.632 E11.08275
G1 X22.077 Y141.048 E11.11681
G1 X22.144 Y140.627 E11.14162
G1 X22.267 Y140.12 E11.17198
G1 X22.458 Y139.573 E11.2057
G1 X22.702 Y139.051 E11.23923
G1 X22.997 Y138.556 E11.27276
G1 X23.34 Y138.093 E11.30629
G1 X23.729 Y137.668 E11.33982
G1 X24.158 Y137.283 E11.37337
G1 X24.623 Y136.944 E11.40686
G1 X25.12 Y136.653 E11.44038
G1 X25.645 Y136.413 E11.47397
G1 X26.19 Y136.228 E11.50746
G1 X26.559 Y136.143 E11.5295
G1 X26.559 Y144.22 E11.99954
G1 X26.559 Y144.22 F7200
G1 X26.059 Y144.78
G1 F3000
G1 X31.981 Y144.78 E12.34417
G1 X31.727 Y145.111 E12.36845
G1 X31.366 Y145.494 E12.39908
G1 X30.969 Y145.838 E12.42965
G1 X30.539 Y146.141 E12.46026
G1 X30.08 Y146.398 E12.49087
G1 X29.599 Y146.609 E12.52144
G1 X29.098 Y146.769 E12.55205
G1 X28.584 Y146.879 E12.58264
G1 X28.042 Y146.938 E12.61437
G1 X27.73 Y146.946 E12.63253
G1 X27.186 Y146.914 E12.66424
G1 X26.667 Y146.831 E12.69483
G1 X26.159 Y146.695 E12.72543
G1 X25.657 Y146.505 E12.75667
G1 X25.311 Y146.338 E12.77903
G1 X24.901 Y146.096 E12.80674
G1 X24.473 Y145.783 E12.8376
G1 X24.081 Y145.433 E12.86818
G1 X23.727 Y145.044 E12.89879
G1 X23.414 Y144.622 E12.92937
G1 X23.144 Y144.17 E12.96001
G1 X22.922 Y143.694 E12.99058
G1 X22.749 Y143.198 E13.02115
G1 X22.626 Y142.687 E13.05174
G1 X22.556 Y142.166 E13.08233
G1 X22.538 Y141.64 E13.11296
G1 X22.574 Y141.104 E13.14422
G1 X22.634 Y140.725 E13.16655
G1 X22.747 Y140.262 E13.19429
G1 X22.922 Y139.762 E13.22512
G1 X23.144 Y139.285 E13.25574
G1 X23.414 Y138.834 E13.28633
G1 X23.727 Y138.412 E13.31691
G1 X24.081 Y138.023 E13.34752
G1 X24.473 Y137.672 E13.37814
G1 X24.897 Y137.362 E13.40871
G1 X25.351 Y137.097 E13.4393
G1 X25.829 Y136.879 E13.46987
G1 X26.059 Y136.801 E13.484
G1 X26.059 Y144.72 E13.94485
G1 X26.059 Y144.72 F7200
G1 X25.559 Y145.28
G1 F3000
G1 X30.53 Y145.28 E14.23414
G1 X30.596 Y145.489 E14.24689
G1 X30.272 Y145.717 E14.26995
G1 X29.857 Y145.95 E14.29765
G1 X29.422 Y146.14 E14.32527
G1 X28.969 Y146.286 E14.35297
G1 X28.504 Y146.385 E14.38064
G1 X28.009 Y146.439 E14.40962
G1 X27.739 Y146.446 E14.42534
G1 X27.241 Y146.417 E14.45437
G1 X26.772 Y146.341 E14.48202
G1 X26.312 Y146.219 E14.50972
G1 X25.854 Y146.046 E14.53821
G1 X25.548 Y145.897 E14.55802
G1 X25.176 Y145.677 E14.58317
G1 X24.787 Y145.394 E14.61116
G1 X24.434 Y145.077 E14.63877
G1 X24.113 Y144.726 E14.66645
G1 X23.83 Y144.344 E14.69412
G1 X23.587 Y143.936 E14.72176
G1 X23.386 Y143.505 E14.74944
G1 X23.229 Y143.057 E14.77707
G1 X23.118 Y142.595 E14.80472
G1 X23.055 Y142.124 E14.83237
G1 X23.039 Y141.649 E14.86003
G1 X23.071 Y141.16 E14.88855
G1 X23.125 Y140.824 E14.90835
G1 X23.227 Y140.404 E14.9335
G1 X23.386 Y139.95 E14.96149
G1 X23.587 Y139.52 E14.98911
G1 X23.83 Y139.111 E15.0168
G1 X24.113 Y138.73 E15.04442
G1 X24.434 Y138.378 E15.07214
G1 X24.787 Y138.061 E15.09975
G1 X25.171 Y137.781 E15.12741
G1 X25.559 Y137.554 E15.15357
G1 X25.559 Y145.22 E15.59969
G1 X25.559 Y145.22 F7200
G1 X25.059 Y144.967
G1 F3000
G1 X24.786 Y144.722 E15.62104
G1 X24.5 Y144.408 E15.64576
G1 X24.247 Y144.067 E15.67047
G1 X24.029 Y143.702 E15.69521
G1 X23.849 Y143.317 E15.71994
G1 X23.709 Y142.916 E15.74466
G1 X23.61 Y142.503 E15.76938
G1 X23.553 Y142.082 E15.7941
G1 X23.539 Y141.657 E15.81885
G1 X23.569 Y141.216 E15.84457
G1 X23.615 Y140.922 E15.86189
G1 X23.707 Y140.546 E15.88442
G1 X23.849 Y140.139 E15.90951
G1 X24.029 Y139.754 E15.93424
G1 X24.247 Y139.389 E15.95898
G1 X24.5 Y139.048 E15.98369
G1 X24.786 Y138.734 E16.00841
G1 X25.059 Y138.489 E16.02976
G1 X25.059 Y144.907 E16.40326
G1 X25.059 Y144.907 F7200
G1 X24.31 Y143.119
G1 F3000
G1 X24.19 Y142.775 E16.42446
G1 X24.102 Y142.411 E16.44625
G1 X24.052 Y142.04 E16.46804
G1 X24.04 Y141.665 E16.48987
G1 X24.066 Y141.273 E16.51273
G1 X24.187 Y140.688 E16.54749
G1 X24.31 Y140.337 E16.56913
G1 X24.559 Y140.379 E16.58383
G1 X24.559 Y143.076 E16.74078
G1 X24.369 Y143.109 E16.752
G1 E15.352 F4800
;WIPE_START
G1 F5760
G1 X24.31 Y143.119 E15.30463
G1 X24.19 Y142.775 E15.0162
G1 X24.112 Y142.45 E14.752
;WIPE_END
G92 E0
G1 X25.516 Y145.588 F7200
G1 E2 F4800
;TYPE:Gap fill
;WIDTH:0.44016
G1 F3000
G1 X25.988 Y145.674 E2.02123
;WIDTH:0.521805
G1 X26.46 Y145.76 E2.04702
;WIDTH:0.595821
G1 X26.742 Y145.797 E2.06476
;WIDTH:0.666372
G1 X27.093 Y145.833 E2.08966
;WIDTH:0.726111
G1 X27.97 Y145.86 E2.15769
;WIDTH:0.67176
G1 X28.627 Y145.813 E2.20459
;WIDTH:0.582931
G1 X29.204 Y145.734 E2.24004
;WIDTH:0.493733
G1 X29.937 Y145.619 E2.2775
G1 E.8775 F4800
;WIPE_START
G1 F5760
G1 X29.204 Y145.734 E.29011
G1 X29.188 Y145.736 E.2775
;WIPE_END
G92 E0
G1 X28.059 Y77.22 F7200
G1 E2 F4800
;TYPE:External perimeter
;WIDTH:0.56
G1 F3000
G1 X28.059 Y85.323 E2.47155
G1 X27.633 Y85.254 E2.49666
G1 X26.93 Y85.067 E2.53899
G1 X26.25 Y84.81 E2.58129
G1 X25.598 Y84.486 E2.62366
G1 X24.983 Y84.098 E2.66598
G1 X24.409 Y83.649 E2.70839
G1 X24.004 Y83.268 E2.74075
G1 X23.565 Y82.783 E2.77882
G1 X23.131 Y82.198 E2.82121
G1 X22.758 Y81.573 E2.86357
G1 X22.451 Y80.914 E2.90588
G1 X22.211 Y80.227 E2.94823
G1 X22.041 Y79.52 E2.99055
G1 X21.944 Y78.799 E3.03289
G1 X21.919 Y78.072 E3.07522
G1 X21.968 Y77.346 E3.11757
G1 X22.09 Y76.629 E3.1599
G1 X22.283 Y75.926 E3.20232
G1 X22.479 Y75.406 E3.23466
G1 X22.758 Y74.814 E3.27275
G1 X23.131 Y74.189 E3.31511
G1 X23.564 Y73.604 E3.35747
G1 X24.054 Y73.067 E3.39978
G1 X24.596 Y72.581 E3.44214
G1 X25.184 Y72.153 E3.48446
G1 X25.812 Y71.785 E3.52682
G1 X26.474 Y71.483 E3.56916
G1 X27.162 Y71.249 E3.61145
G1 X27.871 Y71.086 E3.65379
G1 X28.594 Y70.994 E3.6962
G1 X29.149 Y70.974 E3.72852
G1 X29.804 Y71.004 E3.76668
G1 X30.524 Y71.108 E3.80902
G1 X31.23 Y71.283 E3.85135
G1 X31.915 Y71.529 E3.89371
G1 X32.571 Y71.842 E3.93601
G1 X33.193 Y72.22 E3.97837
G1 X33.774 Y72.658 E4.02071
G1 X34.307 Y73.153 E4.06304
G1 X34.789 Y73.7 E4.10547
G1 X35.076 Y74.086 E4.13346
G1 X35.46 Y74.707 E4.17595
G1 X35.779 Y75.361 E4.2183
G1 X36.03 Y76.043 E4.26059
G1 X36.211 Y76.747 E4.30289
G1 X36.28 Y77.22 E4.33071
G1 X28.119 Y77.22 E4.80564
G1 X28.119 Y77.22 F7200
G1 X27.559 Y76.72
;TYPE:Perimeter
G1 F3000
G1 X27.559 Y84.717 E5.27102
G1 X27.083 Y84.59 E5.29969
G1 X26.45 Y84.351 E5.33907
G1 X25.844 Y84.049 E5.37847
G1 X25.271 Y83.688 E5.41788
G1 X24.735 Y83.269 E5.45747
G1 X24.361 Y82.918 E5.48732
G1 X23.952 Y82.465 E5.52284
G1 X23.547 Y81.92 E5.56235
G1 X23.201 Y81.339 E5.6017
G1 X22.914 Y80.725 E5.64114
G1 X22.691 Y80.086 E5.68053
G1 X22.533 Y79.428 E5.71991
G1 X22.443 Y78.757 E5.75931
G1 X22.42 Y78.08 E5.79873
G1 X22.465 Y77.405 E5.8381
G1 X22.578 Y76.737 E5.87753
G1 X22.759 Y76.081 E5.91713
G1 X22.94 Y75.601 E5.94698
G1 X23.2 Y75.049 E5.98249
G1 X23.547 Y74.466 E6.02197
G1 X23.951 Y73.923 E6.06136
G1 X24.407 Y73.422 E6.10078
G1 X24.911 Y72.97 E6.14018
G1 X25.458 Y72.572 E6.17955
G1 X26.042 Y72.23 E6.21893
G1 X26.658 Y71.949 E6.25833
G1 X27.299 Y71.731 E6.29773
G1 X27.959 Y71.578 E6.33716
G1 X28.634 Y71.493 E6.37675
G1 X29.147 Y71.475 E6.40662
G1 X29.756 Y71.503 E6.4421
G1 X30.428 Y71.599 E6.4816
G1 X31.085 Y71.762 E6.52099
G1 X31.722 Y71.991 E6.56038
G1 X32.333 Y72.283 E6.59979
G1 X32.912 Y72.634 E6.63919
G1 X33.452 Y73.042 E6.67858
G1 X33.949 Y73.502 E6.71799
G1 X34.401 Y74.015 E6.75778
G1 X34.662 Y74.367 E6.78328
G1 X35.022 Y74.948 E6.82306
G1 X35.318 Y75.557 E6.86247
G1 X35.552 Y76.192 E6.90185
G1 X35.688 Y76.72 E6.93358
G1 X27.619 Y76.72 E7.40315
G1 X27.619 Y76.72 F7200
G1 X27.059 Y76.22
G1 F3000
G1 X27.059 Y84.047 E7.85864
G1 X26.65 Y83.892 E7.88409
G1 X26.089 Y83.613 E7.92055
G1 X25.559 Y83.279 E7.95701
G1 X25.061 Y82.889 E7.99382
G1 X24.718 Y82.567 E8.0212
G1 X24.339 Y82.148 E8.05408
G1 X23.964 Y81.643 E8.09069
G1 X23.643 Y81.104 E8.1272
G1 X23.378 Y80.537 E8.16362
G1 X23.171 Y79.945 E8.20012
G1 X23.025 Y79.336 E8.23656
G1 X22.941 Y78.715 E8.27303
G1 X22.92 Y78.089 E8.30948
G1 X22.962 Y77.464 E8.34593
G1 X23.067 Y76.846 E8.38241
G1 X23.235 Y76.236 E8.41923
G1 X23.4 Y75.796 E8.44658
G1 X23.642 Y75.284 E8.47954
G1 X23.964 Y74.744 E8.51613
G1 X24.337 Y74.241 E8.55257
G1 X24.759 Y73.778 E8.58903
G1 X25.226 Y73.359 E8.62554
G1 X25.732 Y72.99 E8.66198
G1 X26.273 Y72.674 E8.69844
