; generated by PrusaSlicer 2.7.4+win64 on 2024-06-08 at 08:19:31 UTC

; 

; external perimeters extrusion width = 0.42mm
; perimeters extrusion width = 0.45mm
; infill extrusion width = 0.45mm
; solid infill extrusion width = 0.50mm
; top infill extrusion width = 0.42mm
; support material extrusion width = 0.42mm
; first layer extrusion width = 0.56mm

; external perimeters extrusion width = 0.42mm
; perimeters extrusion width = 0.45mm
; infill extrusion width = 0.45mm
; solid infill extrusion width = 0.50mm
; top infill extrusion width = 0.42mm
; support material extrusion width = 0.42mm
; first layer extrusion width = 0.56mm

M201 X2500 Y2500 Z800 E2500 ; sets maximum accelerations, mm/sec^2
M203 X250 Y250 Z8 E80 ; sets maximum feedrates, mm / sec
M204 S2500 T2500 ; sets acceleration (S) and retract acceleration (R), mm/sec^2
M205 X10.00 Y10.00 Z2.00 E10.00 ; sets the jerk limits, mm/sec
M205 S0 T0 ; sets the minimum extruding and travel feed rate, mm/sec
;TYPE:Custom
G90 ; use absolute coordinates
M83 ; extruder relative mode
M104 S215 ; set extruder temp
M140 S60 ; set bed temp
M190 S60 ; wait for bed temp
M109 S215 ; wait for extruder temp
G28                                        ; move X/Y/Z to min endstops
G1 Z0.28                                   ; lift nozzle a bit 
G92 E0 
G1 Y3 F1800                                    ; zero the extruded length 
G1 X60  E25 F500                       ; Extrude 25mm of filament in a 5cm line. 
G92 E0                                     ; zero the extruded length again 
G1 E-2 F500                                ; Retract a little 
G1 X70 F4000                              ; Quickly wipe away from the filament line
M117
G21 ; set units to millimeters
G90 ; use absolute coordinates
M82 ; use absolute distances for extrusion
G92 E0
M107
;LAYER_CHANGE
;Z:0.28
;HEIGHT:0.28
G1 E-2 F4800
G92 E0
G1 Z.28 F7200
G92 E0
G1 X199.565 Y108.131
G1 E2 F4800
G92 E0
;TYPE:Support material
;WIDTH:0.56
G1 F3000
G1 X199.56 Y112.411 E.24907
G1 X192.627 Y112.407 E.65254
G1 X192.627 Y103.771 E1.15511
G1 X199.565 Y103.771 E1.55887
G1 X199.565 Y108.056 E1.80824
G1 X199.565 Y108.056 F7200
G1 X199.054 Y112.186
G1 F3000
G1 X199.054 Y104.221 E2.27176
G1 X198.499 Y104.221 E2.30406
G1 X198.499 Y111.961 E2.75449
G1 X197.943 Y111.96 E2.78685
G1 X197.943 Y104.221 E3.23722
G1 X197.388 Y104.221 E3.26952
G1 X197.388 Y111.96 E3.71989
G1 X196.832 Y111.96 E3.75225
G1 X196.832 Y104.221 E4.20262
G1 X196.277 Y104.221 E4.23492
G1 X196.277 Y111.959 E4.68523
G1 X195.721 Y111.959 E4.71759
G1 X195.721 Y104.221 E5.1679
G1 X195.166 Y104.221 E5.2002
G1 X195.166 Y111.959 E5.65051
G1 X194.61 Y111.958 E5.68287
G1 X194.61 Y104.221 E6.13312
G1 X194.055 Y104.221 E6.16542
G1 X194.055 Y111.958 E6.61567
G1 X193.499 Y111.958 E6.64803
G1 X193.499 Y103.996 E7.11138
G1 E5.71138 F4800
;WIPE_START
G1 F5760
G1 X193.499 Y104.754 E5.11138
;WIPE_END
G92 E0
G1 X192.417 Y141.957 F7200
G1 E2 F4800
;TYPE:External perimeter
G1 F3000
G1 X192.417 Y129.945 E2.69904
G1 X193.258 Y129.913 E2.74802
G1 X194.191 Y129.959 E2.80238
G1 X194.948 Y130.055 E2.84679
G1 X195.318 Y130.121 E2.86866
G1 X196.065 Y130.293 E2.91327
G1 X196.429 Y130.397 E2.9353
G1 X196.79 Y130.512 E2.95735
G1 X197.507 Y130.783 E3.00196
G1 X197.851 Y130.934 E3.02382
G1 X198.538 Y131.276 E3.06848
G1 X198.866 Y131.46 E3.09037
G1 X199.513 Y131.868 E3.13488
G1 X199.99 Y132.213 E3.16914
G1 X200.423 Y132.556 E3.20129
G1 X200.993 Y133.066 E3.2458
G1 X201.262 Y133.333 E3.26786
G1 X201.521 Y133.608 E3.28984
G1 X202.017 Y134.19 E3.33434
G1 X202.471 Y134.802 E3.37869
G1 X202.883 Y135.443 E3.42303
G1 X203.251 Y136.11 E3.46736
G1 X203.573 Y136.8 E3.51167
G1 X203.849 Y137.513 E3.55616
G1 X203.967 Y137.87 E3.57804
G1 X204.171 Y138.609 E3.62265
G1 X204.252 Y138.976 E3.64452
G1 X204.38 Y139.732 E3.68914
G1 X204.424 Y140.106 E3.71106
G1 X204.476 Y140.871 E3.75568
G1 X204.482 Y141.249 E3.77768
G1 X204.476 Y141.628 E3.79974
G1 X204.424 Y142.393 E3.84436
G1 X204.38 Y142.766 E3.86622
G1 X204.252 Y143.522 E3.91084
G1 X204.171 Y143.889 E3.93271
G1 X203.967 Y144.628 E3.97732
G1 X203.849 Y144.986 E3.99926
G1 X203.573 Y145.698 E4.0437
G1 X203.251 Y146.389 E4.08806
G1 X202.883 Y147.056 E4.13239
G1 X202.471 Y147.697 E4.17673
G1 X202.017 Y148.308 E4.22103
G1 X201.523 Y148.888 E4.26537
G1 X200.991 Y149.434 E4.30973
G1 X200.422 Y149.944 E4.3542
G1 X200.129 Y150.18 E4.37609
G1 X199.51 Y150.632 E4.42069
G1 X199.195 Y150.838 E4.44259
G1 X198.536 Y151.224 E4.48703
G1 X197.854 Y151.564 E4.53138
G1 X197.148 Y151.857 E4.57586
G1 X196.794 Y151.984 E4.59775
G1 X196.06 Y152.207 E4.64239
G1 X195.695 Y152.297 E4.66427
G1 X194.943 Y152.445 E4.70887
G1 X194.57 Y152.498 E4.73079
G1 X193.81 Y152.569 E4.77521
G1 X193.046 Y152.588 E4.81968
G1 X192.669 Y152.578 E4.84163
G1 X191.905 Y152.52 E4.88622
G1 X191.532 Y152.473 E4.9081
G1 X190.777 Y152.339 E4.95272
G1 X190.411 Y152.254 E4.97459
G1 X189.675 Y152.045 E5.01911
G1 X188.958 Y151.788 E5.06344
G1 X188.26 Y151.483 E5.10777
G1 X187.584 Y151.132 E5.1521
G1 X186.931 Y150.735 E5.19657
G1 X186.62 Y150.524 E5.21844
G1 X186.008 Y150.062 E5.26306
G1 X185.718 Y149.819 E5.28508
G1 X185.436 Y149.566 E5.30713
G1 X184.891 Y149.026 E5.35178
G1 X184.638 Y148.748 E5.37365
G1 X184.151 Y148.156 E5.41826
G1 X183.926 Y147.854 E5.44018
G1 X183.503 Y147.218 E5.48463
G1 X183.123 Y146.558 E5.52895
G1 X182.789 Y145.871 E5.5734
G1 X182.641 Y145.525 E5.5953
G1 X182.376 Y144.805 E5.63995
G1 X182.264 Y144.446 E5.66184
G1 X182.073 Y143.704 E5.70643
G1 X181.998 Y143.335 E5.72834
G1 X181.883 Y142.581 E5.77273
G1 X181.838 Y141.957 E5.80914
G1 X192.357 Y141.957 E6.42129
G1 X192.357 Y141.957 F7200
G1 X192.917 Y142.457
;TYPE:Perimeter
G1 F3000
G1 X192.917 Y130.426 E7.12143
G1 X193.255 Y130.413 E7.14111
G1 X194.147 Y130.457 E7.19308
G1 X195.218 Y130.611 E7.25605
G1 X195.94 Y130.777 E7.29916
G1 X196.284 Y130.875 E7.31998
G1 X196.625 Y130.985 E7.34083
G1 X197.318 Y131.247 E7.38395
G1 X197.64 Y131.387 E7.40438
G1 X198.304 Y131.717 E7.44753
G1 X199.233 Y132.283 E7.51084
G1 X199.689 Y132.612 E7.54356
G1 X200.101 Y132.938 E7.57413
G1 X200.65 Y133.43 E7.61703
G1 X200.904 Y133.682 E7.63785
G1 X201.149 Y133.942 E7.65864
G1 X201.625 Y134.501 E7.70137
G1 X202.059 Y135.086 E7.74376
G1 X202.453 Y135.699 E7.78617
G1 X202.805 Y136.337 E7.82857
G1 X203.113 Y136.996 E7.8709
G1 X203.488 Y138.015 E7.93409
G1 X203.685 Y138.73 E7.97725
G1 X203.761 Y139.072 E7.99764
G1 X203.885 Y139.803 E8.04079
G1 X203.927 Y140.152 E8.06125
G1 X203.976 Y140.892 E8.10441
G1 X203.982 Y141.249 E8.12519
G1 X203.976 Y141.607 E8.14603
G1 X203.927 Y142.346 E8.18913
G1 X203.885 Y142.695 E8.20959
G1 X203.761 Y143.426 E8.25274
G1 X203.685 Y143.769 E8.27318
G1 X203.378 Y144.817 E8.33673
G1 X203.113 Y145.502 E8.37947
G1 X202.805 Y146.162 E8.42186
G1 X202.453 Y146.799 E8.46421
G1 X202.059 Y147.412 E8.50662
G1 X201.625 Y147.997 E8.54901
G1 X201.153 Y148.551 E8.59136
G1 X200.645 Y149.073 E8.63375
G1 X199.825 Y149.784 E8.69691
G1 X199.226 Y150.221 E8.74006
G1 X198.932 Y150.413 E8.76049
G1 X198.298 Y150.784 E8.80324
G1 X197.646 Y151.109 E8.84564
G1 X196.637 Y151.51 E8.90883
G1 X195.928 Y151.725 E8.95195
G1 X194.859 Y151.952 E9.01555
G1 X193.78 Y152.069 E9.07871
G1 X192.695 Y152.079 E9.14185
G1 X191.955 Y152.023 E9.18504
G1 X191.607 Y151.979 E9.20545
G1 X190.877 Y151.849 E9.2486
G1 X189.828 Y151.569 E9.31178
G1 X189.143 Y151.323 E9.35414
G1 X188.476 Y151.032 E9.39649
G1 X187.829 Y150.696 E9.43892
G1 X186.911 Y150.117 E9.50208
G1 X186.319 Y149.671 E9.54521
G1 X186.045 Y149.441 E9.56603
G1 X185.779 Y149.202 E9.58684
G1 X185.252 Y148.68 E9.63001
G1 X185.016 Y148.421 E9.6504
G1 X184.545 Y147.848 E9.69357
G1 X183.928 Y146.955 E9.75674
G1 X183.565 Y146.323 E9.79915
G1 X183.244 Y145.663 E9.84186
G1 X183.106 Y145.34 E9.8623
G1 X182.85 Y144.644 E9.90546
G1 X182.745 Y144.309 E9.92589
G1 X182.56 Y143.591 E9.96904
G1 X182.49 Y143.247 E9.98947
G1 X182.369 Y142.457 E10.03598
G1 X192.857 Y142.457 E10.64633
G1 X192.857 Y142.457 F7200
G1 X193.417 Y142.957
G1 F3000
G1 X193.417 Y130.921 E11.34676
G1 X194.103 Y130.955 E11.38673
G1 X195.118 Y131.101 E11.44641
G1 X196.139 Y131.354 E11.50762
G1 X197.13 Y131.71 E11.5689
G1 X198.069 Y132.159 E11.62947
G1 X198.953 Y132.697 E11.68969
G1 X199.778 Y133.32 E11.74985
G1 X200.546 Y134.031 E11.81076
G1 X201.234 Y134.813 E11.87137
G1 X201.648 Y135.371 E11.9118
G1 X202.023 Y135.955 E11.95219
G1 X202.359 Y136.563 E11.99262
G1 X202.653 Y137.193 E12.03308
G1 X203.01 Y138.16 E12.09307
G1 X203.271 Y139.168 E12.15367
G1 X203.429 Y140.198 E12.21431
G1 X203.482 Y141.249 E12.27555
G1 X203.429 Y142.3 E12.33679
G1 X203.271 Y143.33 E12.39743
G1 X203.2 Y143.648 E12.41639
G1 X202.908 Y144.648 E12.47702
G1 X202.653 Y145.306 E12.51809
G1 X202.359 Y145.935 E12.5585
G1 X202.023 Y146.543 E12.59893
G1 X201.648 Y147.128 E12.63937
G1 X201.234 Y147.686 E12.6798
G1 X200.784 Y148.214 E12.72017
G1 X200.299 Y148.712 E12.76062
G1 X199.52 Y149.387 E12.82061
G1 X198.669 Y149.988 E12.88124
G1 X198.06 Y150.344 E12.92229
G1 X197.438 Y150.654 E12.96273
G1 X196.48 Y151.035 E13.02273
G1 X195.795 Y151.242 E13.06437
G1 X194.776 Y151.459 E13.125
G1 X193.751 Y151.57 E13.185
G1 X192.72 Y151.58 E13.245
G1 X192.006 Y151.525 E13.28667
G1 X190.977 Y151.359 E13.34733
G1 X189.981 Y151.092 E13.40734
G1 X189.328 Y150.858 E13.44771
G1 X188.691 Y150.58 E13.48816
G1 X188.074 Y150.26 E13.52861
G1 X187.472 Y149.894 E13.56961
G1 X186.631 Y149.279 E13.63024
G1 X186.122 Y148.838 E13.66943
G1 X185.394 Y148.093 E13.73005
G1 X184.939 Y147.54 E13.77172
G1 X184.353 Y146.692 E13.83171
G1 X184.007 Y146.089 E13.87217
G1 X183.571 Y145.155 E13.93215
G1 X183.323 Y144.483 E13.97384
G1 X183.047 Y143.479 E14.03444
G1 X182.951 Y142.957 E14.06533
G1 X193.357 Y142.957 E14.67091
G1 X193.357 Y142.957 F7200
G1 X193.917 Y143.457
G1 F3000
G1 X193.917 Y131.436 E15.37047
G1 X194.722 Y131.538 E15.41769
G1 X195.691 Y131.746 E15.47537
G1 X196.295 Y131.929 E15.5121
G1 X197.217 Y132.293 E15.56979
G1 X198.097 Y132.749 E15.62747
G1 X198.673 Y133.112 E15.66709
G1 X199.456 Y133.703 E15.72418
G1 X200.188 Y134.38 E15.7822
G1 X200.843 Y135.124 E15.83989
G1 X201.236 Y135.655 E15.87833
G1 X201.594 Y136.211 E15.91681
G1 X201.913 Y136.79 E15.95528
G1 X202.193 Y137.389 E15.99376
G1 X202.531 Y138.305 E16.05058
G1 X202.78 Y139.264 E16.10824
G1 X202.931 Y140.244 E16.16594
G1 X202.982 Y141.249 E16.2245
G1 X202.977 Y141.565 E16.24289
G1 X202.895 Y142.553 E16.30058
G1 X202.715 Y143.527 E16.35822
G1 X202.437 Y144.479 E16.41594
G1 X202.193 Y145.109 E16.45526
G1 X201.913 Y145.708 E16.49374
G1 X201.594 Y146.287 E16.53221
G1 X201.236 Y146.843 E16.57069
G1 X200.843 Y147.374 E16.60913
G1 X200.414 Y147.877 E16.6476
G1 X199.952 Y148.351 E16.68612
G1 X199.215 Y148.991 E16.74292
G1 X198.405 Y149.563 E16.80063
G1 X197.822 Y149.904 E16.83994
G1 X197.23 Y150.199 E16.87843
G1 X196.323 Y150.56 E16.93524
G1 X195.662 Y150.76 E16.97543
G1 X194.692 Y150.965 E17.03313
G1 X193.721 Y151.071 E17.08997
G1 X192.745 Y151.08 E17.14677
G1 X191.758 Y150.99 E17.20445
G1 X191.078 Y150.869 E17.24464
G1 X190.134 Y150.616 E17.30151
G1 X189.512 Y150.393 E17.33996
G1 X188.906 Y150.129 E17.37843
G1 X188.32 Y149.824 E17.41687
G1 X187.742 Y149.473 E17.45622
G1 X186.942 Y148.888 E17.5139
G1 X186.465 Y148.474 E17.55066
G1 X185.772 Y147.766 E17.60831
G1 X185.333 Y147.232 E17.64854
G1 X184.778 Y146.428 E17.70539
G1 X184.449 Y145.855 E17.74384
G1 X184.035 Y144.971 E17.80065
G1 X183.797 Y144.323 E17.84082
G1 X183.558 Y143.457 E17.8931
G1 X193.857 Y143.457 E18.49245
G1 X193.857 Y143.457 F7200
G1 X194.416 Y143.957
G1 F3000
G1 X194.416 Y132.003 E19.18811
G1 X194.646 Y132.032 E19.2016
G1 X195.566 Y132.23 E19.25637
G1 X196.13 Y132.401 E19.29067
G1 X197.005 Y132.746 E19.34541
G1 X197.841 Y133.178 E19.40017
G1 X198.393 Y133.526 E19.43814
G1 X199.134 Y134.085 E19.49216
G1 X199.83 Y134.729 E19.54734
G1 X200.451 Y135.436 E19.6021
G1 X200.825 Y135.94 E19.63862
G1 X201.164 Y136.467 E19.67509
G1 X201.467 Y137.017 E19.71163
G1 X201.733 Y137.585 E19.74813
G1 X202.053 Y138.45 E19.8018
G1 X202.289 Y139.36 E19.85651
G1 X202.433 Y140.29 E19.91128
G1 X202.482 Y141.249 E19.96716
G1 X202.477 Y141.544 E19.98433
G1 X202.4 Y142.482 E20.0391
G1 X202.229 Y143.407 E20.09384
G1 X201.966 Y144.31 E20.14857
G1 X201.733 Y144.913 E20.18619
G1 X201.467 Y145.482 E20.22274
G1 X201.164 Y146.031 E20.25923
G1 X200.825 Y146.559 E20.29574
G1 X200.451 Y147.063 E20.33226
G1 X200.044 Y147.54 E20.36875
G1 X199.606 Y147.99 E20.40529
G1 X198.911 Y148.594 E20.45887
G1 X198.142 Y149.137 E20.51365
G1 X197.584 Y149.464 E20.55129
G1 X197.022 Y149.744 E20.58783
G1 X196.166 Y150.085 E20.64145
G1 X195.529 Y150.278 E20.68018
G1 X194.608 Y150.472 E20.73495
G1 X193.692 Y150.571 E20.78857
G1 X192.77 Y150.581 E20.84223
G1 X191.833 Y150.496 E20.89698
G1 X191.178 Y150.379 E20.9357
G1 X190.287 Y150.14 E20.98938
G1 X189.697 Y149.928 E21.02586
G1 X189.122 Y149.677 E21.06237
G1 X188.565 Y149.388 E21.09889
G1 X188.012 Y149.052 E21.13655
G1 X187.253 Y148.496 E21.1913
G1 X187.027 Y148.307 E21.20845
G1 X186.808 Y148.111 E21.22555
G1 X186.15 Y147.438 E21.28032
G1 X185.726 Y146.924 E21.3191
G1 X185.204 Y146.165 E21.37271
G1 X184.891 Y145.621 E21.40923
G1 X184.608 Y145.04 E21.44684
G1 X184.5 Y144.786 E21.4629
G1 X184.206 Y143.957 E21.51409
G1 X194.356 Y143.957 E22.10477
G1 X194.356 Y143.957 F7200
G1 X194.916 Y144.457
G1 F3000
G1 X194.916 Y132.593 E22.79519
G1 X195.441 Y132.714 E22.82654
G1 X195.965 Y132.873 E22.85841
G1 X196.794 Y133.199 E22.91025
G1 X197.585 Y133.608 E22.96207
G1 X198.113 Y133.941 E22.9984
G1 X198.482 Y134.207 E23.02487
G1 X198.811 Y134.468 E23.04931
G1 X199.277 Y134.886 E23.08574
G1 X199.659 Y135.277 E23.11755
G1 X200.06 Y135.747 E23.1535
G1 X200.413 Y136.224 E23.18803
G1 X200.735 Y136.723 E23.22259
G1 X201.021 Y137.243 E23.25713
G1 X201.272 Y137.781 E23.29168
G1 X201.495 Y138.357 E23.32762
G1 X201.744 Y139.212 E23.37944
G1 X201.905 Y140.088 E23.43127
G1 X201.978 Y140.976 E23.48312
G1 X201.978 Y141.523 E23.51495
G1 X201.905 Y142.41 E23.56674
G1 X201.744 Y143.286 E23.61857
G1 X201.574 Y143.904 E23.65587
G1 X201.273 Y144.717 E23.70632
G1 X201.021 Y145.255 E23.74089
G1 X200.735 Y145.775 E23.77543
G1 X200.413 Y146.274 E23.80999
G1 X200.06 Y146.751 E23.84452
G1 X199.675 Y147.203 E23.87907
G1 X199.26 Y147.628 E23.91364
G1 X198.606 Y148.198 E23.96413
G1 X197.879 Y148.712 E24.01594
G1 X197.346 Y149.024 E24.05188
G1 X196.815 Y149.289 E24.08642
G1 X196.245 Y149.526 E24.12234
G1 X195.396 Y149.796 E24.17419
G1 X194.525 Y149.979 E24.22598
G1 X193.663 Y150.072 E24.27644
G1 X192.795 Y150.081 E24.32696
G1 X191.908 Y150.001 E24.37879
G1 X191.034 Y149.833 E24.43058
G1 X190.44 Y149.664 E24.46652
G1 X189.881 Y149.463 E24.50109
G1 X189.337 Y149.226 E24.53562
G1 X188.81 Y148.952 E24.57019
G1 X188.283 Y148.632 E24.60607
G1 X187.564 Y148.105 E24.65795
G1 X187.355 Y147.929 E24.67385
G1 X186.696 Y147.296 E24.72703
G1 X186.528 Y147.111 E24.74157
G1 X185.971 Y146.415 E24.79345
G1 X185.629 Y145.902 E24.82933
G1 X185.333 Y145.387 E24.8639
G1 X185.063 Y144.832 E24.89982
G1 X184.903 Y144.457 E24.92355
G1 X194.856 Y144.457 E25.50276
G1 X194.856 Y144.457 F7200
G1 X195.416 Y144.957
G1 F3000
G1 X195.416 Y133.222 E26.18568
G1 X195.8 Y133.345 E26.20915
G1 X196.582 Y133.653 E26.25806
G1 X197.133 Y133.927 E26.29387
G1 X197.833 Y134.355 E26.34162
G1 X198.489 Y134.85 E26.38944
G1 X199.114 Y135.427 E26.43894
G1 X199.668 Y136.058 E26.48781
G1 X200.002 Y136.508 E26.52042
G1 X200.305 Y136.98 E26.55306
G1 X200.575 Y137.47 E26.58562
G1 X200.812 Y137.978 E26.61824
G1 X201.095 Y138.74 E26.66554
G1 X201.308 Y139.552 E26.71439
G1 X201.437 Y140.383 E26.76333
G1 X201.482 Y141.249 E26.81379
G1 X201.437 Y142.116 E26.86431
G1 X201.308 Y142.946 E26.91319
G1 X201.095 Y143.759 E26.9621
G1 X200.812 Y144.521 E27.0094
G1 X200.575 Y145.028 E27.04197
G1 X200.305 Y145.519 E27.07458
G1 X200.002 Y145.99 E27.10717
G1 X199.668 Y146.44 E27.13978
G1 X199.305 Y146.866 E27.17235
G1 X198.914 Y147.267 E27.20494
G1 X198.476 Y147.66 E27.23919
G1 X197.804 Y148.164 E27.28807
G1 X197.108 Y148.584 E27.33538
G1 X196.607 Y148.834 E27.36796
G1 X195.852 Y149.136 E27.41528
G1 X195.045 Y149.368 E27.46415
